; generated by Slic3r Prusa Edition 1.41.0-alpha3+ on 2018-07-28 at 19:13:33

; 

; external perimeters extrusion width = 0.45mm
; perimeters extrusion width = 0.45mm
; infill extrusion width = 0.45mm
; solid infill extrusion width = 0.45mm
; top infill extrusion width = 0.40mm
; first layer extrusion width = 0.42mm

M201 X9000 Y9000 Z500 E10000 ; sets maximum accelerations, mm/sec^2
M203 X500 Y500 Z12 E120 ; sets maximum feedrates, mm/sec
M204 S2000 T1500 ; sets acceleration (S) and retract acceleration (T), mm/sec^2
M205 X10.00 Y10.00 Z0.20 E2.50 ; sets the jerk limits, mm/sec
M205 S0 T0 ; sets the minimum extruding and travel feed rate, mm/sec
M107
M115 U3.1.0 ; tell printer latest fw version
M83  ; extruder relative mode
M104 S215 ; set extruder temp
M140 S60 ; set bed temp
M190 S60 ; wait for bed temp
M109 S215 ; wait for extruder temp
G28 W ; home all without mesh bed level
G80 ; mesh bed leveling
G1 Y-3.0 F1000.0 ; go outside print area
G92 E0.0
G1 X60.0 E9.0  F1000.0 ; intro line
M73 P0 R33
G1 X100.0 E12.5  F1000.0 ; intro line
G92 E0.0
M900 K30; Filament gcode
G21 ; set units to millimeters
G90 ; use absolute coordinates
M83 ; use relative distances for extrusion
;BEFORE_LAYER_CHANGE
G92 E0.0
;0.2


G1 E-0.80000 F2100.00000
G1 Z0.600 F10800.000
;AFTER_LAYER_CHANGE
;0.2
G1 X112.614 Y94.057
G1 Z0.200
G1 E0.80000 F2100.00000
M204 S1000
G1 F1800
G1 X113.080 Y93.299 E0.02790
G1 X113.457 Y92.950 E0.01610
G1 X113.900 Y92.682 E0.01623
G1 X114.387 Y92.509 E0.01623
G1 X114.899 Y92.436 E0.01623
G1 X135.004 Y92.434 E0.63036
G1 X135.936 Y92.611 E0.02973
G1 X136.742 Y93.117 E0.02985
G1 X137.309 Y93.882 E0.02985
G1 X137.558 Y94.797 E0.02973
G1 X137.565 Y115.075 E0.63582
G1 X137.386 Y115.943 E0.02778
G1 X136.920 Y116.701 E0.02790
G1 X136.527 Y117.061 E0.01672
G1 X136.065 Y117.334 E0.01684
G1 X135.559 Y117.504 E0.01672
G1 X135.025 Y117.565 E0.01684
G1 X114.925 Y117.565 E0.63024
G1 X114.057 Y117.386 E0.02778
G1 X113.299 Y116.920 E0.02790
G1 X112.939 Y116.527 E0.01672
G1 X112.666 Y116.065 E0.01684
G1 X112.496 Y115.559 E0.01672
G1 X112.435 Y115.025 E0.01684
G1 X112.435 Y94.925 E0.63024
G1 X112.602 Y94.116 E0.02590
G1 F8640
G1 X113.080 Y93.299 E-0.21853
G1 X113.457 Y92.950 E-0.11859
G1 X113.900 Y92.682 E-0.11949
G1 X114.387 Y92.509 E-0.11949
G1 X114.899 Y92.436 E-0.11949
G1 X115.178 Y92.436 E-0.06440
G1 E-0.04000 F2100.00000
G1 Z0.800 F10800.000
G1 X114.074 Y93.017
G1 Z0.200
G1 E0.80000 F2100.00000
G1 F1800
G1 X114.925 Y92.813 E0.02743
G1 X135.004 Y92.811 E0.62956
G1 X135.803 Y92.964 E0.02552
G1 X136.494 Y93.401 E0.02563
G1 X136.975 Y94.057 E0.02552
G1 X137.183 Y94.848 E0.02563
G1 X137.188 Y115.055 E0.63357
G1 X137.033 Y115.810 E0.02417
G1 X136.626 Y116.465 E0.02417
G1 X135.899 Y116.995 E0.02822
G1 X135.017 Y117.188 E0.02833
G1 X114.942 Y117.188 E0.62945
G1 X114.187 Y117.032 E0.02417
G1 X113.535 Y116.626 E0.02405
G1 X113.005 Y115.899 E0.02822
G1 X112.812 Y115.017 E0.02833
G1 X112.812 Y94.942 E0.62945
G1 X112.968 Y94.187 E0.02417
G1 X113.374 Y93.535 E0.02405
G1 X114.026 Y93.053 E0.02544
; PURGING FINISHED
G1 F8640
G1 X114.925 Y92.813 E-0.21483
G1 X117.286 Y92.813 E-0.54517
G1 E-0.04000 F2100.00000
G1 Z0.800 F10800.000
G1 X116.341 Y96.341
G1 Z0.200
G1 E0.80000 F2100.00000
G1 F1800
G1 X133.659 Y96.341 E0.54298
G1 X133.659 Y113.659 E0.54298
G1 X116.341 Y113.659 E0.54298
G1 X116.341 Y96.401 E0.54110
G1 X115.964 Y95.964 F10800.000
G1 F1800
G1 X134.036 Y95.964 E0.56663
G1 X134.036 Y114.036 E0.56663
G1 X115.964 Y114.036 E0.56663
G1 X115.964 Y96.024 E0.56474
G1 X115.587 Y95.587 F10800.000
G1 F1800
G1 X134.413 Y95.587 E0.59027
G1 X134.413 Y114.413 E0.59027
G1 X115.587 Y114.413 E0.59027
G1 X115.587 Y95.647 E0.58839
G1 X115.210 Y95.210 F10800.000
G1 F1800
G1 X134.790 Y95.210 E0.61392
G1 X134.790 Y114.790 E0.61392
G1 X115.210 Y114.790 E0.61392
G1 X115.210 Y95.270 E0.61204
G1 X115.596 Y95.314 F10800.000
G1 F8640
G1 X118.501 Y95.260 E-0.76000
G1 E-0.04000 F2100.00000
G1 Z0.800 F10800.000
G1 X117.220 Y113.546
G1 Z0.200
G1 E0.80000 F2100.00000
G1 F1800
G1 X116.624 Y112.950 E0.02651
G1 X116.624 Y112.415 E0.01685
G1 X117.585 Y113.376 E0.04278
G1 X118.120 Y113.376 E0.01685
G1 X116.624 Y111.880 E0.06660
G1 X116.624 Y111.344 E0.01685
G1 X118.656 Y113.376 E0.09043
G1 X119.191 Y113.376 E0.01685
G1 X116.624 Y110.809 E0.11425
G1 X116.624 Y110.274 E0.01685
G1 X119.726 Y113.376 E0.13808
G1 X120.262 Y113.376 E0.01685
G1 X116.624 Y109.738 E0.16190
G1 X116.624 Y109.203 E0.01685
G1 X120.797 Y113.376 E0.18573
G1 X121.332 Y113.376 E0.01685
G1 X116.624 Y108.668 E0.20955
G1 X116.624 Y108.133 E0.01685
G1 X121.867 Y113.376 E0.23338
G1 X122.403 Y113.376 E0.01685
G1 X116.624 Y107.597 E0.25720
G1 X116.624 Y107.062 E0.01685
G1 X122.938 Y113.376 E0.28103
G1 X123.473 Y113.376 E0.01685
G1 X116.624 Y106.527 E0.30485
G1 X116.624 Y105.991 E0.01685
G1 X124.009 Y113.376 E0.32867
G1 X124.544 Y113.376 E0.01685
G1 X116.624 Y105.456 E0.35250
G1 X116.624 Y104.921 E0.01685
G1 X125.079 Y113.376 E0.37632
G1 X125.614 Y113.376 E0.01685
G1 X116.624 Y104.386 E0.40015
G1 X116.624 Y103.850 E0.01685
G1 X126.150 Y113.376 E0.42397
G1 X126.685 Y113.376 E0.01685
G1 X116.624 Y103.315 E0.44780
G1 X116.624 Y102.780 E0.01685
G1 X127.220 Y113.376 E0.47162
G1 X127.755 Y113.376 E0.01685
G1 X116.624 Y102.245 E0.49545
G1 X116.624 Y101.709 E0.01685
G1 X128.291 Y113.376 E0.51927
G1 X128.826 Y113.376 E0.01685
G1 X116.624 Y101.174 E0.54310
G1 X116.624 Y100.639 E0.01685
G1 X129.361 Y113.376 E0.56692
G1 X129.897 Y113.376 E0.01685
G1 X116.624 Y100.103 E0.59075
G1 X116.624 Y99.568 E0.01685
G1 X130.432 Y113.376 E0.61457
G1 X130.967 Y113.376 E0.01685
G1 X116.624 Y99.033 E0.63840
G1 X116.624 Y98.498 E0.01685
G1 X131.502 Y113.376 E0.66222
G1 X132.038 Y113.376 E0.01685
G1 X116.624 Y97.962 E0.68605
G1 X116.624 Y97.427 E0.01685
G1 X132.573 Y113.376 E0.70987
G1 X133.108 Y113.376 E0.01685
G1 X116.624 Y96.892 E0.73370
G1 X116.624 Y96.624 E0.00842
G1 X116.892 Y96.624 E0.00842
G1 X133.376 Y113.108 E0.73370
G1 X133.376 Y112.573 E0.01685
G1 X117.427 Y96.624 E0.70987
G1 X117.962 Y96.624 E0.01685
G1 X133.376 Y112.038 E0.68605
G1 X133.376 Y111.503 E0.01685
G1 X118.497 Y96.624 E0.66222
G1 X119.033 Y96.624 E0.01685
G1 X133.376 Y110.967 E0.63840
G1 X133.376 Y110.432 E0.01685
G1 X119.568 Y96.624 E0.61458
G1 X120.103 Y96.624 E0.01685
G1 X133.376 Y109.897 E0.59075
G1 X133.376 Y109.361 E0.01685
G1 X120.639 Y96.624 E0.56693
G1 X121.174 Y96.624 E0.01685
G1 X133.376 Y108.826 E0.54310
G1 X133.376 Y108.291 E0.01685
G1 X121.709 Y96.624 E0.51928
G1 X122.244 Y96.624 E0.01685
G1 X133.376 Y107.756 E0.49545
G1 X133.376 Y107.220 E0.01685
G1 X122.780 Y96.624 E0.47163
G1 X123.315 Y96.624 E0.01685
G1 X133.376 Y106.685 E0.44780
G1 X133.376 Y106.150 E0.01685
G1 X123.850 Y96.624 E0.42398
G1 X124.386 Y96.624 E0.01685
G1 X133.376 Y105.614 E0.40015
G1 X133.376 Y105.079 E0.01685
G1 X124.921 Y96.624 E0.37633
G1 X125.456 Y96.624 E0.01685
G1 X133.376 Y104.544 E0.35250
G1 X133.376 Y104.009 E0.01685
G1 X125.991 Y96.624 E0.32868
G1 X126.527 Y96.624 E0.01685
G1 X133.376 Y103.473 E0.30485
G1 X133.376 Y102.938 E0.01685
G1 X127.062 Y96.624 E0.28103
G1 X127.597 Y96.624 E0.01685
G1 X133.376 Y102.403 E0.25720
G1 X133.376 Y101.867 E0.01685
G1 X128.133 Y96.624 E0.23338
G1 X128.668 Y96.624 E0.01685
G1 X133.376 Y101.332 E0.20955
G1 X133.376 Y100.797 E0.01685
G1 X129.203 Y96.624 E0.18573
G1 X129.738 Y96.624 E0.01685
G1 X133.376 Y100.262 E0.16191
G1 X133.376 Y99.726 E0.01685
G1 X130.274 Y96.624 E0.13808
G1 X130.809 Y96.624 E0.01685
G1 X133.376 Y99.191 E0.11426
G1 X133.376 Y98.656 E0.01685
G1 X131.344 Y96.624 E0.09043
G1 X131.879 Y96.624 E0.01685
G1 X133.376 Y98.121 E0.06661
G1 X133.376 Y97.585 E0.01685
G1 X132.415 Y96.624 E0.04278
G1 X132.950 Y96.624 E0.01685
G1 X133.546 Y97.220 E0.02651
M106 S255
;BEFORE_LAYER_CHANGE
G92 E0.0
;0.4


G1 F8640
G1 X132.950 Y96.624 E-0.19449
G1 X132.415 Y96.624 E-0.12360
G1 X133.376 Y97.585 E-0.31387
G1 X133.376 Y98.121 E-0.12360
G1 X133.362 Y98.107 E-0.00444
G1 E-0.04000 F2100.00000
G1 Z0.800 F10800.000
;AFTER_LAYER_CHANGE
;0.4
M104 S210 ; set temperature
G1 X137.309 Y93.882
G1 Z0.400
G1 E0.80000 F2100.00000
G1 F3364
G1 X137.558 Y94.797 E0.02973
G1 X137.565 Y115.075 E0.63582
G1 X137.386 Y115.943 E0.02778
G1 X136.920 Y116.701 E0.02790
G1 X136.527 Y117.061 E0.01672
G1 X136.065 Y117.334 E0.01684
G1 X135.559 Y117.504 E0.01672
G1 X135.025 Y117.565 E0.01684
G1 X114.925 Y117.565 E0.63024
G1 X114.057 Y117.386 E0.02778
G1 X113.299 Y116.920 E0.02790
G1 X112.939 Y116.527 E0.01672
G1 X112.666 Y116.065 E0.01684
G1 X112.496 Y115.559 E0.01672
G1 X112.435 Y115.025 E0.01684
G1 X112.435 Y94.925 E0.63024
G1 X112.614 Y94.057 E0.02778
G1 X113.080 Y93.299 E0.02790
G1 X113.457 Y92.950 E0.01610
G1 X113.900 Y92.682 E0.01623
G1 X114.387 Y92.509 E0.01623
G1 X114.899 Y92.436 E0.01623
G1 X135.004 Y92.434 E0.63036
G1 X135.936 Y92.611 E0.02973
G1 X136.742 Y93.117 E0.02985
G1 X137.273 Y93.833 E0.02797
; PURGING FINISHED
G1 F8640
G1 X137.558 Y94.797 E-0.23190
G1 X137.558 Y97.084 E-0.52810
G1 E-0.04000 F2100.00000
G1 Z1.000 F10800.000
G1 X133.554 Y96.446
G1 Z0.400
G1 E0.80000 F2100.00000
M204 S800
G1 F3364
G1 X133.554 Y113.554 E0.57907
G1 X116.446 Y113.554 E0.57907
G1 X116.446 Y96.446 E0.57907
G1 X133.494 Y96.446 E0.57704
M204 S1000
G1 X133.961 Y96.039 F10800.000
M204 S800
G1 F3364
G1 X133.961 Y113.961 E0.60663
G1 X116.039 Y113.961 E0.60663
G1 X116.039 Y96.039 E0.60663
G1 X133.901 Y96.039 E0.60460
M204 S1000
G1 X134.368 Y95.632 F10800.000
M204 S800
G1 F3364
G1 X134.368 Y114.368 E0.63419
G1 X115.632 Y114.368 E0.63419
G1 X115.632 Y95.632 E0.63419
G1 X134.308 Y95.632 E0.63216
M204 S1000
G1 X134.775 Y95.225 F10800.000
M204 S800
G1 F3000
G1 X134.775 Y114.775 E0.66174
G1 X115.225 Y114.775 E0.66174
G1 X115.225 Y95.225 E0.66174
G1 X134.715 Y95.225 E0.65971
M204 S1000
G1 X134.671 Y95.611 F10800.000
G1 F8640
G1 X134.725 Y98.516 E-0.76000
G1 E-0.04000 F2100.00000
G1 Z1.000 F10800.000
G1 X116.568 Y97.402
G1 Z0.400
G1 E0.80000 F2100.00000
M204 S1250
G1 F3364
G1 X117.219 Y96.752 E0.03152
G1 X117.802 Y96.752 E0.01998
G1 X116.752 Y97.802 E0.05090
G1 X116.752 Y98.385 E0.01998
G1 X118.385 Y96.752 E0.07915
G1 X118.967 Y96.752 E0.01998
G1 X116.752 Y98.967 E0.10740
G1 X116.752 Y99.550 E0.01998
G1 X119.550 Y96.752 E0.13565
G1 X120.133 Y96.752 E0.01998
G1 X116.752 Y100.133 E0.16390
G1 X116.752 Y100.716 E0.01998
G1 X120.716 Y96.752 E0.19216
G1 X121.299 Y96.752 E0.01998
G1 X116.752 Y101.299 E0.22041
G1 X116.752 Y101.882 E0.01998
G1 X121.882 Y96.752 E0.24866
G1 X122.465 Y96.752 E0.01998
G1 X116.752 Y102.465 E0.27691
G1 X116.752 Y103.048 E0.01998
G1 X123.048 Y96.752 E0.30516
G1 X123.631 Y96.752 E0.01998
G1 X116.752 Y103.631 E0.33342
G1 X116.752 Y104.214 E0.01998
G1 X124.214 Y96.752 E0.36167
G1 X124.796 Y96.752 E0.01998
G1 X116.752 Y104.796 E0.38992
M73 P3 R32
G1 X116.752 Y105.379 E0.01998
G1 X125.379 Y96.752 E0.41817
G1 X125.962 Y96.752 E0.01998
G1 X116.752 Y105.962 E0.44642
G1 X116.752 Y106.545 E0.01998
G1 X126.545 Y96.752 E0.47467
G1 X127.128 Y96.752 E0.01998
G1 X116.752 Y107.128 E0.50293
G1 X116.752 Y107.711 E0.01998
G1 X127.711 Y96.752 E0.53118
G1 X128.294 Y96.752 E0.01998
G1 X116.752 Y108.294 E0.55943
G1 X116.752 Y108.877 E0.01998
G1 X128.877 Y96.752 E0.58768
G1 X129.460 Y96.752 E0.01998
G1 X116.752 Y109.460 E0.61593
G1 X116.752 Y110.042 E0.01998
G1 X130.042 Y96.752 E0.64419
G1 X130.625 Y96.752 E0.01998
G1 X116.752 Y110.625 E0.67244
G1 X116.752 Y111.208 E0.01998
G1 X131.208 Y96.752 E0.70069
G1 X131.791 Y96.752 E0.01998
G1 X116.752 Y111.791 E0.72894
G1 X116.752 Y112.374 E0.01998
G1 X132.374 Y96.752 E0.75719
G1 X132.957 Y96.752 E0.01998
G1 X116.752 Y112.957 E0.78545
G1 X116.752 Y113.248 E0.00999
G1 X117.043 Y113.248 E0.00999
G1 X133.248 Y97.043 E0.78545
G1 X133.248 Y97.626 E0.01998
G1 X117.626 Y113.248 E0.75720
G1 X118.209 Y113.248 E0.01998
G1 X133.248 Y98.209 E0.72895
G1 X133.248 Y98.792 E0.01998
G1 X118.792 Y113.248 E0.70070
G1 X119.375 Y113.248 E0.01998
G1 X133.248 Y99.375 E0.67244
G1 X133.248 Y99.957 E0.01998
G1 X119.957 Y113.248 E0.64419
G1 X120.540 Y113.248 E0.01998
G1 X133.248 Y100.540 E0.61594
G1 X133.248 Y101.123 E0.01998
G1 X121.123 Y113.248 E0.58769
G1 X121.706 Y113.248 E0.01998
G1 X133.248 Y101.706 E0.55944
G1 X133.248 Y102.289 E0.01998
G1 X122.289 Y113.248 E0.53118
G1 X122.872 Y113.248 E0.01998
G1 X133.248 Y102.872 E0.50293
G1 X133.248 Y103.455 E0.01998
G1 X123.455 Y113.248 E0.47468
G1 X124.038 Y113.248 E0.01998
G1 X133.248 Y104.038 E0.44643
G1 X133.248 Y104.621 E0.01998
G1 X124.621 Y113.248 E0.41818
G1 X125.203 Y113.248 E0.01998
G1 X133.248 Y105.203 E0.38992
G1 X133.248 Y105.786 E0.01998
G1 X125.786 Y113.248 E0.36167
G1 X126.369 Y113.248 E0.01998
G1 X133.248 Y106.369 E0.33342
G1 X133.248 Y106.952 E0.01998
G1 X126.952 Y113.248 E0.30517
G1 X127.535 Y113.248 E0.01998
G1 X133.248 Y107.535 E0.27692
G1 X133.248 Y108.118 E0.01998
G1 X128.118 Y113.248 E0.24867
G1 X128.701 Y113.248 E0.01998
G1 X133.248 Y108.701 E0.22041
G1 X133.248 Y109.284 E0.01998
G1 X129.284 Y113.248 E0.19216
G1 X129.867 Y113.248 E0.01998
G1 X133.248 Y109.867 E0.16391
G1 X133.248 Y110.450 E0.01998
G1 X130.450 Y113.248 E0.13566
G1 X131.032 Y113.248 E0.01998
G1 X133.248 Y111.032 E0.10741
G1 X133.248 Y111.615 E0.01998
G1 X131.615 Y113.248 E0.07915
G1 X132.198 Y113.248 E0.01998
G1 X133.248 Y112.198 E0.05090
G1 X133.248 Y112.781 E0.01998
G1 X132.598 Y113.432 E0.03153
M204 S1000
;BEFORE_LAYER_CHANGE
G92 E0.0
;0.6


G1 F8640
G1 X133.248 Y112.781 E-0.21243
G1 X133.248 Y112.198 E-0.13459
G1 X132.198 Y113.248 E-0.34295
G1 X131.895 Y113.248 E-0.07003
G1 E-0.04000 F2100.00000
G1 Z1.000 F10800.000
;AFTER_LAYER_CHANGE
;0.6
G1 X137.386 Y115.943
G1 Z0.600
G1 E0.80000 F2100.00000
G1 F3364
G1 X136.920 Y116.701 E0.02790
G1 X136.527 Y117.061 E0.01672
G1 X136.065 Y117.334 E0.01684
G1 X135.559 Y117.504 E0.01672
G1 X135.025 Y117.565 E0.01684
G1 X114.925 Y117.565 E0.63024
G1 X114.057 Y117.386 E0.02778
G1 X113.299 Y116.920 E0.02790
G1 X112.939 Y116.527 E0.01672
G1 X112.666 Y116.065 E0.01684
G1 X112.496 Y115.559 E0.01672
G1 X112.435 Y115.025 E0.01684
G1 X112.435 Y94.925 E0.63024
G1 X112.614 Y94.057 E0.02778
G1 X113.080 Y93.299 E0.02790
G1 X113.457 Y92.950 E0.01610
G1 X113.900 Y92.682 E0.01623
G1 X114.387 Y92.509 E0.01623
G1 X114.899 Y92.436 E0.01623
G1 X135.004 Y92.434 E0.63036
G1 X135.936 Y92.611 E0.02973
G1 X136.742 Y93.117 E0.02985
G1 X137.309 Y93.882 E0.02985
G1 X137.558 Y94.797 E0.02973
G1 X137.565 Y115.075 E0.63582
G1 X137.398 Y115.884 E0.02590
; PURGING FINISHED
G1 F8640
G1 X136.920 Y116.701 E-0.21853
G1 X136.527 Y117.061 E-0.12313
G1 X136.065 Y117.334 E-0.12404
G1 X135.559 Y117.504 E-0.12313
G1 X135.025 Y117.565 E-0.12404
G1 X134.821 Y117.565 E-0.04713
G1 E-0.04000 F2100.00000
G1 Z1.200 F10800.000
G1 X133.554 Y113.554
G1 Z0.600
G1 E0.80000 F2100.00000
M204 S800
G1 F3364
G1 X116.446 Y113.554 E0.57907
G1 X116.446 Y96.446 E0.57907
G1 X133.554 Y96.446 E0.57907
G1 X133.554 Y113.494 E0.57704
M204 S1000
G1 X133.961 Y113.961 F10800.000
M204 S800
G1 F3364
G1 X116.039 Y113.961 E0.60663
G1 X116.039 Y96.039 E0.60663
G1 X133.961 Y96.039 E0.60663
G1 X133.961 Y113.901 E0.60460
M204 S1000
G1 X134.368 Y114.368 F10800.000
M204 S800
G1 F3364
G1 X115.632 Y114.368 E0.63419
G1 X115.632 Y95.632 E0.63419
G1 X134.368 Y95.632 E0.63419
G1 X134.368 Y114.308 E0.63216
M204 S1000
G1 X134.775 Y114.775 F10800.000
M204 S800
G1 F3000
G1 X115.225 Y114.775 E0.66174
G1 X115.225 Y95.225 E0.66174
G1 X134.775 Y95.225 E0.66174
G1 X134.775 Y114.715 E0.65971
M204 S1000
G1 X134.389 Y114.671 F10800.000
G1 F8640
G1 X131.484 Y114.725 E-0.76000
G1 E-0.04000 F2100.00000
G1 Z1.200 F10800.000
G1 X133.432 Y97.402
G1 Z0.600
G1 E0.80000 F2100.00000
M204 S1250
G1 F3364
G1 X132.781 Y96.752 E0.03153
G1 X132.198 Y96.752 E0.01998
G1 X133.248 Y97.802 E0.05090
G1 X133.248 Y98.385 E0.01998
G1 X131.615 Y96.752 E0.07915
G1 X131.032 Y96.752 E0.01998
G1 X133.248 Y98.968 E0.10741
G1 X133.248 Y99.550 E0.01998
G1 X130.450 Y96.752 E0.13566
G1 X129.867 Y96.752 E0.01998
G1 X133.248 Y100.133 E0.16391
G1 X133.248 Y100.716 E0.01998
G1 X129.284 Y96.752 E0.19216
G1 X128.701 Y96.752 E0.01998
G1 X133.248 Y101.299 E0.22041
G1 X133.248 Y101.882 E0.01998
G1 X128.118 Y96.752 E0.24867
