;Sliced by ideaMaker 3.6.1.4415, 2020-10-07 20:04:56 UTC+0200
;Dimension: 250.000 210.000 200.000 0.400
;Plate Shape: 0
;Extruder Offset #1: 25.000 0.000
;Filament Diameter #1: 1.750
;Filament Diameter #2: 1.750
;Filament Compensation #1: 95.00
;Filament Compensation #2: 98.00
;Filament Density #1: 1240.00
;Filament Density #2: 1240.00
;Bounding Box: 92.246 157.754 84.730 125.270 0.000 0.200
;Model Gap: 0.000
M221 T0 S95.00
M140 S85.00
M104 T0 S235.00
M109 T0 S235.00
T0
M190 S85.00
M572 D0 S0.05
M572 D1 S0.05
G21
G90
M82
M107
G28
G1 Z0 F500
G92 E0
G1 Z0.2 F400
G1 X60 Y-2 E5 F600
G1 X140 Y-2 E12 F500
G1 X148 E15 F200
G92 E0
G1 F9000.0
M117 Printing...
;end of Start GCode
M83
;LAYER:0
;Z:0.200
;HEIGHT:0.200
M106 S77
G0 F9000 X97.771 Y91.086
G0 F900 Z0.200
;TYPE:SKIRT
;WIDTH:0.540
G1 X98.586 Y90.271 E0.0518
G1 X99.422 Y89.524 E0.0503
G1 X100.323 Y88.805 E0.0518
G1 X101.238 Y88.156 E0.0504
G1 X102.206 Y87.548 E0.0513
G1 X103.187 Y87.005 E0.0503
G1 X104.232 Y86.501 E0.0521
G1 X105.268 Y86.072 E0.0503
G1 X106.359 Y85.691 E0.0519
G1 X107.437 Y85.381 E0.0504
G1 X108.552 Y85.126 E0.0514
G1 X109.657 Y84.938 E0.0503
G1 X110.803 Y84.809 E0.0518
G1 X112.500 Y84.730 E0.0763
G1 X137.500 Y84.730 E1.1225
G1 X138.077 Y84.746 E0.0259
G1 X139.197 Y84.809 E0.0504
G1 X140.343 Y84.938 E0.0518
G1 X141.448 Y85.126 E0.0503
G1 X142.563 Y85.381 E0.0514
G1 X143.641 Y85.691 E0.0504
G1 X144.732 Y86.072 E0.0519
G1 X145.768 Y86.501 E0.0503
G1 X146.813 Y87.005 E0.0521
G1 X147.794 Y87.548 E0.0503
G1 X148.762 Y88.156 E0.0513
G1 X149.677 Y88.805 E0.0504
G1 X150.573 Y89.519 E0.0514
G1 X151.419 Y90.275 E0.0509
G1 X152.229 Y91.086 E0.0515
G1 X152.976 Y91.922 E0.0503
G1 X153.695 Y92.823 E0.0518
G1 X154.344 Y93.738 E0.0504
G1 X154.952 Y94.706 E0.0513
G1 X155.495 Y95.687 E0.0503
G1 X155.999 Y96.732 E0.0521
G1 X156.428 Y97.768 E0.0503
G1 X156.809 Y98.859 E0.0519
G1 X157.119 Y99.937 E0.0504
G1 X157.374 Y101.052 E0.0514
G1 X157.562 Y102.157 E0.0503
G1 X157.691 Y103.303 E0.0518
G1 X157.754 Y104.423 E0.0504
G1 X157.754 Y105.568 E0.0514
G1 X157.690 Y106.706 E0.0512
G1 X157.562 Y107.843 E0.0514
G1 X157.374 Y108.948 E0.0503
G1 X157.119 Y110.063 E0.0514
G1 X156.809 Y111.141 E0.0504
G1 X156.431 Y112.224 E0.0515
G1 X156.210 Y112.758 E0.0259
G1 X155.995 Y113.276 E0.0252
G1 X155.495 Y114.313 E0.0517
G1 X154.952 Y115.294 E0.0503
G1 X154.344 Y116.262 E0.0513
G1 X153.695 Y117.177 E0.0504
G1 X152.981 Y118.073 E0.0514
G1 X152.225 Y118.919 E0.0509
G1 X151.414 Y119.729 E0.0515
G1 X150.578 Y120.476 E0.0503
G1 X149.677 Y121.195 E0.0518
G1 X148.762 Y121.844 E0.0504
G1 X147.794 Y122.452 E0.0513
G1 X146.813 Y122.995 E0.0503
G1 X145.768 Y123.499 E0.0521
G1 X144.732 Y123.928 E0.0503
G1 X143.641 Y124.309 E0.0519
G1 X142.563 Y124.619 E0.0504
G1 X141.448 Y124.874 E0.0514
G1 X140.343 Y125.062 E0.0503
G1 X139.197 Y125.191 E0.0518
G1 X137.500 Y125.270 E0.0763
G1 X112.500 Y125.270 E1.1225
G1 X110.803 Y125.191 E0.0763
G1 X109.657 Y125.062 E0.0518
G1 X108.552 Y124.874 E0.0503
G1 X107.437 Y124.619 E0.0514
G1 X106.359 Y124.309 E0.0504
G1 X105.276 Y123.931 E0.0515
G1 X104.742 Y123.710 E0.0259
G1 X104.224 Y123.495 E0.0252
G1 X103.187 Y122.995 E0.0517
G1 X102.206 Y122.452 E0.0503
G1 X101.238 Y121.844 E0.0513
G1 X100.323 Y121.195 E0.0504
G1 X99.422 Y120.476 E0.0518
G1 X98.586 Y119.729 E0.0503
G1 X97.771 Y118.914 E0.0518
G1 X97.024 Y118.078 E0.0503
G1 X96.305 Y117.177 E0.0518
G1 X95.656 Y116.262 E0.0504
G1 X95.048 Y115.294 E0.0513
G1 X94.505 Y114.313 E0.0503
G1 X94.001 Y113.268 E0.0521
G1 X93.572 Y112.232 E0.0503
G1 X93.191 Y111.141 E0.0519
G1 X92.881 Y110.063 E0.0504
G1 X92.626 Y108.948 E0.0514
G1 X92.438 Y107.843 E0.0503
G1 X92.309 Y106.697 E0.0518
G1 X92.246 Y105.577 E0.0504
G1 X92.246 Y104.432 E0.0514
G1 X92.278 Y103.854 E0.0260
G1 X92.310 Y103.294 E0.0252
G1 X92.438 Y102.157 E0.0514
G1 X92.626 Y101.052 E0.0503
G1 X92.881 Y99.937 E0.0514
G1 X93.191 Y98.859 E0.0504
G1 X93.572 Y97.768 E0.0519
G1 X94.001 Y96.732 E0.0503
G1 X94.505 Y95.687 E0.0521
G1 X95.048 Y94.706 E0.0503
G1 X95.656 Y93.738 E0.0513
G1 X96.305 Y92.823 E0.0504
G1 X97.024 Y91.922 E0.0518
G1 X97.771 Y91.086 E0.0503
G0 F9000 X106.002 Y98.502
;TYPE:WALL-INNER
;WIDTH:0.540
G1 F900 X106.771 Y97.816 E0.0463
G1 X107.612 Y97.220 E0.0463
G1 X108.513 Y96.721 E0.0462
G1 X109.464 Y96.327 E0.0462
G1 X110.455 Y96.042 E0.0463
G1 X111.471 Y95.869 E0.0463
G1 X112.523 Y95.810 E0.0473
G1 X137.477 Y95.810 E1.1205
G1 X138.529 Y95.869 E0.0473
G1 X139.545 Y96.042 E0.0463
G1 X140.536 Y96.327 E0.0463
G1 X141.487 Y96.721 E0.0462
G1 X142.388 Y97.220 E0.0462
G1 X143.229 Y97.816 E0.0463
G1 X143.998 Y98.502 E0.0463
G1 X144.684 Y99.271 E0.0463
G1 X145.280 Y100.112 E0.0463
G1 X145.779 Y101.013 E0.0462
G1 X146.173 Y101.964 E0.0462
G1 X146.458 Y102.955 E0.0463
G1 X146.631 Y103.971 E0.0463
G1 X146.689 Y105.000 E0.0463
G1 X146.631 Y106.029 E0.0463
G1 X146.458 Y107.045 E0.0463
G1 X146.173 Y108.036 E0.0463
G1 X145.779 Y108.987 E0.0462
G1 X145.280 Y109.888 E0.0462
G1 X144.684 Y110.729 E0.0463
G1 X143.998 Y111.498 E0.0463
G1 X143.229 Y112.184 E0.0463
G1 X142.388 Y112.780 E0.0463
G1 X141.487 Y113.279 E0.0462
G1 X140.536 Y113.673 E0.0462
G1 X139.545 Y113.958 E0.0463
G1 X138.529 Y114.131 E0.0463
G1 X137.477 Y114.190 E0.0473
G1 X112.523 Y114.190 E1.1205
G1 X111.471 Y114.131 E0.0473
G1 X110.455 Y113.958 E0.0463
G1 X109.464 Y113.673 E0.0463
G1 X108.989 Y113.477 E0.0231
G1 X108.513 Y113.279 E0.0231
G1 X107.612 Y112.780 E0.0462
G1 X106.771 Y112.184 E0.0463
G1 X106.002 Y111.498 E0.0463
G1 X105.316 Y110.729 E0.0463
G1 X104.720 Y109.888 E0.0463
G1 X104.221 Y108.987 E0.0462
G1 X103.827 Y108.036 E0.0462
G1 X103.542 Y107.045 E0.0463
G1 X103.369 Y106.029 E0.0463
G1 X103.311 Y105.000 E0.0463
G1 X103.369 Y103.971 E0.0463
G1 X103.542 Y102.955 E0.0463
G1 X103.827 Y101.964 E0.0463
G1 X104.221 Y101.013 E0.0462
G1 X104.720 Y100.112 E0.0462
G1 X105.316 Y99.271 E0.0463
G1 X106.002 Y98.502 E0.0463
G0 F9000 X105.620 Y98.120
;TYPE:WALL-OUTER
;WIDTH:0.540
G1 F900 X106.434 Y97.393 E0.0490
G1 X107.324 Y96.762 E0.0490
G1 X108.278 Y96.234 E0.0490
G1 X109.286 Y95.816 E0.0490
G1 X110.335 Y95.515 E0.0490
G1 X111.410 Y95.332 E0.0490
G1 X112.508 Y95.270 E0.0494
G1 X137.492 Y95.270 E1.1218
G1 X138.590 Y95.332 E0.0494
G1 X139.665 Y95.515 E0.0490
G1 X140.714 Y95.816 E0.0490
G1 X141.722 Y96.234 E0.0490
G1 X142.676 Y96.762 E0.0490
G1 X143.566 Y97.393 E0.0490
G1 X144.380 Y98.120 E0.0490
G1 X145.107 Y98.934 E0.0490
G1 X145.738 Y99.824 E0.0490
G1 X146.266 Y100.778 E0.0490
G1 X146.684 Y101.786 E0.0490
G1 X146.985 Y102.835 E0.0490
G1 X147.168 Y103.910 E0.0490
G1 X147.230 Y105.000 E0.0490
G1 X147.168 Y106.090 E0.0490
G1 X146.985 Y107.165 E0.0490
G1 X146.684 Y108.214 E0.0490
G1 X146.476 Y108.718 E0.0245
G1 X146.266 Y109.222 E0.0245
G1 X145.738 Y110.176 E0.0490
G1 X145.107 Y111.066 E0.0490
G1 X144.380 Y111.880 E0.0490
G1 X143.566 Y112.607 E0.0490
G1 X142.676 Y113.238 E0.0490
G1 X141.722 Y113.766 E0.0490
G1 X140.714 Y114.184 E0.0490
G1 X139.665 Y114.485 E0.0490
G1 X138.590 Y114.668 E0.0490
G1 X137.492 Y114.730 E0.0494
G1 X112.508 Y114.730 E1.1218
G1 X111.410 Y114.668 E0.0494
G1 X110.335 Y114.485 E0.0490
G1 X109.286 Y114.184 E0.0490
G1 X108.782 Y113.976 E0.0245
G1 X108.278 Y113.766 E0.0245
G1 X107.324 Y113.238 E0.0490
G1 X106.434 Y112.607 E0.0490
G1 X105.620 Y111.880 E0.0490
G1 X104.893 Y111.066 E0.0490
G1 X104.262 Y110.176 E0.0490
G1 X103.734 Y109.222 E0.0490
G1 X103.316 Y108.214 E0.0490
G1 X103.015 Y107.165 E0.0490
G1 X102.832 Y106.090 E0.0490
G1 X102.770 Y105.000 E0.0490
G1 X102.801 Y104.455 E0.0245
G1 X102.832 Y103.910 E0.0245
G1 X103.015 Y102.835 E0.0490
G1 X103.316 Y101.786 E0.0490
G1 X103.734 Y100.778 E0.0490
G1 X104.262 Y99.824 E0.0490
G1 X104.893 Y98.934 E0.0490
G1 X105.620 Y98.120 E0.0490
G0 F9000 X105.693 Y98.188
G0 X107.953 Y112.536
;TYPE:SOLID-FILL
;WIDTH:0.540
G1 F900 X104.962 Y109.544 E0.1900
G1 X104.559 Y108.819 E0.0372
G1 X104.248 Y108.067 E0.0365
G1 X109.430 Y113.248 E0.3290
G1 X109.588 Y113.313 E0.0077
G1 X110.529 Y113.583 E0.0440
G1 X103.914 Y106.968 E0.4201
G1 X103.910 Y106.955 E0.0006
G1 X103.755 Y106.046 E0.0414
G1 X111.452 Y113.743 E0.4888
G1 X111.507 Y113.753 E0.0025
G1 X112.268 Y113.795 E0.0342
G1 X103.702 Y105.230 E0.5439
G1 X103.690 Y104.999 E0.0104
G1 X103.719 Y104.482 E0.0233
G1 X113.047 Y113.810 E0.5923
G1 X113.810 Y113.810 E0.0343
G1 X103.784 Y103.784 E0.6366
G1 X103.895 Y103.131 E0.0297
G1 X114.574 Y113.810 E0.6781
G1 X115.338 Y113.810 E0.0343
G1 X104.057 Y102.529 E0.7163
G1 X104.186 Y102.080 E0.0210
G1 X104.240 Y101.949 E0.0064
G1 X116.101 Y113.810 E0.7532
G1 X116.865 Y113.810 E0.0343
G1 X104.464 Y101.409 E0.7875
G1 X104.559 Y101.179 E0.0112
G1 X104.716 Y100.897 E0.0145
G1 X117.629 Y113.810 E0.8200
G1 X118.393 Y113.810 E0.0343
G1 X104.988 Y100.406 E0.8512
G1 X105.041 Y100.312 E0.0048
G1 X105.296 Y99.950 E0.0199
G1 X119.156 Y113.810 E0.8801
G1 X119.920 Y113.810 E0.0343
G1 X105.613 Y99.504 E0.9085
G1 X105.973 Y99.100 E0.0243
G1 X120.684 Y113.810 E0.9341
G1 X121.447 Y113.810 E0.0343
G1 X106.342 Y98.705 E0.9592
G1 X106.745 Y98.345 E0.0243
G1 X122.211 Y113.810 E0.9821
G1 X122.975 Y113.810 E0.0343
G1 X107.164 Y98.000 E1.0040
G1 X107.611 Y97.683 E0.0246
G1 X123.738 Y113.810 E1.0241
G1 X124.502 Y113.810 E0.0343
G1 X108.083 Y97.391 E1.0426
G1 X108.574 Y97.118 E0.0252
G1 X125.266 Y113.811 E1.0600
G1 X126.030 Y113.811 E0.0343
G1 X109.103 Y96.884 E1.0749
G1 X109.580 Y96.686 E0.0232
G1 X109.649 Y96.667 E0.0032
G1 X126.794 Y113.811 E1.0887
G1 X127.557 Y113.811 E0.0343
G1 X110.243 Y96.497 E1.0994
G1 X110.543 Y96.411 E0.0140
G1 X110.866 Y96.356 E0.0147
G1 X128.321 Y113.811 E1.1084
G1 X129.085 Y113.811 E0.0343
G1 X111.519 Y96.246 E1.1154
G1 X112.241 Y96.204 E0.0325
G1 X129.848 Y113.811 E1.1180
G1 X130.612 Y113.811 E0.0343
G1 X112.988 Y96.187 E1.1191
G1 X113.752 Y96.187 E0.0343
G1 X131.376 Y113.811 E1.1191
G1 X132.139 Y113.811 E0.0343
G1 X114.515 Y96.187 E1.1191
G1 X115.279 Y96.187 E0.0343
G1 X132.903 Y113.811 E1.1191
G1 X133.667 Y113.811 E0.0343
G1 X116.043 Y96.187 E1.1191
G1 X116.806 Y96.187 E0.0343
G1 X134.430 Y113.811 E1.1191
G1 X135.194 Y113.811 E0.0343
G1 X117.570 Y96.187 E1.1191
G1 X118.334 Y96.187 E0.0343
G1 X135.958 Y113.811 E1.1191
G1 X136.721 Y113.811 E0.0343
G1 X119.097 Y96.187 E1.1191
G1 X119.861 Y96.187 E0.0343
G1 X137.484 Y113.810 E1.1191
G1 X138.206 Y113.769 E0.0325
G1 X120.625 Y96.187 E1.1164
G1 X121.389 Y96.187 E0.0343
G1 X138.887 Y113.685 E1.1111
G1 X139.454 Y113.588 E0.0258
G1 X139.531 Y113.566 E0.0036
G1 X122.152 Y96.187 E1.1036
G1 X122.916 Y96.187 E0.0343
G1 X140.125 Y113.396 E1.0928
G1 X140.417 Y113.313 E0.0136
G1 X140.691 Y113.199 E0.0133
G1 X123.680 Y96.187 E1.0802
G1 X124.443 Y96.187 E0.0343
G1 X141.231 Y112.975 E1.0660
G1 X141.318 Y112.939 E0.0042
G1 X141.730 Y112.710 E0.0212
G1 X125.207 Y96.187 E1.0492
G1 X125.971 Y96.187 E0.0343
G1 X142.218 Y112.434 E1.0317
G1 X142.665 Y112.118 E0.0246
G1 X126.734 Y96.187 E1.0116
G1 X127.498 Y96.187 E0.0343
G1 X143.100 Y111.790 E0.9908
G1 X143.504 Y111.430 E0.0243
G1 X128.262 Y96.187 E0.9679
G1 X129.025 Y96.187 E0.0343
G1 X143.889 Y111.051 E0.9439
G1 X144.249 Y110.648 E0.0243
G1 X129.789 Y96.187 E0.9182
G1 X130.553 Y96.187 E0.0343
G1 X144.582 Y110.217 E0.8909
G1 X144.899 Y109.770 E0.0246
G1 X131.316 Y96.187 E0.8625
G1 X132.080 Y96.187 E0.0343
G1 X145.179 Y109.286 E0.8318
G1 X145.439 Y108.819 E0.0240
G1 X145.450 Y108.794 E0.0012
G1 X132.844 Y96.187 E0.8005
G1 X133.607 Y96.187 E0.0343
G1 X145.673 Y108.253 E0.7662
G1 X145.812 Y107.918 E0.0163
G1 X145.877 Y107.693 E0.0105
G1 X134.371 Y96.187 E0.7306
G1 X135.135 Y96.187 E0.0343
G1 X146.047 Y107.099 E0.6929
G1 X146.088 Y106.955 E0.0067
G1 X146.173 Y106.461 E0.0225
G1 X135.898 Y96.187 E0.6524
G1 X136.662 Y96.187 E0.0343
G1 X146.265 Y105.790 E0.6098
G1 X146.306 Y105.067 E0.0325
G1 X137.426 Y96.187 E0.5639
G0 F9000 X137.458 Y96.187
G1 F900 X138.233 Y96.231 E0.0349
G1 X146.267 Y104.265 E0.5102
G1 X146.253 Y104.007 E0.0116
G1 X146.146 Y103.380 E0.0286
G1 X139.119 Y96.353 E0.4462
G1 X139.455 Y96.411 E0.0153
G1 X140.135 Y96.606 E0.0318
G1 X145.893 Y102.364 E0.3656
G1 X145.812 Y102.080 E0.0133
G1 X145.439 Y101.179 E0.0438
G1 X145.397 Y101.104 E0.0039
G1 X141.395 Y97.102 E0.2541
M106 S0
M82
G0 F900 Z5.200
G0 F9000 X141.395 Y97.102
M221 T0 S100
G92 E0
;End GCode
M104 T0 S0
M221 T0 S100
M104 S0
M140 S0
M107
G91
G1 E-1 F300
G1 Z+0.5 E-5 Y-20 F9000.00
G28 X0 U0
M84
G90
;
;Print Time: 116
;Material#1 Used: 76.8
;Material#2 Used: 0.0
;Material#1 Cost: 0.00
;Material#2 Cost: 0.00
