;Sliced by ideaMaker 3.6.1.4415, 2020-10-07 20:07:26 UTC+0200
;Dimension: 250.000 210.000 200.000 0.400
;Plate Shape: 0
;Extruder Offset #1: 25.000 0.000
;Filament Diameter #1: 1.750
;Filament Diameter #2: 1.750
;Filament Compensation #1: 95.00
;Filament Compensation #2: 98.00
;Filament Density #1: 1240.00
;Filament Density #2: 1240.00
;Bounding Box: 102.230 147.770 82.230 127.770 0.000 0.200
;Model Gap: 0.000
M221 T0 S95.00
M140 S85.00
M104 T0 S235.00
M109 T0 S235.00
T0
M190 S85.00
M572 D0 S0.05
M572 D1 S0.05
G21
G90
M82
M107
G28
G1 Z0 F500
G92 E0
G1 Z0.2 F400
G1 X60 Y-2 E5 F600
G1 X140 Y-2 E12 F500
G1 X148 E15 F200
G92 E0
G1 F9000.0
M117 Printing...
;end of Start GCode
M83
;LAYER:0
;Z:0.200
;HEIGHT:0.200
M106 S77
G0 F9000 X104.715 Y85.802
G0 F900 Z0.200
;TYPE:SKIRT
;WIDTH:0.540
G1 X105.268 Y85.209 E0.0364
G1 X105.865 Y84.661 E0.0364
G1 X106.504 Y84.162 E0.0364
G1 X107.180 Y83.715 E0.0364
G1 X107.890 Y83.323 E0.0364
G1 X108.628 Y82.988 E0.0364
G1 X109.390 Y82.712 E0.0364
G1 X110.172 Y82.497 E0.0364
G1 X110.968 Y82.345 E0.0364
G1 X111.773 Y82.256 E0.0364
G1 X112.500 Y82.230 E0.0327
G1 X137.500 Y82.230 E1.1225
G1 X138.310 Y82.262 E0.0364
G1 X139.115 Y82.358 E0.0364
G1 X139.910 Y82.517 E0.0364
G1 X140.689 Y82.738 E0.0364
G1 X141.449 Y83.020 E0.0364
G1 X142.185 Y83.361 E0.0364
G1 X142.891 Y83.759 E0.0364
G1 X143.564 Y84.211 E0.0364
G1 X144.198 Y84.715 E0.0364
G1 X144.791 Y85.268 E0.0364
G1 X145.339 Y85.865 E0.0364
G1 X145.838 Y86.504 E0.0364
G1 X146.285 Y87.180 E0.0364
G1 X146.677 Y87.890 E0.0364
G1 X147.012 Y88.628 E0.0364
G1 X147.288 Y89.390 E0.0364
G1 X147.503 Y90.172 E0.0364
G1 X147.655 Y90.968 E0.0364
G1 X147.744 Y91.773 E0.0364
G1 X147.770 Y92.500 E0.0327
G1 X147.770 Y117.500 E1.1225
G1 X147.738 Y118.310 E0.0364
G1 X147.642 Y119.115 E0.0364
G1 X147.483 Y119.910 E0.0364
G1 X147.262 Y120.689 E0.0364
G1 X146.980 Y121.449 E0.0364
G1 X146.639 Y122.185 E0.0364
G1 X146.241 Y122.891 E0.0364
G1 X145.789 Y123.564 E0.0364
G1 X145.285 Y124.198 E0.0364
G1 X144.732 Y124.791 E0.0364
G1 X144.135 Y125.339 E0.0364
G1 X143.496 Y125.838 E0.0364
G1 X142.820 Y126.285 E0.0364
G1 X142.110 Y126.677 E0.0364
G1 X141.372 Y127.012 E0.0364
G1 X140.610 Y127.288 E0.0364
G1 X139.828 Y127.503 E0.0364
G1 X139.032 Y127.655 E0.0364
G1 X138.227 Y127.744 E0.0364
G1 X137.500 Y127.770 E0.0327
G1 X112.500 Y127.770 E1.1225
G1 X111.690 Y127.738 E0.0364
G1 X110.885 Y127.642 E0.0364
G1 X110.090 Y127.483 E0.0364
G1 X109.311 Y127.262 E0.0364
G1 X108.551 Y126.980 E0.0364
G1 X107.815 Y126.639 E0.0364
G1 X107.109 Y126.241 E0.0364
G1 X106.436 Y125.789 E0.0364
G1 X105.802 Y125.285 E0.0364
G1 X105.209 Y124.732 E0.0364
G1 X104.661 Y124.135 E0.0364
G1 X104.162 Y123.496 E0.0364
G1 X103.715 Y122.820 E0.0364
G1 X103.323 Y122.110 E0.0364
G1 X102.988 Y121.372 E0.0364
G1 X102.712 Y120.610 E0.0364
G1 X102.497 Y119.828 E0.0364
G1 X102.345 Y119.032 E0.0364
G1 X102.256 Y118.227 E0.0364
G1 X102.230 Y117.500 E0.0327
G1 X102.230 Y92.500 E1.1225
G1 X102.262 Y91.690 E0.0364
G1 X102.358 Y90.885 E0.0364
G1 X102.517 Y90.090 E0.0364
G1 X102.738 Y89.311 E0.0364
G1 X103.020 Y88.551 E0.0364
G1 X103.361 Y87.815 E0.0364
G1 X103.759 Y87.109 E0.0364
G1 X104.211 Y86.436 E0.0364
G1 X104.715 Y85.802 E0.0364
G0 F9000 X113.310 Y93.310
;TYPE:WALL-INNER
;WIDTH:0.540
G1 F900 X136.690 Y93.310 E1.0498
G1 X136.690 Y116.690 E1.0498
G1 X113.310 Y116.690 E1.0498
G1 X113.310 Y93.310 E1.0498
G0 F9000 X112.870 Y92.780
G0 X112.770 Y92.770
;TYPE:WALL-OUTER
;WIDTH:0.540
G1 F900 X137.230 Y92.770 E1.0983
G1 X137.230 Y117.230 E1.0983
G1 X112.770 Y117.230 E1.0983
G1 X112.770 Y92.770 E1.0983
G0 F9000 X112.870 Y92.780
G0 X113.687 Y115.978
;TYPE:SOLID-FILL
;WIDTH:0.540
G1 F900 X114.020 Y116.311 E0.0211
G1 X114.783 Y116.311 E0.0343
G1 X113.687 Y115.214 E0.0696
G1 X113.687 Y114.450 E0.0343
G1 X115.547 Y116.311 E0.1181
G1 X116.311 Y116.311 E0.0343
G1 X113.687 Y113.687 E0.1666
G1 X113.687 Y112.923 E0.0343
G1 X117.074 Y116.311 E0.2151
G1 X117.838 Y116.311 E0.0343
G1 X113.687 Y112.159 E0.2636
G1 X113.687 Y111.396 E0.0343
G1 X118.602 Y116.311 E0.3121
G1 X119.365 Y116.311 E0.0343
G1 X113.687 Y110.632 E0.3606
G1 X113.687 Y109.868 E0.0343
G1 X120.129 Y116.311 E0.4091
G1 X120.893 Y116.311 E0.0343
G1 X113.687 Y109.105 E0.4576
G1 X113.687 Y108.341 E0.0343
G1 X121.657 Y116.311 E0.5061
G1 X122.420 Y116.311 E0.0343
G1 X113.687 Y107.577 E0.5546
G1 X113.687 Y106.814 E0.0343
G1 X123.184 Y116.311 E0.6031
G1 X123.948 Y116.311 E0.0343
G1 X113.687 Y106.050 E0.6516
G1 X113.687 Y105.286 E0.0343
G1 X124.711 Y116.311 E0.7001
G1 X125.475 Y116.311 E0.0343
G1 X113.687 Y104.523 E0.7485
G1 X113.687 Y103.759 E0.0343
G1 X126.239 Y116.311 E0.7971
G1 X127.002 Y116.311 E0.0343
G1 X113.687 Y102.995 E0.8455
G1 X113.687 Y102.232 E0.0343
G1 X127.766 Y116.311 E0.8940
G1 X128.530 Y116.311 E0.0343
G1 X113.687 Y101.468 E0.9425
G1 X113.687 Y100.704 E0.0343
G1 X129.293 Y116.311 E0.9910
G1 X130.057 Y116.311 E0.0343
G1 X113.687 Y99.941 E1.0395
G1 X113.687 Y99.177 E0.0343
G1 X130.821 Y116.311 E1.0880
G1 X131.584 Y116.311 E0.0343
G1 X113.687 Y98.413 E1.1365
G1 X113.687 Y97.650 E0.0343
G1 X132.348 Y116.311 E1.1850
G1 X133.112 Y116.311 E0.0343
G1 X113.687 Y96.886 E1.2335
G1 X113.687 Y96.122 E0.0343
G1 X133.875 Y116.311 E1.2820
G1 X134.639 Y116.311 E0.0343
G1 X113.687 Y95.359 E1.3304
G1 X113.687 Y94.595 E0.0343
G1 X135.403 Y116.311 E1.3790
G1 X136.166 Y116.311 E0.0343
G1 X113.687 Y93.831 E1.4274
G1 X113.687 Y93.687 E0.0065
G1 X114.307 Y93.688 E0.0278
G1 X136.311 Y115.692 E1.3973
G1 X136.311 Y114.928 E0.0343
G1 X115.071 Y93.688 E1.3487
G1 X115.834 Y93.688 E0.0343
G1 X136.311 Y114.165 E1.3003
G1 X136.311 Y113.401 E0.0343
G1 X116.598 Y93.688 E1.2518
G1 X117.362 Y93.688 E0.0343
G1 X136.311 Y112.637 E1.2033
G1 X136.311 Y111.874 E0.0343
G1 X118.125 Y93.688 E1.1548
G1 X118.889 Y93.688 E0.0343
G1 X136.311 Y111.110 E1.1063
G1 X136.311 Y110.346 E0.0343
G1 X119.653 Y93.688 E1.0578
G1 X120.416 Y93.688 E0.0343
G1 X136.311 Y109.583 E1.0093
G1 X136.311 Y108.819 E0.0343
G1 X121.180 Y93.688 E0.9608
G1 X121.944 Y93.688 E0.0343
G1 X136.311 Y108.055 E0.9123
G1 X136.311 Y107.292 E0.0343
G1 X122.707 Y93.688 E0.8639
G1 X123.471 Y93.688 E0.0343
G1 X136.311 Y106.528 E0.8153
G1 X136.311 Y105.764 E0.0343
G1 X124.235 Y93.688 E0.7668
G1 X124.998 Y93.688 E0.0343
G1 X136.311 Y105.001 E0.7184
G1 X136.311 Y104.237 E0.0343
G1 X125.762 Y93.688 E0.6699
G1 X126.526 Y93.688 E0.0343
G1 X136.311 Y103.473 E0.6213
G1 X136.311 Y102.710 E0.0343
G1 X127.289 Y93.688 E0.5729
G1 X128.053 Y93.688 E0.0343
G1 X136.311 Y101.946 E0.5244
G1 X136.311 Y101.182 E0.0343
G1 X128.817 Y93.688 E0.4759
G1 X129.580 Y93.688 E0.0343
G1 X136.311 Y100.419 E0.4274
G1 X136.311 Y99.655 E0.0343
G1 X130.344 Y93.688 E0.3789
G1 X131.108 Y93.688 E0.0343
G1 X136.311 Y98.891 E0.3304
G1 X136.311 Y98.128 E0.0343
G1 X131.871 Y93.688 E0.2819
G1 X132.635 Y93.688 E0.0343
G1 X136.311 Y97.364 E0.2334
G1 X136.311 Y96.600 E0.0343
G1 X133.399 Y93.688 E0.1849
G1 X134.162 Y93.688 E0.0343
G1 X136.311 Y95.837 E0.1365
G1 X136.311 Y95.073 E0.0343
G1 X134.926 Y93.688 E0.0879
G1 X135.690 Y93.688 E0.0343
G1 X136.311 Y94.309 E0.0394
M106 S0
M82
G0 F900 Z5.200
G0 F9000 X136.311 Y94.309
M221 T0 S100
G92 E0
;End GCode
M104 T0 S0
M221 T0 S100
M104 S0
M140 S0
M107
G91
G1 E-1 F300
G1 Z+0.5 E-5 Y-20 F9000.00
G28 X0 U0
M84
G90
;
;Print Time: 92
;Material#1 Used: 60.5
;Material#2 Used: 0.0
;Material#1 Cost: 0.00
;Material#2 Cost: 0.00
