;Sliced by ideaMaker 3.6.1.4415, 2020-10-07 18:34:54 UTC+0200
;Dimension: 250.000 210.000 200.000 0.400
;Plate Shape: 0
;Extruder Offset #1: 25.000 0.000
;Filament Diameter #1: 1.750
;Filament Diameter #2: 1.750
;Filament Compensation #1: 95.00
;Filament Compensation #2: 98.00
;Filament Density #1: 1240.00
;Filament Density #2: 1240.00
;Bounding Box: 88.858 155.001 86.634 123.366 0.000 48.000
;Model Gap: 0.000
M221 T0 S95.00
M140 S85.00
M104 T0 S235.00
M109 T0 S235.00
T0
M190 S85.00
M572 D0 S0.05
M572 D1 S0.05
G21
G90
M82
M107
G28
G1 Z0 F500
G92 E0
G1 Z0.2 F400
G1 X60 Y-2 E5 F600
G1 X140 Y-2 E12 F500
G1 X148 E15 F200
G92 E0
G1 F9000.0
M117 Printing...
;end of Start GCode
M83
;LAYER:0
;Z:0.200
;HEIGHT:0.200
M106 S77
G0 F9000 X92.431 Y91.526
G0 F900 Z0.200
;TYPE:SKIRT
;WIDTH:0.540
G1 X93.168 Y90.863 E0.0445
G1 X94.022 Y90.208 E0.0483
G1 X94.803 Y89.718 E0.0414
G1 X95.786 Y89.198 E0.0499
G1 X96.712 Y88.820 E0.0449
G1 X97.761 Y88.484 E0.0495
G1 X98.682 Y88.280 E0.0424
G1 X99.483 Y88.156 E0.0364
G1 X100.025 Y88.109 E0.0244
G1 X123.676 Y86.669 E1.0639
G1 X125.106 Y86.634 E0.0642
G1 X125.738 Y86.642 E0.0284
G1 X127.153 Y86.720 E0.0636
G1 X127.994 Y86.805 E0.0380
G1 X129.080 Y86.956 E0.0492
G1 X130.392 Y87.206 E0.0600
G1 X131.728 Y87.535 E0.0618
G1 X133.107 Y87.957 E0.0648
G1 X134.482 Y88.467 E0.0658
G1 X135.866 Y89.076 E0.0679
G1 X136.388 Y89.331 E0.0261
G1 X137.545 Y89.954 E0.0590
G1 X138.766 Y90.700 E0.0642
G1 X139.514 Y91.205 E0.0405
G1 X140.644 Y92.046 E0.0632
G1 X141.809 Y93.026 E0.0684
G1 X142.819 Y93.979 E0.0624
G1 X143.853 Y95.076 E0.0677
G1 X144.277 Y95.567 E0.0291
G1 X144.906 Y96.343 E0.0449
G1 X145.312 Y96.878 E0.0302
G1 X145.854 Y97.644 E0.0421
G1 X146.680 Y98.944 E0.0692
G1 X147.233 Y99.966 E0.0522
G1 X147.637 Y100.900 E0.0457
G1 X147.901 Y101.688 E0.0373
G1 X148.108 Y102.471 E0.0364
G1 X148.276 Y103.420 E0.0433
G1 X148.364 Y104.226 E0.0364
G1 X148.377 Y105.415 E0.0534
G1 X148.365 Y105.669 E0.0114
G1 X148.294 Y106.476 E0.0364
G1 X148.072 Y107.666 E0.0544
G1 X148.009 Y107.919 E0.0117
G1 X147.782 Y108.697 E0.0364
G1 X147.423 Y109.622 E0.0446
G1 X147.077 Y110.355 E0.0364
G1 X146.704 Y111.010 E0.0338
G1 X146.122 Y111.950 E0.0496
G1 X145.685 Y112.599 E0.0351
G1 X145.028 Y113.499 E0.0500
G1 X144.544 Y114.112 E0.0351
G1 X143.820 Y114.960 E0.0501
G1 X143.359 Y115.465 E0.0307
G1 X142.749 Y116.090 E0.0392
G1 X142.288 Y116.534 E0.0287
G1 X141.545 Y117.206 E0.0450
G1 X141.016 Y117.653 E0.0311
G1 X140.240 Y118.265 E0.0444
G1 X139.655 Y118.694 E0.0326
G1 X138.730 Y119.323 E0.0502
G1 X138.144 Y119.693 E0.0311
G1 X136.831 Y120.439 E0.0678
G1 X135.425 Y121.130 E0.0703
G1 X134.646 Y121.467 E0.0381
G1 X134.059 Y121.700 E0.0284
G1 X133.157 Y122.026 E0.0431
G1 X132.519 Y122.233 E0.0301
G1 X131.575 Y122.506 E0.0441
G1 X130.919 Y122.672 E0.0304
G1 X129.951 Y122.884 E0.0445
G1 X128.620 Y123.114 E0.0606
G1 X127.179 Y123.278 E0.0651
G1 X126.191 Y123.343 E0.0445
G1 X124.697 Y123.366 E0.0671
G1 X123.689 Y123.332 E0.0453
G1 X100.102 Y121.898 E1.0610
G1 X98.996 Y121.770 E0.0500
G1 X97.881 Y121.547 E0.0511
G1 X96.953 Y121.265 E0.0435
G1 X95.915 Y120.861 E0.0500
G1 X94.989 Y120.388 E0.0467
G1 X94.041 Y119.805 E0.0500
G1 X93.308 Y119.252 E0.0412
G1 X92.507 Y118.548 E0.0479
G1 X91.818 Y117.810 E0.0453
G1 X91.099 Y116.911 E0.0517
G1 X90.401 Y115.801 E0.0589
G1 X90.027 Y115.082 E0.0364
G1 X89.809 Y114.585 E0.0244
G1 X89.439 Y113.595 E0.0475
G1 X89.200 Y112.709 E0.0412
G1 X89.119 Y112.345 E0.0167
G1 X88.975 Y111.547 E0.0364
G1 X88.882 Y110.508 E0.0468
G1 X88.858 Y109.697 E0.0364
G1 X88.858 Y100.131 E0.4295
G1 X88.897 Y99.198 E0.0419
G1 X88.982 Y98.392 E0.0364
G1 X89.132 Y97.591 E0.0366
G1 X89.423 Y96.457 E0.0526
G1 X89.761 Y95.533 E0.0442
G1 X90.215 Y94.538 E0.0491
G1 X90.657 Y93.763 E0.0401
G1 X91.102 Y93.085 E0.0364
G1 X91.679 Y92.350 E0.0420
G1 X92.431 Y91.526 E0.0501
G0 F9000 X100.226 Y99.404
;TYPE:WALL-INNER
;WIDTH:0.540
G1 F900 X100.465 Y99.245 E0.0129
G1 X100.752 Y99.165 E0.0134
G1 X124.332 Y97.730 E1.0607
G1 X125.282 Y97.712 E0.0427
G1 X126.062 Y97.746 E0.0351
G1 X126.860 Y97.827 E0.0360
G1 X127.413 Y97.910 E0.0251
G1 X128.197 Y98.067 E0.0359
G1 X128.941 Y98.259 E0.0345
G1 X129.719 Y98.507 E0.0367
G1 X130.484 Y98.800 E0.0368
G1 X131.262 Y99.154 E0.0384
G1 X131.897 Y99.488 E0.0322
G1 X132.585 Y99.896 E0.0359
G1 X133.294 Y100.375 E0.0384
G1 X133.903 Y100.840 E0.0344
G1 X134.560 Y101.405 E0.0389
G1 X135.100 Y101.928 E0.0338
G1 X135.756 Y102.640 E0.0435
G1 X135.604 Y102.821 E0.0106
G1 X135.488 Y102.745 E0.0062
G1 X135.013 Y102.671 E0.0216
G1 X132.779 Y102.675 E0.1003
G1 X132.382 Y102.729 E0.0180
G1 X132.030 Y102.863 E0.0169
G1 X131.774 Y103.069 E0.0148
G1 X131.312 Y102.743 E0.0254
G1 X130.807 Y102.652 E0.0230
G1 X130.331 Y102.799 E0.0224
G1 X129.968 Y103.119 E0.0217
G1 X129.737 Y103.454 E0.0183
G1 X129.647 Y103.656 E0.0099
G1 X129.477 Y103.659 E0.0076
G1 X129.269 Y103.237 E0.0211
G1 X128.989 Y102.959 E0.0177
G1 X128.727 Y102.806 E0.0136
G1 X128.424 Y102.705 E0.0143
G1 X128.140 Y102.669 E0.0129
G1 X127.812 Y102.697 E0.0148
G1 X127.480 Y102.815 E0.0158
G1 X127.132 Y103.109 E0.0205
G1 X127.052 Y103.000 E0.0061
G1 X126.619 Y102.722 E0.0231
G1 X126.169 Y102.657 E0.0204
G1 X125.776 Y102.756 E0.0182
G1 X125.457 Y102.947 E0.0167
G1 X125.173 Y103.215 E0.0175
G1 X125.063 Y103.082 E0.0077
G1 X124.769 Y102.836 E0.0172
G1 X124.289 Y102.658 E0.0230
G1 X123.743 Y102.714 E0.0246
G1 X123.262 Y102.973 E0.0245
G1 X122.939 Y103.396 E0.0239
G1 X122.855 Y103.799 E0.0185
G1 X122.870 Y104.104 E0.0137
G1 X123.004 Y104.546 E0.0207
G1 X123.689 Y105.761 E0.0626
G1 X123.519 Y106.002 E0.0132
G1 X123.308 Y106.365 E0.0189
G1 X122.977 Y106.012 E0.0217
G1 X122.722 Y105.823 E0.0143
G1 X122.436 Y105.678 E0.0144
G1 X122.108 Y105.581 E0.0154
G1 X121.647 Y105.552 E0.0207
G1 X121.396 Y105.602 E0.0115
G1 X121.427 Y105.177 E0.0191
G1 X121.425 Y104.656 E0.0234
G1 X121.346 Y103.942 E0.0323
G1 X121.167 Y103.285 E0.0306
G1 X120.998 Y102.896 E0.0190
G1 X120.812 Y102.573 E0.0167
G1 X120.461 Y102.128 E0.0254
G1 X120.070 Y101.791 E0.0232
G1 X119.596 Y101.526 E0.0244
G1 X119.060 Y101.361 E0.0252
G1 X118.573 Y101.281 E0.0222
G1 X118.181 Y101.248 E0.0177
G1 X116.688 Y101.223 E0.0670
G1 X116.195 Y101.290 E0.0223
G1 X115.826 Y101.453 E0.0181
G1 X115.540 Y101.702 E0.0170
G1 X115.376 Y101.973 E0.0142
G1 X115.285 Y102.298 E0.0152
G1 X115.099 Y102.313 E0.0084
G1 X114.982 Y102.060 E0.0125
G1 X114.618 Y101.646 E0.0248
G1 X114.166 Y101.342 E0.0245
G1 X113.651 Y101.159 E0.0245
G1 X113.193 Y101.080 E0.0209
G1 X112.699 Y101.059 E0.0222
G1 X112.217 Y101.097 E0.0217
G1 X111.759 Y101.197 E0.0210
G1 X111.360 Y101.354 E0.0193
G1 X110.934 Y101.619 E0.0225
G1 X110.771 Y101.782 E0.0104
G1 X110.689 Y101.634 E0.0076
G1 X110.352 Y101.365 E0.0194
G1 X109.996 Y101.255 E0.0167
G1 X109.745 Y101.231 E0.0113
G1 X106.505 Y101.246 E0.1455
G1 X105.830 Y101.198 E0.0304
G1 X105.436 Y101.264 E0.0179
G1 X105.096 Y101.442 E0.0172
G1 X104.813 Y101.743 E0.0186
G1 X104.739 Y101.901 E0.0078
G1 X104.371 Y101.580 E0.0219
G1 X103.904 Y101.310 E0.0242
G1 X103.492 Y101.167 E0.0196
G1 X103.178 Y101.103 E0.0144
G1 X102.856 Y101.069 E0.0145
G1 X102.337 Y101.069 E0.0233
G1 X101.839 Y101.137 E0.0226
G1 X101.404 Y101.263 E0.0203
G1 X101.003 Y101.444 E0.0198
G1 X100.732 Y101.608 E0.0142
G1 X100.423 Y101.849 E0.0176
G1 X100.103 Y102.167 E0.0203
G1 X99.938 Y102.098 E0.0080
G1 X99.938 Y100.158 E0.0871
G1 X99.949 Y99.990 E0.0076
G1 X99.999 Y99.771 E0.0101
G1 X100.119 Y99.530 E0.0121
G1 X100.226 Y99.404 E0.0074
G0 F9000 X99.848 Y99.016
;TYPE:WALL-OUTER
;WIDTH:0.540
G1 F900 X100.018 Y98.878 E0.0098
G1 X100.240 Y98.752 E0.0115
G1 X100.474 Y98.669 E0.0111
G1 X100.683 Y98.628 E0.0096
G1 X124.311 Y97.190 E1.0629
G1 X125.289 Y97.172 E0.0439
G1 X126.101 Y97.207 E0.0365
G1 X126.927 Y97.291 E0.0373
G1 X127.506 Y97.378 E0.0263
G1 X128.318 Y97.540 E0.0372
G1 X129.091 Y97.740 E0.0359
G1 X129.898 Y97.997 E0.0380
G1 X130.693 Y98.302 E0.0382
G1 X131.499 Y98.669 E0.0398
G1 X132.161 Y99.016 E0.0336
G1 X132.874 Y99.440 E0.0372
G1 X133.609 Y99.936 E0.0398
G1 X134.243 Y100.420 E0.0358
G1 X134.924 Y101.006 E0.0403
G1 X135.487 Y101.551 E0.0352
G1 X136.095 Y102.211 E0.0403
G1 X136.713 Y102.973 E0.0441
G1 X137.245 Y103.725 E0.0414
G1 X137.703 Y104.468 E0.0392
G1 X137.777 Y104.624 E0.0078
G1 X137.821 Y104.768 E0.0068
G1 X137.847 Y104.944 E0.0080
G1 X137.838 Y105.145 E0.0090
G1 X137.786 Y105.351 E0.0095
G1 X137.732 Y105.479 E0.0062
G1 X137.166 Y106.393 E0.0483
G1 X136.521 Y107.277 E0.0491
G1 X135.970 Y107.922 E0.0381
G1 X135.791 Y107.848 E0.0087
G1 X135.812 Y107.543 E0.0137
G1 X135.765 Y107.305 E0.0109
G1 X135.619 Y107.071 E0.0124
G1 X135.424 Y106.938 E0.0106
G1 X135.115 Y106.847 E0.0145
G1 X134.740 Y106.813 E0.0169
G1 X134.193 Y106.839 E0.0246
G1 X134.112 Y106.692 E0.0075
G1 X135.323 Y104.990 E0.0938
G1 X135.605 Y104.542 E0.0238
G1 X135.700 Y104.287 E0.0122
G1 X135.729 Y103.941 E0.0156
G1 X135.673 Y103.664 E0.0127
G1 X135.533 Y103.419 E0.0127
G1 X135.290 Y103.261 E0.0130
G1 X134.971 Y103.211 E0.0145
G1 X132.816 Y103.215 E0.0968
G1 X132.516 Y103.256 E0.0136
G1 X132.302 Y103.337 E0.0103
G1 X132.128 Y103.478 E0.0101
G1 X132.010 Y103.691 E0.0109
G1 X131.963 Y104.013 E0.0146
G1 X132.022 Y104.286 E0.0125
G1 X132.106 Y104.436 E0.0077
G1 X132.219 Y104.551 E0.0072
G1 X132.407 Y104.654 E0.0096
G1 X132.647 Y104.714 E0.0111
G1 X133.004 Y104.747 E0.0161
G1 X133.469 Y104.744 E0.0209
G1 X133.544 Y104.891 E0.0074
G1 X132.247 Y106.683 E0.0993
G1 X132.031 Y107.054 E0.0193
G1 X131.933 Y107.387 E0.0156
G1 X131.943 Y107.725 E0.0152
G1 X132.010 Y107.942 E0.0102
G1 X132.103 Y108.103 E0.0083
G1 X132.222 Y108.228 E0.0077
G1 X132.356 Y108.310 E0.0071
G1 X132.569 Y108.368 E0.0099
G1 X133.231 Y108.344 E0.0297
G1 X135.073 Y108.343 E0.0827
G1 X135.374 Y108.290 E0.0137
G1 X135.465 Y108.463 E0.0088
G1 X135.212 Y108.722 E0.0163
G1 X134.482 Y109.383 E0.0442
G1 X133.720 Y109.983 E0.0435
G1 X132.811 Y110.602 E0.0494
G1 X132.066 Y111.038 E0.0388
G1 X131.232 Y111.459 E0.0419
G1 X130.468 Y111.790 E0.0374
G1 X129.583 Y112.110 E0.0423
G1 X128.656 Y112.378 E0.0433
G1 X127.704 Y112.587 E0.0438
G1 X126.967 Y112.704 E0.0335
G1 X126.115 Y112.791 E0.0385
G1 X124.985 Y112.830 E0.0508
G1 X124.324 Y112.811 E0.0297
G1 X100.756 Y111.378 E1.0602
G1 X100.472 Y111.330 E0.0129
G1 X100.231 Y111.244 E0.0115
G1 X100.010 Y111.116 E0.0115
G1 X99.849 Y110.983 E0.0094
G1 X99.660 Y110.761 E0.0131
G1 X99.561 Y110.588 E0.0089
G1 X99.484 Y110.397 E0.0092
G1 X99.413 Y110.079 E0.0146
G1 X99.398 Y109.692 E0.0174
G1 X99.398 Y100.140 E0.4289
G1 X99.413 Y99.912 E0.0103
G1 X99.483 Y99.605 E0.0141
G1 X99.576 Y99.384 E0.0108
G1 X99.680 Y99.212 E0.0090
G1 X99.848 Y99.016 E0.0116
G0 F9000 X99.916 Y99.089
G0 X104.590 Y102.260
G0 X104.778 Y103.153
G0 X104.133 Y103.730
G0 X102.181 Y103.805
;TYPE:WALL-INNER
;WIDTH:0.540
G1 F900 X102.307 Y103.729 E0.0066
G1 X102.415 Y103.693 E0.0051
G1 X102.559 Y103.683 E0.0065
G1 X102.661 Y103.724 E0.0049
G1 X103.266 Y104.075 E0.0314
G1 X103.632 Y104.193 E0.0173
G1 X104.027 Y104.213 E0.0178
G1 X104.463 Y104.081 E0.0205
G1 X104.876 Y103.727 E0.0244
G1 X104.967 Y103.546 E0.0091
G1 X105.405 Y103.791 E0.0225
G1 X105.795 Y103.860 E0.0178
G1 X106.495 Y103.790 E0.0316
G1 X106.473 Y104.127 E0.0152
G1 X106.490 Y106.905 E0.1247
G1 X106.450 Y107.413 E0.0229
G1 X106.465 Y107.787 E0.0168
G1 X106.673 Y108.278 E0.0239
G1 X107.131 Y108.611 E0.0254
G1 X107.668 Y108.732 E0.0247
G1 X108.173 Y108.664 E0.0229
G1 X108.553 Y108.460 E0.0194
G1 X108.834 Y108.142 E0.0191
G1 X108.987 Y107.787 E0.0174
G1 X109.054 Y107.410 E0.0172
G1 X109.037 Y106.518 E0.0401
G1 X109.036 Y103.808 E0.1217
G1 X109.512 Y103.815 E0.0214
G1 X109.934 Y103.772 E0.0190
G1 X110.305 Y103.656 E0.0175
G1 X110.627 Y103.410 E0.0182
G1 X110.867 Y103.718 E0.0175
G1 X111.267 Y103.972 E0.0213
G1 X111.131 Y104.319 E0.0167
G1 X111.076 Y104.589 E0.0124
G1 X111.077 Y104.943 E0.0159
G1 X111.223 Y105.396 E0.0214
G1 X111.571 Y105.727 E0.0216
G1 X111.515 Y105.890 E0.0077
G1 X111.431 Y105.897 E0.0038
G1 X111.097 Y106.004 E0.0157
G1 X110.809 Y106.182 E0.0152
G1 X110.505 Y106.569 E0.0221
G1 X110.388 Y107.013 E0.0206
G1 X110.419 Y107.491 E0.0215
G1 X110.576 Y107.902 E0.0198
G1 X110.804 Y108.215 E0.0174
G1 X111.109 Y108.464 E0.0177
G1 X111.440 Y108.639 E0.0168
G1 X111.722 Y108.737 E0.0134
G1 X112.103 Y108.823 E0.0175
G1 X112.418 Y108.859 E0.0142
G1 X113.037 Y108.858 E0.0278
G1 X113.605 Y108.765 E0.0258
G1 X114.132 Y108.557 E0.0254
G1 X114.602 Y108.238 E0.0255
G1 X114.989 Y107.818 E0.0256
G1 X115.147 Y107.549 E0.0140
G1 X115.336 Y107.589 E0.0087
G1 X115.358 Y107.778 E0.0085
G1 X115.558 Y108.243 E0.0227
G1 X115.956 Y108.613 E0.0244
G1 X116.463 Y108.735 E0.0234
G1 X117.055 Y108.686 E0.0267
G1 X117.996 Y108.691 E0.0423
G1 X118.594 Y108.647 E0.0269
G1 X119.054 Y108.564 E0.0210
G1 X119.459 Y108.437 E0.0191
G1 X119.849 Y108.245 E0.0195
G1 X120.083 Y108.078 E0.0129
G1 X120.324 Y108.458 E0.0202
G1 X120.537 Y108.696 E0.0143
G1 X120.872 Y108.943 E0.0187
G1 X121.179 Y109.079 E0.0151
G1 X121.488 Y109.156 E0.0143
G1 X121.816 Y109.177 E0.0148
G1 X122.184 Y109.130 E0.0167
G1 X122.569 Y108.992 E0.0184
G1 X122.853 Y108.818 E0.0150
G1 X123.164 Y108.540 E0.0187
G1 X123.530 Y108.793 E0.0200
G1 X123.951 Y108.904 E0.0195
G1 X124.413 Y108.854 E0.0209
G1 X124.824 Y108.597 E0.0218
G1 X125.098 Y108.282 E0.0187
G1 X125.443 Y108.658 E0.0229
G1 X125.889 Y108.886 E0.0225
G1 X126.377 Y108.913 E0.0219
G1 X126.852 Y108.775 E0.0222
G1 X127.255 Y108.449 E0.0233
G1 X127.452 Y108.057 E0.0197
G1 X127.507 Y107.738 E0.0145
G1 X127.486 Y107.369 E0.0166
G1 X127.407 Y107.090 E0.0130
G1 X127.262 Y106.790 E0.0150
G1 X126.607 Y105.701 E0.0571
G1 X127.017 Y105.018 E0.0358
G1 X127.182 Y105.032 E0.0074
G1 X128.018 Y107.236 E0.1058
G1 X128.230 Y107.713 E0.0234
G1 X127.997 Y108.213 E0.0248
G1 X127.831 Y108.656 E0.0212
G1 X127.772 Y108.755 E0.0052
G1 X127.660 Y108.832 E0.0061
G1 X127.139 Y108.982 E0.0243
G1 X126.824 Y109.185 E0.0168
G1 X126.586 Y109.480 E0.0170
G1 X126.460 Y109.973 E0.0228
G1 X126.541 Y110.492 E0.0236
G1 X126.790 Y110.964 E0.0240
G1 X127.205 Y111.306 E0.0241
G1 X127.711 Y111.436 E0.0235
G1 X128.174 Y111.406 E0.0208
G1 X128.621 Y111.285 E0.0208
G1 X128.998 Y111.124 E0.0184
G1 X129.326 Y110.908 E0.0176
G1 X129.599 Y110.639 E0.0172
G1 X129.802 Y110.351 E0.0158
G1 X129.968 Y110.051 E0.0154
G1 X130.196 Y109.529 E0.0256
G1 X130.621 Y108.430 E0.0529
G1 X131.855 Y104.967 E0.1651
G1 X132.209 Y105.161 E0.0181
G1 X132.609 Y105.261 E0.0185
G1 X131.794 Y106.388 E0.0624
G1 X131.531 Y106.839 E0.0234
G1 X131.391 Y107.317 E0.0224
G1 X131.405 Y107.814 E0.0223
G1 X131.512 Y108.159 E0.0162
G1 X131.668 Y108.429 E0.0140
G1 X131.880 Y108.652 E0.0138
G1 X132.140 Y108.811 E0.0137
G1 X132.506 Y108.911 E0.0170
G1 X133.241 Y108.884 E0.0330
G1 X133.952 Y108.884 E0.0319
G1 X134.014 Y109.064 E0.0085
G1 X133.401 Y109.547 E0.0350
G1 X132.522 Y110.145 E0.0477
G1 X131.808 Y110.563 E0.0371
G1 X131.003 Y110.970 E0.0405
G1 X130.269 Y111.288 E0.0359
G1 X129.416 Y111.596 E0.0407
G1 X128.523 Y111.854 E0.0417
G1 X127.604 Y112.056 E0.0422
G1 X126.897 Y112.168 E0.0321
G1 X126.078 Y112.252 E0.0370
G1 X124.983 Y112.290 E0.0492
G1 X124.348 Y112.271 E0.0285
G1 X100.818 Y110.841 E1.0585
G1 X100.609 Y110.805 E0.0095
G1 X100.459 Y110.752 E0.0071
G1 X100.229 Y110.597 E0.0125
G1 X100.104 Y110.449 E0.0087
G1 X100.001 Y110.236 E0.0106
G1 X99.951 Y110.009 E0.0104
G1 X99.938 Y107.821 E0.0982
G1 X100.116 Y107.758 E0.0085
G1 X100.223 Y107.888 E0.0076
G1 X100.563 Y108.199 E0.0207
G1 X101.048 Y108.511 E0.0259
G1 X101.432 Y108.676 E0.0188
G1 X101.824 Y108.789 E0.0183
G1 X102.294 Y108.856 E0.0213
G1 X102.739 Y108.864 E0.0200
G1 X103.115 Y108.836 E0.0169
G1 X103.649 Y108.718 E0.0246
G1 X104.000 Y108.574 E0.0170
G1 X104.284 Y108.410 E0.0147
G1 X104.560 Y108.189 E0.0159
G1 X104.786 Y107.946 E0.0149
G1 X104.999 Y107.617 E0.0176
G1 X105.207 Y107.112 E0.0245
G1 X105.104 Y106.534 E0.0264
G1 X104.842 Y106.151 E0.0208
G1 X104.427 Y105.861 E0.0227
G1 X104.042 Y105.745 E0.0181
G1 X103.749 Y105.725 E0.0132
G1 X103.428 Y105.773 E0.0146
G1 X103.159 Y105.882 E0.0130
G1 X102.915 Y106.059 E0.0135
G1 X102.774 Y106.221 E0.0096
G1 X102.662 Y106.246 E0.0052
G1 X102.407 Y106.232 E0.0115
