;Sliced by ideaMaker 3.6.1.4415, 2020-10-06 22:31:13 UTC+0200
;Dimension: 250.000 210.000 200.000 0.400
;Plate Shape: 0
;Extruder Offset #1: 25.000 0.000
;Filament Diameter #1: 1.750
;Filament Diameter #2: 1.750
;Filament Compensation #1: 95.00
;Filament Compensation #2: 98.00
;Filament Density #1: 1240.00
;Filament Density #2: 1240.00
;Bounding Box: 110.394 139.606 89.730 120.270 0.000 4.400
;Model Gap: 0.000
M221 T0 S95.00
M140 S85.00
M104 T0 S235.00
M109 T0 S235.00
T0
M190 S85.00
M572 D0 S0.05
M572 D1 S0.05
G21
G90
M82
M107
G28
G1 Z0 F500
G92 E0
G1 Z0.2 F400
G1 X60 Y-2 E5 F600
G1 X140 Y-2 E12 F500
G1 X148 E15 F200
G92 E0
G1 F9000.0
M117 Printing...
;end of Start GCode
M83
;LAYER:0
;Z:0.200
;HEIGHT:0.200
M106 S82
G0 F9000 X112.879 Y93.302
G0 F900 Z0.200
;TYPE:SKIRT
;WIDTH:0.540
G1 F859 X113.432 Y92.709 E0.0364
G1 X114.029 Y92.161 E0.0364
G1 X114.668 Y91.662 E0.0364
G1 X115.344 Y91.215 E0.0364
G1 X116.054 Y90.823 E0.0364
G1 X116.792 Y90.488 E0.0364
G1 X117.554 Y90.212 E0.0364
G1 X118.336 Y89.997 E0.0364
G1 X119.132 Y89.845 E0.0364
G1 X119.937 Y89.756 E0.0364
G1 X120.664 Y89.730 E0.0327
G1 X121.564 Y89.730 E0.0404
G1 X122.374 Y89.762 E0.0364
G1 X123.179 Y89.858 E0.0364
G1 X123.974 Y90.017 E0.0364
G1 X124.753 Y90.238 E0.0364
G1 X125.001 Y90.330 E0.0119
G1 X125.326 Y90.212 E0.0155
G1 X126.108 Y89.997 E0.0364
G1 X126.904 Y89.845 E0.0364
G1 X127.709 Y89.756 E0.0364
G1 X128.436 Y89.730 E0.0327
G1 X129.336 Y89.730 E0.0404
G1 X130.146 Y89.762 E0.0364
G1 X130.951 Y89.858 E0.0364
G1 X131.746 Y90.017 E0.0364
G1 X132.525 Y90.238 E0.0364
G1 X133.285 Y90.520 E0.0364
G1 X134.021 Y90.861 E0.0364
G1 X134.727 Y91.259 E0.0364
G1 X135.400 Y91.711 E0.0364
G1 X136.034 Y92.215 E0.0364
G1 X136.627 Y92.768 E0.0364
G1 X137.175 Y93.365 E0.0364
G1 X137.674 Y94.004 E0.0364
G1 X138.121 Y94.680 E0.0364
G1 X138.513 Y95.390 E0.0364
G1 X138.848 Y96.128 E0.0364
G1 X139.124 Y96.890 E0.0364
G1 X139.339 Y97.672 E0.0364
G1 X139.491 Y98.468 E0.0364
G1 X139.580 Y99.273 E0.0364
G1 X139.606 Y100.000 E0.0327
G1 X139.606 Y110.000 E0.4490
G1 X139.574 Y110.810 E0.0364
G1 X139.478 Y111.615 E0.0364
G1 X139.319 Y112.410 E0.0364
G1 X139.098 Y113.189 E0.0364
G1 X138.816 Y113.949 E0.0364
G1 X138.475 Y114.685 E0.0364
G1 X138.077 Y115.391 E0.0364
G1 X137.625 Y116.064 E0.0364
G1 X137.121 Y116.698 E0.0364
G1 X136.568 Y117.291 E0.0364
G1 X135.971 Y117.839 E0.0364
G1 X135.332 Y118.338 E0.0364
G1 X134.656 Y118.785 E0.0364
G1 X133.946 Y119.177 E0.0364
G1 X133.208 Y119.512 E0.0364
G1 X132.446 Y119.788 E0.0364
G1 X131.664 Y120.003 E0.0364
G1 X130.868 Y120.155 E0.0364
G1 X130.063 Y120.244 E0.0364
G1 X129.336 Y120.270 E0.0327
G1 X128.436 Y120.270 E0.0404
G1 X127.626 Y120.238 E0.0364
G1 X126.821 Y120.142 E0.0364
G1 X126.026 Y119.983 E0.0364
G1 X125.247 Y119.762 E0.0364
G1 X124.999 Y119.670 E0.0119
G1 X124.674 Y119.788 E0.0155
G1 X123.892 Y120.003 E0.0364
G1 X123.096 Y120.155 E0.0364
G1 X122.291 Y120.244 E0.0364
G1 X121.564 Y120.270 E0.0327
G1 X120.664 Y120.270 E0.0404
G1 X119.854 Y120.238 E0.0364
G1 X119.049 Y120.142 E0.0364
G1 X118.254 Y119.983 E0.0364
G1 X117.475 Y119.762 E0.0364
G1 X116.715 Y119.480 E0.0364
G1 X115.979 Y119.139 E0.0364
G1 X115.273 Y118.741 E0.0364
G1 X114.600 Y118.289 E0.0364
G1 X113.966 Y117.785 E0.0364
G1 X113.373 Y117.232 E0.0364
G1 X112.825 Y116.635 E0.0364
G1 X112.326 Y115.996 E0.0364
G1 X111.879 Y115.320 E0.0364
G1 X111.487 Y114.610 E0.0364
G1 X111.152 Y113.872 E0.0364
G1 X110.876 Y113.110 E0.0364
G1 X110.661 Y112.328 E0.0364
G1 X110.509 Y111.532 E0.0364
G1 X110.420 Y110.727 E0.0364
G1 X110.394 Y110.000 E0.0327
G1 X110.394 Y100.000 E0.4490
G1 X110.426 Y99.190 E0.0364
G1 X110.522 Y98.385 E0.0364
G1 X110.681 Y97.590 E0.0364
G1 X110.902 Y96.811 E0.0364
G1 X111.184 Y96.051 E0.0364
G1 X111.525 Y95.315 E0.0364
G1 X111.923 Y94.609 E0.0364
G1 X112.375 Y93.936 E0.0364
G1 X112.879 Y93.302 E0.0364
G0 F9000 X120.934 Y100.270
;TYPE:WALL-OUTER
;WIDTH:0.540
G1 F859 X121.294 Y100.270 E0.0162
G1 X121.294 Y109.730 E0.4248
G1 X120.934 Y109.730 E0.0162
G1 X120.934 Y100.270 E0.4248
G0 F9000 X128.706 Y100.270
;TYPE:WALL-OUTER
;WIDTH:0.540
G1 F859 X129.066 Y100.270 E0.0162
G1 X129.066 Y109.730 E0.4248
G1 X128.706 Y109.730 E0.0162
G1 X128.706 Y100.270 E0.4248
;LAYER:1
;Z:0.400
;HEIGHT:0.200
M106 S128
G0 F900 Z0.400
G0 F9000 X128.461 Y100.225
;TYPE:WALL-OUTER
;WIDTH:0.450
G1 F600 X128.911 Y100.225 E0.0168
G1 X128.911 Y109.775 E0.3573
G1 X128.461 Y109.775 E0.0168
G1 X128.461 Y100.225 E0.3573
G0 F9000 X121.089 Y100.225
;TYPE:WALL-OUTER
;WIDTH:0.450
G1 F600 X121.539 Y100.225 E0.0168
G1 X121.539 Y109.775 E0.3573
G1 X121.089 Y109.775 E0.0168
G1 X121.089 Y100.225 E0.3573
;LAYER:2
;Z:0.600
;HEIGHT:0.200
G0 F900 Z0.600
G0 F9000 X121.289 Y100.225
;TYPE:WALL-OUTER
;WIDTH:0.450
G1 F600 X121.739 Y100.225 E0.0168
G1 X121.739 Y109.775 E0.3573
G1 X121.289 Y109.775 E0.0168
G1 X121.289 Y100.225 E0.3573
G0 F9000 X128.261 Y100.225
;TYPE:WALL-OUTER
;WIDTH:0.450
G1 F600 X128.711 Y100.225 E0.0168
G1 X128.711 Y109.775 E0.3573
G1 X128.261 Y109.775 E0.0168
G1 X128.261 Y100.225 E0.3573
;LAYER:3
;Z:0.800
;HEIGHT:0.200
G0 F900 Z0.800
G0 F9000 X128.061 Y100.225
;TYPE:WALL-OUTER
;WIDTH:0.450
G1 F600 X128.511 Y100.225 E0.0168
G1 X128.511 Y109.775 E0.3573
G1 X128.061 Y109.775 E0.0168
G1 X128.061 Y100.225 E0.3573
G0 F9000 X121.489 Y100.225
;TYPE:WALL-OUTER
;WIDTH:0.450
G1 F600 X121.939 Y100.225 E0.0168
G1 X121.939 Y109.775 E0.3573
G1 X121.489 Y109.775 E0.0168
G1 X121.489 Y100.225 E0.3573
;LAYER:4
;Z:1.000
;HEIGHT:0.200
G0 F900 Z1.000
G0 F9000 X121.689 Y100.225
;TYPE:WALL-OUTER
;WIDTH:0.450
G1 F600 X122.139 Y100.225 E0.0168
G1 X122.139 Y109.775 E0.3573
G1 X121.689 Y109.775 E0.0168
G1 X121.689 Y100.225 E0.3573
G0 F9000 X127.861 Y100.225
;TYPE:WALL-OUTER
;WIDTH:0.450
G1 F600 X128.311 Y100.225 E0.0168
G1 X128.311 Y109.775 E0.3573
G1 X127.861 Y109.775 E0.0168
G1 X127.861 Y100.225 E0.3573
;LAYER:5
;Z:1.200
;HEIGHT:0.200
G0 F900 Z1.200
G0 F9000 X127.661 Y100.225
;TYPE:WALL-OUTER
;WIDTH:0.450
G1 F600 X128.111 Y100.225 E0.0168
G1 X128.111 Y109.775 E0.3573
G1 X127.661 Y109.775 E0.0168
G1 X127.661 Y100.225 E0.3573
G0 F9000 X121.889 Y100.225
;TYPE:WALL-OUTER
;WIDTH:0.450
G1 F600 X122.339 Y100.225 E0.0168
G1 X122.339 Y109.775 E0.3573
G1 X121.889 Y109.775 E0.0168
G1 X121.889 Y100.225 E0.3573
;LAYER:6
;Z:1.400
;HEIGHT:0.200
G0 F900 Z1.400
G0 F9000 X122.089 Y100.225
;TYPE:WALL-OUTER
;WIDTH:0.450
G1 F600 X122.539 Y100.225 E0.0168
G1 X122.539 Y109.775 E0.3573
G1 X122.089 Y109.775 E0.0168
G1 X122.089 Y100.225 E0.3573
G0 F9000 X127.461 Y100.225
;TYPE:WALL-OUTER
;WIDTH:0.450
G1 F600 X127.911 Y100.225 E0.0168
G1 X127.911 Y109.775 E0.3573
G1 X127.461 Y109.775 E0.0168
G1 X127.461 Y100.225 E0.3573
;LAYER:7
;Z:1.600
;HEIGHT:0.200
G0 F900 Z1.600
G0 F9000 X127.261 Y100.225
;TYPE:WALL-OUTER
;WIDTH:0.450
G1 F600 X127.711 Y100.225 E0.0168
G1 X127.711 Y109.775 E0.3573
G1 X127.261 Y109.775 E0.0168
G1 X127.261 Y100.225 E0.3573
G0 F9000 X122.289 Y100.225
;TYPE:WALL-OUTER
;WIDTH:0.450
G1 F600 X122.739 Y100.225 E0.0168
G1 X122.739 Y109.775 E0.3573
G1 X122.289 Y109.775 E0.0168
G1 X122.289 Y100.225 E0.3573
;LAYER:8
;Z:1.800
;HEIGHT:0.200
G0 F900 Z1.800
G0 F9000 X122.489 Y100.225
;TYPE:WALL-OUTER
;WIDTH:0.450
G1 F600 X122.939 Y100.225 E0.0168
G1 X122.939 Y109.775 E0.3573
G1 X122.489 Y109.775 E0.0168
G1 X122.489 Y100.225 E0.3573
G0 F9000 X127.061 Y100.225
;TYPE:WALL-OUTER
;WIDTH:0.450
G1 F600 X127.511 Y100.225 E0.0168
G1 X127.511 Y109.775 E0.3573
G1 X127.061 Y109.775 E0.0168
G1 X127.061 Y100.225 E0.3573
;LAYER:9
;Z:2.000
;HEIGHT:0.200
G0 F900 Z2.000
G0 F9000 X126.861 Y100.225
;TYPE:WALL-OUTER
;WIDTH:0.450
G1 F600 X127.311 Y100.225 E0.0168
G1 X127.311 Y109.775 E0.3573
G1 X126.861 Y109.775 E0.0168
G1 X126.861 Y100.225 E0.3573
G0 F9000 X122.689 Y100.225
;TYPE:WALL-OUTER
;WIDTH:0.450
G1 F600 X123.139 Y100.225 E0.0168
G1 X123.139 Y109.775 E0.3573
G1 X122.689 Y109.775 E0.0168
G1 X122.689 Y100.225 E0.3573
;LAYER:10
;Z:2.200
;HEIGHT:0.200
G0 F900 Z2.200
G0 F9000 X122.889 Y100.225
;TYPE:WALL-OUTER
;WIDTH:0.450
G1 F600 X123.339 Y100.225 E0.0168
G1 X123.339 Y109.775 E0.3573
G1 X122.889 Y109.775 E0.0168
G1 X122.889 Y100.225 E0.3573
G0 F9000 X126.661 Y100.225
;TYPE:WALL-OUTER
;WIDTH:0.450
G1 F600 X127.111 Y100.225 E0.0168
G1 X127.111 Y109.775 E0.3573
G1 X126.661 Y109.775 E0.0168
G1 X126.661 Y100.225 E0.3573
;LAYER:11
;Z:2.400
;HEIGHT:0.200
G0 F900 Z2.400
G0 F9000 X126.461 Y100.225
;TYPE:WALL-OUTER
;WIDTH:0.450
G1 F600 X126.911 Y100.225 E0.0168
G1 X126.911 Y109.775 E0.3573
G1 X126.461 Y109.775 E0.0168
G1 X126.461 Y100.225 E0.3573
G0 F9000 X123.089 Y100.225
;TYPE:WALL-OUTER
;WIDTH:0.450
G1 F600 X123.539 Y100.225 E0.0168
G1 X123.539 Y109.775 E0.3573
G1 X123.089 Y109.775 E0.0168
G1 X123.089 Y100.225 E0.3573
;LAYER:12
;Z:2.600
;HEIGHT:0.200
G0 F900 Z2.600
G0 F9000 X123.289 Y100.225
;TYPE:WALL-OUTER
;WIDTH:0.450
G1 F600 X123.739 Y100.225 E0.0168
G1 X123.739 Y109.775 E0.3573
G1 X123.289 Y109.775 E0.0168
G1 X123.289 Y100.225 E0.3573
G0 F9000 X126.261 Y100.225
;TYPE:WALL-OUTER
;WIDTH:0.450
G1 F600 X126.711 Y100.225 E0.0168
G1 X126.711 Y109.775 E0.3573
G1 X126.261 Y109.775 E0.0168
G1 X126.261 Y100.225 E0.3573
;LAYER:13
;Z:2.800
;HEIGHT:0.200
G0 F900 Z2.800
G0 F9000 X126.061 Y100.225
;TYPE:WALL-OUTER
;WIDTH:0.450
G1 F600 X126.511 Y100.225 E0.0168
G1 X126.511 Y109.775 E0.3573
G1 X126.061 Y109.775 E0.0168
G1 X126.061 Y100.225 E0.3573
G0 F9000 X124.044 Y100.225
G0 X123.489 Y100.225
;TYPE:WALL-OUTER
;WIDTH:0.450
G1 F600 X123.939 Y100.225 E0.0168
G1 X123.939 Y109.775 E0.3573
G1 X123.489 Y109.775 E0.0168
G1 X123.489 Y100.225 E0.3573
;LAYER:14
;Z:3.000
;HEIGHT:0.200
G0 F900 Z3.000
G0 F9000 X123.689 Y100.225
;TYPE:WALL-OUTER
;WIDTH:0.450
G1 F600 X124.139 Y100.225 E0.0168
G1 X124.139 Y109.775 E0.3573
G1 X123.689 Y109.775 E0.0168
G1 X123.689 Y100.225 E0.3573
G0 F9000 X125.756 Y100.225
G0 X125.861 Y100.225
;TYPE:WALL-OUTER
;WIDTH:0.450
G1 F600 X126.311 Y100.225 E0.0168
G1 X126.311 Y109.775 E0.3573
G1 X125.861 Y109.775 E0.0168
G1 X125.861 Y100.225 E0.3573
;LAYER:15
;Z:3.200
;HEIGHT:0.200
G0 F900 Z3.200
G0 F9000 X125.661 Y100.225
;TYPE:WALL-OUTER
;WIDTH:0.450
G1 F600 X126.111 Y100.225 E0.0168
G1 X126.111 Y109.775 E0.3573
G1 X125.661 Y109.775 E0.0168
G1 X125.661 Y100.225 E0.3573
G0 F9000 X124.239 Y100.235
G0 X123.989 Y100.235
G0 X123.889 Y100.225
;TYPE:WALL-OUTER
;WIDTH:0.450
G1 F600 X124.339 Y100.225 E0.0168
G1 X124.339 Y109.775 E0.3573
G1 X123.889 Y109.775 E0.0168
G1 X123.889 Y100.225 E0.3573
;LAYER:16
;Z:3.400
;HEIGHT:0.200
G0 F900 Z3.400
G0 F9000 X124.089 Y100.225
;TYPE:WALL-OUTER
;WIDTH:0.450
G1 F600 X124.539 Y100.225 E0.0168
G1 X124.539 Y109.775 E0.3573
G1 X124.089 Y109.775 E0.0168
G1 X124.089 Y100.225 E0.3573
G0 F9000 X125.561 Y100.235
G0 X125.461 Y100.225
;TYPE:WALL-OUTER
;WIDTH:0.450
G1 F600 X125.911 Y100.225 E0.0168
G1 X125.911 Y109.775 E0.3573
G1 X125.461 Y109.775 E0.0168
G1 X125.461 Y100.225 E0.3573
;LAYER:17
;Z:3.600
;HEIGHT:0.200
G0 F900 Z3.600
G0 F9000 X125.261 Y100.225
;TYPE:WALL-OUTER
;WIDTH:0.450
G1 F600 X125.711 Y100.225 E0.0168
G1 X125.711 Y109.775 E0.3573
G1 X125.271 Y109.775 E0.0165
G1 X125.261 Y100.225 E0.3573
G0 F9000 X124.629 Y100.235
G0 X124.389 Y100.235
G0 X124.289 Y100.225
;TYPE:WALL-OUTER
;WIDTH:0.450
G1 F600 X124.729 Y100.225 E0.0165
G1 X124.739 Y109.775 E0.3573
G1 X124.289 Y109.775 E0.0168
G1 X124.289 Y100.225 E0.3573
;LAYER:18
;Z:3.800
;HEIGHT:0.200
G0 F900 Z3.800
G0 F9000 X124.489 Y100.225
;TYPE:WALL-OUTER
;WIDTH:0.450
G1 F600 X125.511 Y100.225 E0.0382
G1 X125.511 Y109.775 E0.3573
G1 X124.489 Y109.775 E0.0382
G1 X124.489 Y100.225 E0.3573
G0 F9000 X124.951 Y100.450
;TYPE:SOLID-FILL
;WIDTH:0.450
G1 F600 X124.999 Y100.816 E0.0176
G1 X124.999 Y101.452 E0.0302
G1 X124.999 Y102.089 E0.0302
G1 X124.999 Y102.725 E0.0302
G1 X124.999 Y103.361 E0.0302
G1 X124.999 Y103.998 E0.0302
G1 X124.999 Y104.634 E0.0302
G1 X124.999 Y105.271 E0.0302
G1 X124.999 Y105.907 E0.0302
G1 X124.999 Y106.543 E0.0302
G1 X124.999 Y107.180 E0.0302
G1 X124.999 Y107.816 E0.0302
G1 X124.999 Y108.453 E0.0302
G1 X125.213 Y109.303 E0.0302
G1 X124.713 Y109.121 E0.0199
;LAYER:19
;Z:4.000
;HEIGHT:0.200
G0 F900 Z4.000
G0 F9000 X124.713 Y109.121
G0 X124.789 Y100.235
G0 X124.689 Y100.225
;TYPE:WALL-OUTER
;WIDTH:0.450
G1 F600 X125.311 Y100.225 E0.0233
G1 X125.311 Y109.775 E0.3573
G1 X124.689 Y109.775 E0.0233
G1 X124.689 Y100.225 E0.3573
G0 F9000 X125.085 Y100.517
;TYPE:SOLID-FILL
;WIDTH:0.450
G1 F600 X124.999 Y100.921 E0.0091
G1 X124.999 Y101.557 E0.0090
G1 X124.999 Y102.193 E0.0090
G1 X124.999 Y102.830 E0.0091
G1 X124.999 Y103.466 E0.0090
G1 X124.999 Y104.103 E0.0091
G1 X124.999 Y104.739 E0.0090
G1 X124.999 Y105.375 E0.0090
G1 X124.999 Y106.012 E0.0091
G1 X124.999 Y106.648 E0.0090
G1 X124.999 Y107.285 E0.0091
G1 X124.999 Y107.921 E0.0090
G1 X124.999 Y108.557 E0.0090
G1 X124.999 Y109.194 E0.0091
G1 X124.961 Y109.550 E0.0134
;LAYER:20
;Z:4.200
;HEIGHT:0.200
G0 F900 Z4.200
G0 F9000 X125.000 Y110.000
;TYPE:WALL-OUTER
;WIDTH:0.672
G1 F600 X125.000 Y100.000 E0.5588
;LAYER:21
;Z:4.400
;HEIGHT:0.200
G0 F900 Z4.400
G0 F9000 X125.000 Y100.000
;TYPE:WALL-OUTER
;WIDTH:0.272
G1 F600 X125.000 Y110.000 E0.2262
M106 S0
M82
G0 F900 Z9.400
G0 F9000 X125.000 Y110.000
M221 T0 S100
G92 E0
;End GCode
M104 T0 S0
M221 T0 S100
M104 S0
M140 S0
M107
G91
G1 E-1 F300
G1 Z+0.5 E-5 Y-20 F9000.00
G28 X0 U0
M84
G90
;
;Print Time: 92
;Material#1 Used: 34.7
;Material#2 Used: 0.0
;Material#1 Cost: 0.00
;Material#2 Cost: 0.00
