;Sliced by ideaMaker 3.5.3.4250, 2020-06-24 21:57:25 UTC+0200
;Dimension: 250.000 210.000 200.000 0.400
;Plate Shape: 0
;Extruder Offset #1: 25.000 0.000
;Filament Diameter #1: 1.750
;Filament Diameter #2: 1.750
;Filament Compensation #1: 95.00
;Filament Compensation #2: 98.00
;Filament Density #1: 1270.00
;Filament Density #2: 1270.00
;Bounding Box: 111.730 138.270 91.730 118.270 0.000 20.100
;Model Gap: 0.000
M221 T0 S95.00
M140 S85.00
M104 T0 S235.00
M109 T0 S235.00
T0
M190 S85.00
M572 D0 S0.05
M572 D1 S0.05
G21
G90
M82
M107
G28
G1 Z0 F500
G92 E0
G1 Z0.2 F400
G1 X60 Y-2 E5 F600
G1 X140 Y-2 E12 F500
G1 X148 E15 F200
G92 E0
G1 F9000.0
M117 Printing...
;end of Start GCode
M83
;LAYER:0
;Z:0.300
;HEIGHT:0.300
M106 S77
G1 F2400 E-0.1000
G0 F9000 X126.878 Y92.894
G0 F900 Z0.300
;TYPE:SKIRT
;WIDTH:0.540
G1 F2400 E0.1000
G1 F900 X127.196 Y92.566 E0.0308
G1 X127.557 Y92.285 E0.0308
G1 X127.954 Y92.057 E0.0308
G1 X128.378 Y91.887 E0.0308
G1 X128.822 Y91.778 E0.0308
G1 X129.380 Y91.730 E0.0377
G1 X135.000 Y91.730 E0.3785
G1 X135.456 Y91.762 E0.0308
G1 X135.903 Y91.857 E0.0308
G1 X136.333 Y92.014 E0.0308
G1 X136.736 Y92.229 E0.0308
G1 X137.106 Y92.498 E0.0308
G1 X137.434 Y92.816 E0.0308
G1 X137.715 Y93.177 E0.0308
G1 X137.943 Y93.574 E0.0308
G1 X138.113 Y93.998 E0.0308
G1 X138.222 Y94.442 E0.0308
G1 X138.270 Y95.000 E0.0377
G1 X138.270 Y115.000 E1.3470
G1 X138.238 Y115.456 E0.0308
G1 X138.143 Y115.903 E0.0308
G1 X137.986 Y116.333 E0.0308
G1 X137.771 Y116.736 E0.0308
G1 X137.502 Y117.106 E0.0308
G1 X137.184 Y117.434 E0.0308
G1 X136.823 Y117.715 E0.0308
G1 X136.426 Y117.943 E0.0308
G1 X136.002 Y118.113 E0.0308
G1 X135.558 Y118.222 E0.0308
G1 X135.000 Y118.270 E0.0377
G1 X129.380 Y118.270 E0.3785
G1 X128.924 Y118.238 E0.0308
G1 X128.477 Y118.143 E0.0308
G1 X128.047 Y117.986 E0.0308
G1 X127.644 Y117.771 E0.0308
G1 X127.274 Y117.502 E0.0308
G1 X126.946 Y117.184 E0.0308
G1 X126.665 Y116.823 E0.0308
G1 X126.437 Y116.426 E0.0308
G1 X126.267 Y116.002 E0.0308
G1 X126.158 Y115.558 E0.0308
G1 X126.110 Y115.000 E0.0377
G1 X126.110 Y95.000 E1.3470
G1 X126.142 Y94.544 E0.0308
G1 X126.237 Y94.097 E0.0308
G1 X126.394 Y93.667 E0.0308
G1 X126.609 Y93.264 E0.0308
G1 X126.878 Y92.894 E0.0308
G1 F2400 E-0.1000
G0 F9000 X123.733 Y93.998
G1 F2400 E0.1000
G1 F900 X123.842 Y94.442 E0.0308
G1 X123.890 Y95.000 E0.0377
G1 X123.890 Y115.000 E1.3470
G1 X123.858 Y115.456 E0.0308
G1 X123.763 Y115.903 E0.0308
G1 X123.606 Y116.333 E0.0308
G1 X123.391 Y116.736 E0.0308
G1 X123.122 Y117.106 E0.0308
G1 X122.804 Y117.434 E0.0308
G1 X122.443 Y117.715 E0.0308
G1 X122.046 Y117.943 E0.0308
G1 X121.622 Y118.113 E0.0308
G1 X121.178 Y118.222 E0.0308
G1 X120.620 Y118.270 E0.0377
G1 X115.000 Y118.270 E0.3785
G1 X114.544 Y118.238 E0.0308
G1 X114.097 Y118.143 E0.0308
G1 X113.667 Y117.986 E0.0308
G1 X113.264 Y117.771 E0.0308
G1 X112.894 Y117.502 E0.0308
G1 X112.566 Y117.184 E0.0308
G1 X112.285 Y116.823 E0.0308
G1 X112.057 Y116.426 E0.0308
G1 X111.887 Y116.002 E0.0308
G1 X111.778 Y115.558 E0.0308
G1 X111.730 Y115.000 E0.0377
G1 X111.730 Y95.000 E1.3470
G1 X111.762 Y94.544 E0.0308
G1 X111.857 Y94.097 E0.0308
G1 X112.014 Y93.667 E0.0308
G1 X112.229 Y93.264 E0.0308
G1 X112.498 Y92.894 E0.0308
G1 X112.816 Y92.566 E0.0308
G1 X113.177 Y92.285 E0.0308
G1 X113.574 Y92.057 E0.0308
G1 X113.998 Y91.887 E0.0308
G1 X114.442 Y91.778 E0.0308
G1 X115.000 Y91.730 E0.0377
G1 X120.620 Y91.730 E0.3785
G1 X121.076 Y91.762 E0.0308
G1 X121.523 Y91.857 E0.0308
G1 X121.953 Y92.014 E0.0308
G1 X122.356 Y92.229 E0.0308
G1 X122.726 Y92.498 E0.0308
G1 X123.054 Y92.816 E0.0308
G1 X123.335 Y93.177 E0.0308
G1 X123.563 Y93.574 E0.0308
G1 X123.733 Y93.998 E0.0308
G1 F2400 E-0.1000
G0 F9000 X115.810 Y95.810
;TYPE:WALL-INNER
;WIDTH:0.540
G1 F2400 E0.1000
G1 F900 X119.810 Y95.810 E0.2694
G1 X119.810 Y114.190 E1.2379
G1 X115.810 Y114.190 E0.2694
G1 X115.810 Y95.810 E1.2379
G1 F2400 E-0.1000
G0 F9000 X115.370 Y95.280
G0 X115.270 Y95.270
;TYPE:WALL-OUTER
;WIDTH:0.540
G1 F2400 E0.1000
G1 F900 X120.350 Y95.270 E0.3421
G1 X120.350 Y114.730 E1.3107
G1 X115.270 Y114.730 E0.3421
G1 X115.270 Y95.270 E1.3107
G0 F3600 X115.470 Y95.270
G1 F2400 E-0.1000
G0 F9000 X115.470 Y95.370
G0 X119.210 Y95.918
;TYPE:SOLID-FILL
;WIDTH:0.540
G1 F2400 E0.1000
G1 F900 X119.701 Y96.409 E0.0468
G1 F2400 E-0.1000
G0 F9000 X119.701 Y97.172
G1 F2400 E0.1000
G1 F900 X118.446 Y95.918 E0.1195
G1 F2400 E-0.1000
G0 F9000 X117.683 Y95.918
G1 F2400 E0.1000
G1 F900 X119.701 Y97.936 E0.1922
G1 F2400 E-0.1000
G0 F9000 X119.701 Y98.700
G1 F2400 E0.1000
G1 F900 X116.919 Y95.918 E0.2650
G1 F2400 E-0.1000
G0 F9000 X116.155 Y95.918
G1 F2400 E0.1000
G1 F900 X119.701 Y99.463 E0.3377
G1 F2400 E-0.1000
G0 F9000 X119.701 Y100.227
G1 F2400 E0.1000
G1 F900 X115.917 Y96.443 E0.3604
G1 F2400 E-0.1000
G0 F9000 X115.917 Y97.207
G1 F2400 E0.1000
G1 F900 X119.701 Y100.991 E0.3604
G1 F2400 E-0.1000
G0 F9000 X119.701 Y101.754
G1 F2400 E0.1000
G1 F900 X115.917 Y97.971 E0.3604
G1 F2400 E-0.1000
G0 F9000 X115.917 Y98.734
G1 F2400 E0.1000
G1 F900 X119.701 Y102.518 E0.3604
G1 F2400 E-0.1000
G0 F9000 X119.701 Y103.282
G1 F2400 E0.1000
G1 F900 X115.917 Y99.498 E0.3604
G1 F2400 E-0.1000
G0 F9000 X115.917 Y100.262
G1 F2400 E0.1000
G1 F900 X119.701 Y104.045 E0.3604
G1 F2400 E-0.1000
G0 F9000 X119.701 Y104.809
G1 F2400 E0.1000
G1 F900 X115.917 Y101.025 E0.3604
G1 F2400 E-0.1000
G0 F9000 X115.917 Y101.789
G1 F2400 E0.1000
G1 F900 X119.701 Y105.573 E0.3604
G1 F2400 E-0.1000
G0 F9000 X119.701 Y106.336
G1 F2400 E0.1000
G1 F900 X115.917 Y102.553 E0.3604
G1 F2400 E-0.1000
G0 F9000 X115.917 Y103.316
G1 F2400 E0.1000
G1 F900 X119.701 Y107.100 E0.3604
G1 F2400 E-0.1000
G0 F9000 X119.701 Y107.864
G1 F2400 E0.1000
G1 F900 X115.917 Y104.080 E0.3604
G1 F2400 E-0.1000
G0 F9000 X115.917 Y104.844
G1 F2400 E0.1000
G1 F900 X119.701 Y108.627 E0.3604
G1 F2400 E-0.1000
G0 F9000 X119.701 Y109.391
G1 F2400 E0.1000
G1 F900 X115.917 Y105.607 E0.3604
G1 F2400 E-0.1000
G0 F9000 X115.917 Y106.371
G1 F2400 E0.1000
G1 F900 X119.701 Y110.155 E0.3604
G1 F2400 E-0.1000
G0 F9000 X119.701 Y110.918
G1 F2400 E0.1000
G1 F900 X115.917 Y107.135 E0.3604
G1 F2400 E-0.1000
G0 F9000 X115.917 Y107.898
G1 F2400 E0.1000
G1 F900 X119.701 Y111.682 E0.3604
G1 F2400 E-0.1000
G0 F9000 X119.701 Y112.446
G1 F2400 E0.1000
G1 F900 X115.917 Y108.662 E0.3604
G1 F2400 E-0.1000
G0 F9000 X115.917 Y109.426
G1 F2400 E0.1000
G1 F900 X119.701 Y113.209 E0.3604
G1 F2400 E-0.1000
G0 F9000 X119.701 Y113.973
G1 F2400 E0.1000
G1 F900 X115.917 Y110.189 E0.3604
G1 F2400 E-0.1000
G0 F9000 X115.917 Y110.953
G1 F2400 E0.1000
G1 F900 X119.045 Y114.081 E0.2979
G1 F2400 E-0.1000
G0 F9000 X118.281 Y114.081
G1 F2400 E0.1000
G1 F900 X115.917 Y111.717 E0.2252
G1 F2400 E-0.1000
G0 F9000 X115.917 Y112.480
G1 F2400 E0.1000
G1 F900 X117.518 Y114.081 E0.1525
G1 F2400 E-0.1000
G0 F9000 X116.754 Y114.081
G1 F2400 E0.1000
G1 F900 X115.917 Y113.244 E0.0797
G1 F2400 E-0.1000
G0 F9000 X130.190 Y95.810
;TYPE:WALL-INNER
;WIDTH:0.540
G1 F2400 E0.1000
G1 F900 X134.190 Y95.810 E0.2694
G1 X134.190 Y114.190 E1.2379
G1 X130.190 Y114.190 E0.2694
G1 X130.190 Y95.810 E1.2379
G1 F2400 E-0.1000
G0 F9000 X129.750 Y95.280
G0 X129.650 Y95.270
;TYPE:WALL-OUTER
;WIDTH:0.540
G1 F2400 E0.1000
G1 F900 X134.730 Y95.270 E0.3421
G1 X134.730 Y114.730 E1.3107
G1 X129.650 Y114.730 E0.3421
G1 X129.650 Y95.270 E1.3107
G0 F3600 X129.850 Y95.270
G1 F2400 E-0.1000
G0 F9000 X129.850 Y95.370
G0 X133.719 Y95.917
;TYPE:SOLID-FILL
;WIDTH:0.540
G1 F2400 E0.1000
G1 F900 X134.081 Y96.279 E0.0345
G1 F2400 E-0.1000
G0 F9000 X134.081 Y97.043
G1 F2400 E0.1000
G1 F900 X132.955 Y95.917 E0.1073
G1 F2400 E-0.1000
G0 F9000 X132.192 Y95.917
G1 F2400 E0.1000
G1 F900 X134.081 Y97.807 E0.1800
G1 F2400 E-0.1000
G0 F9000 X134.081 Y98.570
G1 F2400 E0.1000
G1 F900 X131.428 Y95.917 E0.2527
G1 F2400 E-0.1000
G0 F9000 X130.664 Y95.917
G1 F2400 E0.1000
G1 F900 X134.081 Y99.334 E0.3255
G1 F2400 E-0.1000
G0 F9000 X134.081 Y100.098
G1 F2400 E0.1000
G1 F900 X130.297 Y96.313 E0.3605
G1 F2400 E-0.1000
G0 F9000 X130.297 Y97.077
G1 F2400 E0.1000
G1 F900 X134.081 Y100.861 E0.3604
G1 F2400 E-0.1000
G0 F9000 X134.081 Y101.625
G1 F2400 E0.1000
G1 F900 X130.297 Y97.840 E0.3605
G1 F2400 E-0.1000
G0 F9000 X130.297 Y98.604
G1 F2400 E0.1000
G1 F900 X134.081 Y102.389 E0.3605
G1 F2400 E-0.1000
G0 F9000 X134.081 Y103.152
G1 F2400 E0.1000
G1 F900 X130.297 Y99.368 E0.3604
G1 F2400 E-0.1000
G0 F9000 X130.297 Y100.131
G1 F2400 E0.1000
G1 F900 X134.081 Y103.916 E0.3605
G1 F2400 E-0.1000
G0 F9000 X134.081 Y104.680
G1 F2400 E0.1000
G1 F900 X130.297 Y100.895 E0.3605
G1 F2400 E-0.1000
G0 F9000 X130.297 Y101.659
G1 F2400 E0.1000
G1 F900 X134.081 Y105.443 E0.3604
G1 F2400 E-0.1000
G0 F9000 X134.081 Y106.207
G1 F2400 E0.1000
G1 F900 X130.297 Y102.423 E0.3604
G1 F2400 E-0.1000
G0 F9000 X130.297 Y103.186
G1 F2400 E0.1000
G1 F900 X134.081 Y106.971 E0.3605
G1 F2400 E-0.1000
G0 F9000 X134.081 Y107.734
G1 F2400 E0.1000
G1 F900 X130.297 Y103.950 E0.3604
G1 F2400 E-0.1000
G0 F9000 X130.297 Y104.714
G1 F2400 E0.1000
G1 F900 X134.081 Y108.498 E0.3604
G1 F2400 E-0.1000
G0 F9000 X134.081 Y109.262
G1 F2400 E0.1000
G1 F900 X130.297 Y105.477 E0.3605
G1 F2400 E-0.1000
G0 F9000 X130.297 Y106.241
G1 F2400 E0.1000
G1 F900 X134.081 Y110.025 E0.3604
G1 F2400 E-0.1000
G0 F9000 X134.081 Y110.789
G1 F2400 E0.1000
G1 F900 X130.297 Y107.005 E0.3604
G1 F2400 E-0.1000
G0 F9000 X130.297 Y107.768
G1 F2400 E0.1000
G1 F900 X134.081 Y111.553 E0.3605
G1 F2400 E-0.1000
G0 F9000 X134.081 Y112.316
G1 F2400 E0.1000
G1 F900 X130.297 Y108.532 E0.3604
G1 F2400 E-0.1000
G0 F9000 X130.297 Y109.296
G1 F2400 E0.1000
G1 F900 X134.081 Y113.080 E0.3604
G1 F2400 E-0.1000
G0 F9000 X134.081 Y113.844
G1 F2400 E0.1000
G1 F900 X130.297 Y110.059 E0.3605
G1 F2400 E-0.1000
G0 F9000 X130.297 Y110.823
G1 F2400 E0.1000
G1 F900 X133.555 Y114.081 E0.3103
G1 F2400 E-0.1000
G0 F9000 X132.791 Y114.081
G1 F2400 E0.1000
G1 F900 X130.297 Y111.587 E0.2376
G1 F2400 E-0.1000
G0 F9000 X130.297 Y112.350
G1 F2400 E0.1000
G1 F900 X132.028 Y114.081 E0.1649
G1 F2400 E-0.1000
G0 F9000 X131.264 Y114.081
G1 F2400 E0.1000
G1 F900 X130.297 Y113.114 E0.0921
G1 F2400 E-0.1000
G0 F9000 X130.297 Y113.878
G1 F2400 E0.1000
G1 F900 X130.500 Y114.081 E0.0193
;LAYER:1
;Z:0.500
;HEIGHT:0.200
M106 S255
G1 F2400 E-0.1000
G0 F900 Z0.500
G0 F9000 X129.855 Y95.675
;TYPE:WALL-INNER
;WIDTH:0.450
G1 F2400 E0.1000
G1 F1425 X134.325 Y95.675 E0.1673
G1 X134.325 Y114.325 E0.6978
G1 X129.855 Y114.325 E0.1673
G1 X129.855 Y95.675 E0.6978
G1 F2400 E-0.1000
G0 F9000 X129.505 Y95.235
G0 X129.405 Y95.225
;TYPE:WALL-OUTER
;WIDTH:0.450
G1 F2400 E0.1000
G1 F1425 X134.775 Y95.225 E0.2009
G1 X134.775 Y114.775 E0.7315
G1 X129.405 Y114.775 E0.2009
G1 X129.405 Y95.225 E0.7315
G0 F3600 X129.605 Y95.225
G1 F2400 E-0.1000
G0 F9000 X129.605 Y95.325
G0 X130.188 Y96.049
;TYPE:SOLID-FILL
;WIDTH:0.450
G1 F2400 E0.1000
G1 F1350 X130.066 Y96.490 E0.0129
G1 X130.066 Y97.126 E0.0129
G1 X130.066 Y97.763 E0.0129
G1 X130.066 Y98.399 E0.0129
G1 X130.066 Y99.035 E0.0129
G1 X130.066 Y99.672 E0.0129
G1 X130.066 Y100.308 E0.0129
G1 X130.066 Y100.945 E0.0129
G1 X130.066 Y101.581 E0.0129
G1 X130.066 Y102.217 E0.0129
G1 X130.066 Y102.854 E0.0129
G1 X130.066 Y103.490 E0.0129
G1 X130.066 Y104.126 E0.0129
G1 X130.066 Y104.763 E0.0129
G1 X130.066 Y105.399 E0.0129
G1 X130.066 Y106.036 E0.0129
G1 X130.066 Y106.672 E0.0129
G1 X130.066 Y107.308 E0.0129
G1 X130.066 Y107.945 E0.0129
G1 X130.066 Y108.581 E0.0129
G1 X130.066 Y109.218 E0.0129
G1 X130.066 Y109.854 E0.0129
G1 X130.066 Y110.490 E0.0129
G1 X130.066 Y111.127 E0.0129
G1 X130.066 Y111.763 E0.0129
G1 X130.066 Y112.400 E0.0129
G1 X130.066 Y113.036 E0.0129
G1 X130.066 Y113.672 E0.0129
G1 X129.944 Y114.113 E0.0171
G1 F2400 E-0.1000
G0 F9000 X133.592 Y113.965
;TYPE:SOLID-FILL
;WIDTH:0.450
G1 F2400 E0.1000
G1 F1575 X133.964 Y113.593 E0.0197
G1 X133.964 Y112.957 E0.0238
G1 X132.956 Y113.965 E0.0533
G1 X132.320 Y113.965 E0.0238
G1 X133.964 Y112.321 E0.0870
G1 X133.964 Y111.684 E0.0238
G1 X131.683 Y113.965 E0.1207
G1 X131.047 Y113.965 E0.0238
G1 X133.964 Y111.048 E0.1544
G1 X133.964 Y110.411 E0.0238
G1 X130.414 Y113.961 E0.1879
G1 X130.414 Y113.325 E0.0238
G1 X133.964 Y109.775 E0.1879
G1 X133.964 Y109.139 E0.0238
G1 X130.414 Y112.688 E0.1878
G1 X130.414 Y112.052 E0.0238
G1 X133.964 Y108.502 E0.1879
G1 X133.964 Y107.866 E0.0238
G1 X130.414 Y111.415 E0.1878
G1 X130.414 Y110.779 E0.0238
G1 X133.964 Y107.229 E0.1879
G1 X133.964 Y106.593 E0.0238
G1 X130.414 Y110.143 E0.1879
G1 X130.414 Y109.506 E0.0238
G1 X133.964 Y105.957 E0.1878
G1 X133.964 Y105.320 E0.0238
G1 X130.414 Y108.870 E0.1879
G1 X130.414 Y108.234 E0.0238
G1 X133.964 Y104.684 E0.1879
G1 X133.964 Y104.047 E0.0238
G1 X130.414 Y107.597 E0.1879
G1 X130.414 Y106.961 E0.0238
G1 X133.964 Y103.411 E0.1879
G1 X133.964 Y102.775 E0.0238
G1 X130.414 Y106.324 E0.1878
G1 X130.414 Y105.688 E0.0238
G1 X133.964 Y102.138 E0.1879
G1 X133.964 Y101.502 E0.0238
G1 X130.414 Y105.052 E0.1879
G1 X130.414 Y104.415 E0.0238
G1 X133.964 Y100.865 E0.1879
G1 X133.964 Y100.229 E0.0238
G1 X130.414 Y103.779 E0.1879
G1 X130.414 Y103.142 E0.0238
G1 X133.964 Y99.593 E0.1878
G1 X133.964 Y98.956 E0.0238
G1 X130.414 Y102.506 E0.1879
G1 X130.414 Y101.870 E0.0238
G1 X133.964 Y98.320 E0.1879
G1 X133.964 Y97.683 E0.0238
G1 X130.414 Y101.233 E0.1879
G1 X130.414 Y100.597 E0.0238
G1 X133.964 Y97.047 E0.1879
G1 X133.964 Y96.411 E0.0238
G1 X130.414 Y99.960 E0.1878
G1 X130.414 Y99.324 E0.0238
G1 X133.703 Y96.035 E0.1740
G1 X133.067 Y96.035 E0.0238
G1 X130.414 Y98.688 E0.1404
G1 X130.414 Y98.051 E0.0238
G1 X132.431 Y96.035 E0.1067
G1 X131.794 Y96.035 E0.0238
G1 X130.414 Y97.415 E0.0730
G1 X130.414 Y96.778 E0.0238
G1 X131.158 Y96.035 E0.0393
G1 X130.522 Y96.035 E0.0238
G1 X130.414 Y96.142 E0.0057
G1 F2400 E-0.1000
G0 F9000 X133.751 Y114.124
;TYPE:SOLID-FILL
;WIDTH:0.450
G1 F2400 E0.1000
G1 F1425 X133.686 Y114.189 E0.0034
G1 F2400 E-0.1000
G0 F9000 X115.675 Y95.675
;TYPE:WALL-INNER
;WIDTH:0.450
G1 F2400 E0.1000
G1 F1425 X120.145 Y95.675 E0.1673
G1 X120.145 Y114.325 E0.6978
G1 X115.675 Y114.325 E0.1673
G1 X115.675 Y95.675 E0.6978
G1 F2400 E-0.1000
G0 F9000 X115.325 Y95.235
G0 X115.225 Y95.225
;TYPE:WALL-OUTER
;WIDTH:0.450
G1 F2400 E0.1000
G1 F1425 X120.595 Y95.225 E0.2009
G1 X120.595 Y114.775 E0.7315
G1 X115.225 Y114.775 E0.2009
G1 X115.225 Y95.225 E0.7315
G0 F3600 X115.425 Y95.225
G1 F2400 E-0.1000
G0 F9000 X115.425 Y95.325
G0 X115.836 Y95.764
;TYPE:SOLID-FILL
;WIDTH:0.450
G1 F2400 E0.1000
G1 F1350 X115.764 Y95.837 E0.0038
G1 F2400 E-0.1000
G0 F9000 X119.809 Y96.247
G1 F2400 E0.1000
G1 F1350 X120.054 Y96.320 E0.0130
G1 X119.931 Y97.079 E0.0129
G1 X119.931 Y97.715 E0.0129
G1 X119.931 Y98.352 E0.0129
G1 X119.931 Y98.988 E0.0129
G1 X119.931 Y99.624 E0.0129
G1 X119.931 Y100.261 E0.0129
G1 X119.931 Y100.897 E0.0129
G1 X119.931 Y101.534 E0.0129
G1 X119.931 Y102.170 E0.0129
G1 X119.931 Y102.806 E0.0129
G1 X119.931 Y103.443 E0.0129
G1 X119.931 Y104.079 E0.0129
G1 X119.931 Y104.716 E0.0129
G1 X119.931 Y105.352 E0.0129
G1 X119.931 Y105.988 E0.0129
G1 X119.931 Y106.625 E0.0129
G1 X119.931 Y107.261 E0.0129
G1 X119.931 Y107.897 E0.0129
G1 X119.931 Y108.534 E0.0129
G1 X119.931 Y109.170 E0.0129
G1 X119.931 Y109.807 E0.0129
G1 X119.931 Y110.443 E0.0129
G1 X119.931 Y111.079 E0.0129
G1 X119.931 Y111.716 E0.0129
G1 X119.931 Y112.352 E0.0129
G1 X119.931 Y112.989 E0.0129
G1 X119.931 Y113.625 E0.0129
G1 X119.809 Y114.066 E0.0171
G1 F2400 E-0.1000
G0 F9000 X119.583 Y113.337
;TYPE:SOLID-FILL
;WIDTH:0.450
G1 F2400 E0.1000
G1 F1575 X118.955 Y113.965 E0.0332
G1 X118.319 Y113.965 E0.0238
G1 X119.583 Y112.700 E0.0669
G1 X119.583 Y112.064 E0.0238
G1 X117.683 Y113.965 E0.1006
G1 X117.046 Y113.965 E0.0238
G1 X119.583 Y111.428 E0.1342
G1 X119.583 Y110.791 E0.0238
G1 X116.410 Y113.965 E0.1679
G1 X116.034 Y113.965 E0.0141
G1 X116.034 Y113.704 E0.0098
G1 X119.583 Y110.155 E0.1878
G1 X119.583 Y109.518 E0.0238
G1 X116.034 Y113.067 E0.1878
G1 X116.034 Y112.431 E0.0238
G1 X119.583 Y108.882 E0.1878
G1 X119.583 Y108.246 E0.0238
G1 X116.034 Y111.794 E0.1878
G1 X116.034 Y111.158 E0.0238
G1 X119.583 Y107.609 E0.1878
G1 X119.583 Y106.973 E0.0238
G1 X116.034 Y110.522 E0.1878
