;Sliced by ideaMaker 3.5.3.4250, 2020-08-29 00:41:58 UTC+0200
;Dimension: 250.000 210.000 200.000 0.400
;Plate Shape: 0
;Extruder Offset #1: 25.000 0.000
;Filament Diameter #1: 1.750
;Filament Diameter #2: 1.750
;Filament Compensation #1: 98.00
;Filament Compensation #2: 98.00
;Filament Density #1: 1300.00
;Filament Density #2: 1300.00
;Bounding Box: 25.546 39.231 33.361 47.043 0.000 4.700
;Model Gap: 0.000
M221 T0 S98.00
M140 S65.00
M104 T0 S212.00
M109 T0 S212.00
T0
M190 S65.00
M572 D0 S0.05
M572 D1 S0.05
G21
G90
M82
M107
G28
G1 Z0 F500
G92 E0
G1 Z0.2 F400
G1 X60 Y-2 E5 F600
G1 X140 Y-2 E12 F500
G1 Z5 E15 F200
G92 E0
G1 F9000.0
M117 Printing...
;end of Start GCode
M83
;LAYER:0
;Z:0.300
;HEIGHT:0.300
M106 S79
G1 F2400 E-0.1000
G0 F9000 X27.886 Y35.048
G0 F900 Z0.300
;TYPE:SKIRT
;WIDTH:0.540
G1 F2400 E0.1000
G1 F867 X28.373 Y34.660 E0.0419
G1 X28.932 Y34.293 E0.0450
G1 X29.648 Y33.925 E0.0542
G1 X30.226 Y33.708 E0.0416
G1 X30.838 Y33.536 E0.0428
G1 X31.588 Y33.406 E0.0513
G1 X32.200 Y33.361 E0.0413
G1 X32.850 Y33.373 E0.0438
G1 X33.543 Y33.456 E0.0470
G1 X34.225 Y33.609 E0.0471
G1 X34.846 Y33.815 E0.0441
G1 X35.526 Y34.119 E0.0502
G1 X36.048 Y34.419 E0.0406
G1 X36.671 Y34.863 E0.0515
G1 X37.121 Y35.260 E0.0404
G1 X37.593 Y35.759 E0.0463
G1 X37.986 Y36.264 E0.0431
G1 X38.348 Y36.829 E0.0452
G1 X38.699 Y37.541 E0.0535
G1 X38.918 Y38.153 E0.0438
G1 X39.079 Y38.767 E0.0428
G1 X39.196 Y39.508 E0.0505
G1 X39.231 Y40.124 E0.0416
G1 X39.207 Y40.786 E0.0446
G1 X39.108 Y41.491 E0.0479
G1 X38.927 Y42.219 E0.0505
G1 X38.724 Y42.785 E0.0405
G1 X38.404 Y43.462 E0.0504
G1 X38.102 Y43.965 E0.0395
G1 X37.661 Y44.562 E0.0500
G1 X37.257 Y45.008 E0.0405
G1 X36.738 Y45.482 E0.0473
G1 X36.211 Y45.875 E0.0443
G1 X35.552 Y46.268 E0.0517
G1 X35.010 Y46.520 E0.0403
G1 X34.389 Y46.747 E0.0445
G1 X33.692 Y46.921 E0.0484
G1 X33.052 Y47.009 E0.0435
G1 X32.392 Y47.043 E0.0445
G1 X31.853 Y47.025 E0.0363
G1 X30.934 Y46.891 E0.0626
G1 X30.363 Y46.735 E0.0399
G1 X29.737 Y46.507 E0.0449
G1 X29.076 Y46.193 E0.0493
G1 X28.469 Y45.813 E0.0482
G1 X28.008 Y45.456 E0.0393
G1 X27.543 Y45.030 E0.0425
G1 X27.122 Y44.572 E0.0419
G1 X26.845 Y44.216 E0.0304
G1 X26.497 Y43.691 E0.0424
G1 X26.297 Y43.319 E0.0284
G1 X26.053 Y42.784 E0.0396
G1 X25.872 Y42.301 E0.0347
G1 X25.706 Y41.689 E0.0427
G1 X25.639 Y41.342 E0.0238
G1 X25.577 Y40.869 E0.0321
G1 X25.546 Y40.363 E0.0341
G1 X25.562 Y39.750 E0.0413
G1 X25.626 Y39.163 E0.0398
G1 X25.785 Y38.410 E0.0518
G1 X25.973 Y37.828 E0.0412
G1 X26.266 Y37.147 E0.0499
G1 X26.542 Y36.647 E0.0385
G1 X26.906 Y36.102 E0.0441
G1 X27.429 Y35.478 E0.0548
G1 X27.886 Y35.048 E0.0423
G0 F9000 X28.224 Y35.469
G1 F867 X28.672 Y35.110 E0.0387
G1 X29.181 Y34.772 E0.0412
G1 X29.838 Y34.431 E0.0499
G1 X30.416 Y34.214 E0.0416
G1 X30.933 Y34.068 E0.0362
G1 X31.629 Y33.944 E0.0476
G1 X32.190 Y33.901 E0.0379
G1 X32.840 Y33.913 E0.0438
G1 X33.425 Y33.983 E0.0397
G1 X34.107 Y34.136 E0.0471
G1 X34.627 Y34.309 E0.0369
G1 X35.259 Y34.589 E0.0466
G1 X35.736 Y34.860 E0.0369
G1 X36.316 Y35.270 E0.0478
G1 X36.729 Y35.631 E0.0369
G1 X37.201 Y36.130 E0.0463
G1 X37.533 Y36.557 E0.0364
G1 X37.865 Y37.070 E0.0412
G1 X38.191 Y37.723 E0.0492
G1 X38.410 Y38.335 E0.0438
G1 X38.546 Y38.853 E0.0361
G1 X38.657 Y39.541 E0.0469
G1 X38.691 Y40.104 E0.0380
G1 X38.667 Y40.766 E0.0446
G1 X38.584 Y41.362 E0.0405
G1 X38.418 Y42.039 E0.0469
G1 X38.235 Y42.556 E0.0369
G1 X37.940 Y43.186 E0.0469
G1 X37.667 Y43.646 E0.0360
G1 X37.260 Y44.201 E0.0464
G1 X36.893 Y44.609 E0.0370
G1 X36.374 Y45.083 E0.0473
G1 X35.933 Y45.412 E0.0371
G1 X35.322 Y45.779 E0.0480
G1 X34.822 Y46.014 E0.0372
G1 X34.258 Y46.223 E0.0405
G1 X33.561 Y46.397 E0.0484
G1 X32.981 Y46.474 E0.0394
G1 X32.410 Y46.503 E0.0385
G1 X31.871 Y46.485 E0.0363
G1 X31.076 Y46.370 E0.0541
G1 X30.505 Y46.214 E0.0399
G1 X29.966 Y46.018 E0.0386
G1 X29.361 Y45.734 E0.0450
G1 X28.800 Y45.386 E0.0445
G1 X28.339 Y45.029 E0.0393
G1 X27.909 Y44.633 E0.0394
G1 X27.547 Y44.239 E0.0360
G1 X27.294 Y43.916 E0.0276
G1 X26.973 Y43.435 E0.0389
G1 X26.773 Y43.063 E0.0284
G1 X26.558 Y42.592 E0.0349
G1 X26.393 Y42.159 E0.0312
G1 X26.236 Y41.584 E0.0401
G1 X26.174 Y41.272 E0.0214
G1 X26.112 Y40.799 E0.0321
G1 X26.086 Y40.375 E0.0286
G1 X26.099 Y39.806 E0.0383
G1 X26.155 Y39.273 E0.0361
G1 X26.300 Y38.574 E0.0481
G1 X26.470 Y38.040 E0.0377
G1 X26.740 Y37.406 E0.0464
G1 X26.993 Y36.944 E0.0355
G1 X27.321 Y36.447 E0.0401
G1 X27.801 Y35.870 E0.0506
G1 X28.224 Y35.469 E0.0393
G0 F9000 X28.596 Y35.861
G1 F867 X28.973 Y35.558 E0.0326
G1 X29.432 Y35.250 E0.0372
G1 X30.029 Y34.936 E0.0454
G1 X30.566 Y34.733 E0.0387
G1 X31.030 Y34.599 E0.0325
G1 X31.673 Y34.482 E0.0440
G1 X32.180 Y34.441 E0.0343
G1 X32.830 Y34.453 E0.0438
G1 X33.309 Y34.510 E0.0325
G1 X33.939 Y34.649 E0.0435
G1 X34.410 Y34.803 E0.0334
G1 X34.995 Y35.060 E0.0430
G1 X35.426 Y35.302 E0.0333
G1 X35.963 Y35.679 E0.0442
G1 X36.338 Y36.003 E0.0334
G1 X36.776 Y36.463 E0.0428
G1 X37.081 Y36.853 E0.0333
G1 X37.383 Y37.314 E0.0371
G1 X37.683 Y37.906 E0.0447
G1 X37.888 Y38.475 E0.0407
G1 X38.013 Y38.941 E0.0325
G1 X38.118 Y39.576 E0.0433
G1 X38.151 Y40.084 E0.0343
G1 X38.127 Y40.746 E0.0446
G1 X38.059 Y41.235 E0.0333
G1 X37.908 Y41.861 E0.0434
G1 X37.745 Y42.329 E0.0334
G1 X37.475 Y42.912 E0.0433
G1 X37.230 Y43.328 E0.0325
G1 X36.856 Y43.842 E0.0428
G1 X36.527 Y44.212 E0.0333
G1 X36.049 Y44.652 E0.0438
G1 X35.653 Y44.950 E0.0334
G1 X35.090 Y45.291 E0.0443
G1 X34.631 Y45.509 E0.0342
G1 X34.125 Y45.700 E0.0364
G1 X33.490 Y45.862 E0.0441
G1 X32.910 Y45.939 E0.0394
G1 X32.428 Y45.963 E0.0325
G1 X31.889 Y45.945 E0.0363
G1 X31.218 Y45.849 E0.0457
G1 X30.647 Y45.693 E0.0399
G1 X30.193 Y45.528 E0.0325
G1 X29.646 Y45.275 E0.0406
G1 X29.085 Y44.927 E0.0445
G1 X28.672 Y44.604 E0.0353
G1 X28.307 Y44.268 E0.0334
G1 X27.945 Y43.874 E0.0360
G1 X27.742 Y43.614 E0.0222
G1 X27.449 Y43.179 E0.0353
G1 X27.249 Y42.807 E0.0284
G1 X27.049 Y42.368 E0.0325
G1 X26.898 Y41.968 E0.0288
G1 X26.766 Y41.479 E0.0341
G1 X26.704 Y41.167 E0.0214
G1 X26.647 Y40.729 E0.0297
G1 X26.626 Y40.385 E0.0232
G1 X26.636 Y39.860 E0.0354
G1 X26.684 Y39.381 E0.0324
G1 X26.816 Y38.735 E0.0444
G1 X26.967 Y38.250 E0.0342
G1 X27.215 Y37.663 E0.0429
G1 X27.445 Y37.239 E0.0325
G1 X27.738 Y36.790 E0.0361
G1 X28.173 Y36.262 E0.0461
G1 X28.596 Y35.861 E0.0393
G1 F2400 E-0.1000
G0 F9000 X30.827 Y38.610
;TYPE:WALL-OUTER
;WIDTH:0.540
G1 F2400 E0.1000
G1 F867 X31.173 Y38.332 E0.0299
G1 X31.564 Y38.130 E0.0296
G1 X31.986 Y38.008 E0.0296
G1 X32.439 Y37.971 E0.0306
G1 X32.865 Y38.022 E0.0289
G1 X33.285 Y38.159 E0.0298
G1 X33.669 Y38.375 E0.0297
G1 X34.004 Y38.664 E0.0298
G1 X34.278 Y39.015 E0.0300
G1 X34.474 Y39.409 E0.0296
G1 X34.587 Y39.832 E0.0295
G1 X34.617 Y40.286 E0.0306
G1 X34.556 Y40.721 E0.0296
G1 X34.411 Y41.139 E0.0298
G1 X34.193 Y41.509 E0.0289
G1 X33.899 Y41.839 E0.0298
G1 X33.546 Y42.105 E0.0298
G1 X33.132 Y42.302 E0.0309
G1 X32.862 Y42.379 E0.0189
G1 X32.717 Y42.404 E0.0099
G1 X32.274 Y42.426 E0.0299
G1 X31.982 Y42.392 E0.0198
G1 X31.840 Y42.360 E0.0098
G1 X31.419 Y42.207 E0.0302
G1 X31.289 Y42.140 E0.0099
G1 X31.054 Y41.985 E0.0190
G1 X30.721 Y41.678 E0.0305
G1 X30.541 Y41.447 E0.0197
G1 X30.463 Y41.323 E0.0099
G1 X30.278 Y40.916 E0.0301
G1 X30.179 Y40.495 E0.0291
G1 X30.161 Y40.191 E0.0205
G1 X30.204 Y39.761 E0.0291
G1 X30.339 Y39.328 E0.0305
G1 X30.546 Y38.946 E0.0293
G1 X30.827 Y38.610 E0.0295
G0 F3600 X30.983 Y38.485
G1 F2400 E-0.1000
G0 F9000 X31.106 Y38.979
G1 F2400 E0.1000
G1 F867 X30.846 Y39.331 E0.0295
G1 X30.720 Y39.610 E0.0206
G1 X30.644 Y39.901 E0.0203
G1 X30.619 Y40.221 E0.0216
G1 X30.674 Y40.641 E0.0285
G1 X30.777 Y40.935 E0.0210
G1 X31.007 Y41.308 E0.0295
G1 X31.223 Y41.534 E0.0211
G1 X31.587 Y41.779 E0.0296
G1 X31.871 Y41.893 E0.0206
G1 X32.179 Y41.958 E0.0212
G1 X32.485 Y41.969 E0.0206
G1 X32.904 Y41.895 E0.0287
G1 X33.187 Y41.781 E0.0205
G1 X33.442 Y41.624 E0.0202
G1 X33.672 Y41.422 E0.0206
G1 X33.933 Y41.069 E0.0296
G1 X34.059 Y40.790 E0.0206
G1 X34.135 Y40.498 E0.0203
G1 X34.160 Y40.179 E0.0216
G1 X34.102 Y39.744 E0.0296
G1 X33.994 Y39.450 E0.0211
G1 X33.762 Y39.081 E0.0294
G1 X33.555 Y38.866 E0.0201
G1 X33.192 Y38.621 E0.0295
G1 X32.908 Y38.507 E0.0206
G1 X32.600 Y38.442 E0.0212
G1 X32.299 Y38.431 E0.0203
G1 X32.001 Y38.473 E0.0203
G1 X31.709 Y38.564 E0.0206
G1 X31.329 Y38.781 E0.0295
G1 X31.106 Y38.979 E0.0201
G0 F3600 X30.988 Y39.140
;LAYER:1
;Z:0.500
;HEIGHT:0.200
M106 S128
G1 F2400 E-0.1000
G0 F900 Z0.500
G0 F9000 X30.988 Y39.140
G0 X30.875 Y38.640
G0 X30.806 Y38.568
;TYPE:WALL-OUTER
;WIDTH:0.450
G1 F2400 E0.1000
G1 F600 X31.148 Y38.294 E0.0164
G1 X31.560 Y38.082 E0.0173
G1 X31.981 Y37.962 E0.0164
G1 X32.444 Y37.926 E0.0174
G1 X32.897 Y37.983 E0.0171
G1 X33.325 Y38.128 E0.0169
G1 X33.695 Y38.338 E0.0159
G1 X34.039 Y38.635 E0.0170
G1 X34.232 Y38.865 E0.0112
G1 X34.323 Y39.002 E0.0062
G1 X34.515 Y39.390 E0.0162
G1 X34.632 Y39.825 E0.0169
G1 X34.662 Y40.276 E0.0169
G1 X34.602 Y40.725 E0.0169
G1 X34.450 Y41.163 E0.0173
G1 X34.229 Y41.536 E0.0162
G1 X33.930 Y41.873 E0.0169
G1 X33.570 Y42.144 E0.0169
G1 X33.163 Y42.338 E0.0169
G1 X32.727 Y42.448 E0.0168
G1 X32.272 Y42.471 E0.0170
G1 X31.975 Y42.437 E0.0112
G1 X31.815 Y42.400 E0.0061
G1 X31.408 Y42.251 E0.0162
G1 X31.023 Y42.017 E0.0169
G1 X30.691 Y41.712 E0.0169
G1 X30.426 Y41.348 E0.0168
G1 X30.236 Y40.932 E0.0171
G1 X30.135 Y40.501 E0.0166
G1 X30.116 Y40.178 E0.0121
G1 X30.160 Y39.752 E0.0160
G1 X30.294 Y39.318 E0.0170
G1 X30.518 Y38.907 E0.0175
G1 X30.806 Y38.568 E0.0166
G0 F3600 X30.962 Y38.443
G1 F2400 E-0.1000
G0 F9000 X31.139 Y39.009
G1 F2400 E0.1000
G1 F600 X30.885 Y39.354 E0.0160
G1 X30.762 Y39.625 E0.0111
G1 X30.688 Y39.909 E0.0110
G1 X30.665 Y40.235 E0.0122
G1 X30.718 Y40.631 E0.0149
G1 X30.818 Y40.915 E0.0113
G1 X31.043 Y41.280 E0.0160
G1 X31.250 Y41.497 E0.0112
G1 X31.513 Y41.686 E0.0121
G1 X31.880 Y41.849 E0.0150
G1 X32.170 Y41.912 E0.0111
G1 X32.463 Y41.925 E0.0110
G1 X32.754 Y41.887 E0.0110
G1 X33.064 Y41.788 E0.0122
G1 X33.412 Y41.590 E0.0150
G1 X33.639 Y41.391 E0.0113
G1 X33.894 Y41.046 E0.0161
G1 X34.017 Y40.775 E0.0111
G1 X34.091 Y40.491 E0.0110
G1 X34.115 Y40.199 E0.0110
G1 X34.085 Y39.875 E0.0122
G1 X33.964 Y39.492 E0.0150
G1 X33.817 Y39.229 E0.0113
G1 X33.530 Y38.904 E0.0162
G1 X33.171 Y38.661 E0.0162
G1 X32.895 Y38.550 E0.0111
G1 X32.609 Y38.488 E0.0110
G1 X32.315 Y38.475 E0.0110
G1 X31.996 Y38.520 E0.0121
G1 X31.715 Y38.612 E0.0111
G1 X31.366 Y38.810 E0.0150
G1 X31.139 Y39.009 E0.0113
G0 F3600 X31.021 Y39.170
G1 F2400 E-0.1000
G0 F9000 X30.941 Y39.110
G0 X32.035 Y38.286
;TYPE:SOLID-FILL
;WIDTH:0.450
G1 F2400 E0.1000
G1 F600 X32.415 Y38.223 E0.0059
G1 X32.970 Y38.305 E0.0043
G1 X33.411 Y38.500 E0.0040
G1 X33.804 Y38.744 E0.0037
G1 X34.053 Y39.131 E0.0038
G1 X34.263 Y39.557 E0.0035
G1 X34.365 Y40.091 E0.0038
G1 X34.207 Y40.886 E0.0055
G1 X33.071 Y42.022 E0.0318
G1 X32.287 Y42.170 E0.0054
G1 X31.747 Y42.073 E0.0046
G1 X31.317 Y41.867 E0.0041
G1 X30.936 Y41.612 E0.0036
G1 X30.692 Y41.219 E0.0033
G1 X30.493 Y40.781 E0.0034
G1 X30.418 Y40.221 E0.0046
G1 X30.469 Y39.851 E0.0140
;LAYER:2
;Z:0.700
;HEIGHT:0.200
G1 F2400 E-0.1000
G0 F900 Z0.700
G0 F9000 X30.469 Y39.851
G0 X31.205 Y38.376
G0 X31.152 Y38.291
;TYPE:WALL-OUTER
;WIDTH:0.450
G1 F2400 E0.1000
G1 F600 X31.541 Y38.090 E0.0164
G1 X31.982 Y37.962 E0.0172
G1 X32.456 Y37.926 E0.0178
G1 X32.910 Y37.986 E0.0171
G1 X33.302 Y38.118 E0.0155
G1 X33.695 Y38.338 E0.0169
G1 X34.036 Y38.633 E0.0169
G1 X34.314 Y38.988 E0.0169
G1 X34.515 Y39.390 E0.0168
G1 X34.632 Y39.825 E0.0169
G1 X34.662 Y40.276 E0.0169
G1 X34.603 Y40.721 E0.0168
G1 X34.456 Y41.148 E0.0169
G1 X34.229 Y41.536 E0.0168
G1 X33.930 Y41.873 E0.0169
G1 X33.570 Y42.144 E0.0169
G1 X33.163 Y42.338 E0.0169
G1 X32.727 Y42.448 E0.0168
G1 X32.272 Y42.471 E0.0170
G1 X31.975 Y42.437 E0.0112
G1 X31.803 Y42.397 E0.0066
G1 X31.408 Y42.251 E0.0158
G1 X31.023 Y42.017 E0.0169
G1 X30.691 Y41.712 E0.0169
G1 X30.426 Y41.348 E0.0168
G1 X30.236 Y40.933 E0.0171
G1 X30.135 Y40.502 E0.0166
G1 X30.117 Y40.166 E0.0126
G1 X30.160 Y39.748 E0.0157
G1 X30.304 Y39.294 E0.0178
G1 X30.506 Y38.925 E0.0157
G1 X30.795 Y38.579 E0.0169
G1 X31.152 Y38.291 E0.0172
G0 F3600 X31.330 Y38.200
G1 F2400 E-0.1000
G0 F9000 X31.327 Y38.255
G0 X31.292 Y38.741
G0 X31.365 Y38.810
G1 F2400 E0.1000
G1 F600 X31.139 Y39.009 E0.0113
G1 X30.885 Y39.354 E0.0160
G1 X30.762 Y39.625 E0.0111
G1 X30.688 Y39.910 E0.0110
G1 X30.665 Y40.249 E0.0127
G1 X30.718 Y40.631 E0.0144
G1 X30.818 Y40.915 E0.0113
G1 X31.043 Y41.280 E0.0160
G1 X31.252 Y41.499 E0.0113
G1 X31.608 Y41.739 E0.0161
G1 X31.884 Y41.850 E0.0111
G1 X32.170 Y41.912 E0.0110
G1 X32.463 Y41.925 E0.0110
G1 X32.754 Y41.886 E0.0110
G1 X33.078 Y41.783 E0.0127
G1 X33.413 Y41.590 E0.0145
G1 X33.639 Y41.391 E0.0113
G1 X33.894 Y41.046 E0.0161
G1 X34.017 Y40.775 E0.0111
G1 X34.091 Y40.491 E0.0110
G1 X34.115 Y40.198 E0.0110
G1 X34.082 Y39.861 E0.0127
G1 X33.963 Y39.492 E0.0145
G1 X33.817 Y39.229 E0.0113
G1 X33.530 Y38.904 E0.0162
G1 X33.171 Y38.661 E0.0162
G1 X32.895 Y38.550 E0.0111
G1 X32.609 Y38.488 E0.0110
G1 X32.316 Y38.475 E0.0110
G1 X32.024 Y38.514 E0.0110
G1 X31.702 Y38.617 E0.0126
G1 X31.365 Y38.810 E0.0145
G0 F3600 X31.215 Y38.942
G1 F2400 E-0.1000
G0 F9000 X31.090 Y38.800
G0 X30.533 Y39.661
G0 X30.527 Y41.027
;TYPE:SOLID-FILL
;WIDTH:0.450
G1 F2400 E0.1000
G1 F600 X31.042 Y41.543 E0.0133
G1 X31.923 Y42.105 E0.0138
G1 X32.616 Y42.163 E0.0051
G1 X33.124 Y42.033 E0.0040
G1 X33.539 Y41.812 E0.0039
G1 X33.910 Y41.547 E0.0037
G1 X34.132 Y41.132 E0.0040
G1 X34.310 Y40.674 E0.0038
G1 X34.359 Y40.087 E0.0045
G1 X34.255 Y39.665 E0.0163
G1 F2400 E-0.1000
G0 F9000 X34.088 Y39.408
G0 X32.913 Y38.323
G1 F2400 E0.1000
G1 F600 X32.500 Y38.227 E0.0067
G1 X31.913 Y38.278 E0.0045
G1 X31.449 Y38.450 E0.0042
G1 X31.044 Y38.680 E0.0035
G1 X30.775 Y39.048 E0.0034
G1 X30.550 Y39.460 E0.0036
G1 X30.423 Y39.969 E0.0041
G1 X30.446 Y40.310 E0.0128
;LAYER:3
;Z:0.900
;HEIGHT:0.200
G1 F2400 E-0.1000
G0 F900 Z0.900
G0 F9000 X30.446 Y40.310
G0 X31.205 Y38.376
G0 X31.152 Y38.291
;TYPE:WALL-OUTER
;WIDTH:0.450
G1 F2400 E0.1000
G1 F600 X31.541 Y38.090 E0.0164
G1 X31.978 Y37.963 E0.0170
G1 X32.427 Y37.926 E0.0169
G1 X32.875 Y37.978 E0.0169
G1 X33.303 Y38.118 E0.0168
G1 X33.695 Y38.338 E0.0168
G1 X34.036 Y38.633 E0.0169
G1 X34.314 Y38.988 E0.0169
G1 X34.515 Y39.390 E0.0168
G1 X34.632 Y39.825 E0.0169
G1 X34.662 Y40.276 E0.0169
G1 X34.603 Y40.721 E0.0168
G1 X34.456 Y41.148 E0.0169
G1 X34.229 Y41.536 E0.0168
G1 X33.930 Y41.873 E0.0169
G1 X33.570 Y42.144 E0.0169
G1 X33.163 Y42.338 E0.0169
G1 X32.727 Y42.448 E0.0168
G1 X32.276 Y42.471 E0.0169
G1 X31.832 Y42.404 E0.0168
G1 X31.408 Y42.251 E0.0169
G1 X31.023 Y42.017 E0.0169
G1 X30.691 Y41.712 E0.0169
G1 X30.426 Y41.348 E0.0168
G1 X30.236 Y40.932 E0.0171
G1 X30.135 Y40.502 E0.0165
G1 X30.117 Y40.153 E0.0131
G1 X30.159 Y39.753 E0.0150
G1 X30.293 Y39.321 E0.0169
G1 X30.506 Y38.925 E0.0168
G1 X30.795 Y38.579 E0.0169
G1 X31.152 Y38.291 E0.0172
G0 F3600 X31.330 Y38.200
G1 F2400 E-0.1000
G0 F9000 X31.327 Y38.255
G0 X31.292 Y38.741
G0 X31.365 Y38.810
G1 F2400 E0.1000
G1 F600 X31.139 Y39.009 E0.0113
G1 X30.885 Y39.354 E0.0160
G1 X30.762 Y39.625 E0.0111
G1 X30.688 Y39.910 E0.0110
G1 X30.666 Y40.264 E0.0133
G1 X30.718 Y40.632 E0.0139
G1 X30.818 Y40.915 E0.0112
G1 X31.043 Y41.280 E0.0160
G1 X31.252 Y41.499 E0.0113
G1 X31.608 Y41.739 E0.0161
G1 X31.884 Y41.850 E0.0111
G1 X32.170 Y41.912 E0.0110
G1 X32.467 Y41.925 E0.0111
G1 X32.891 Y41.852 E0.0161
G1 X33.167 Y41.741 E0.0111
G1 X33.417 Y41.586 E0.0110
G1 X33.676 Y41.348 E0.0132
G1 X33.895 Y41.044 E0.0140
G1 X34.019 Y40.771 E0.0112
G1 X34.109 Y40.351 E0.0161
G1 X34.109 Y40.049 E0.0113
G1 X34.019 Y39.629 E0.0161
G1 X33.896 Y39.357 E0.0112
G1 X33.731 Y39.116 E0.0109
G1 X33.526 Y38.901 E0.0111
G1 X33.171 Y38.661 E0.0160
G1 X32.895 Y38.550 E0.0111
G1 X32.609 Y38.488 E0.0110
G1 X32.316 Y38.475 E0.0110
G1 X32.023 Y38.514 E0.0111
G1 X31.689 Y38.624 E0.0132
G1 X31.365 Y38.810 E0.0140
G0 F3600 X31.215 Y38.942
G1 F2400 E-0.1000
G0 F9000 X31.090 Y38.800
G0 X32.036 Y38.284
;TYPE:SOLID-FILL
;WIDTH:0.450
G1 F2400 E0.1000
G1 F600 X32.415 Y38.223 E0.0058
G1 X32.971 Y38.304 E0.0044
G1 X33.410 Y38.501 E0.0040
