;Sliced by ideaMaker 3.5.3.4250, 2020-08-28 22:30:17 UTC+0200
;Dimension: 250.000 210.000 200.000 0.400
;Plate Shape: 0
;Extruder Offset #1: 25.000 0.000
;Filament Diameter #1: 1.750
;Filament Diameter #2: 1.750
;Filament Compensation #1: 98.00
;Filament Compensation #2: 98.00
;Filament Density #1: 1300.00
;Filament Density #2: 1300.00
;Bounding Box: 119.650 130.350 99.650 110.350 0.000 2.100
;Model Gap: 0.000
M221 T0 S98.00
M140 S65.00
M104 T0 S212.00
M109 T0 S212.00
T0
M190 S65.00
M572 D0 S0.05
M572 D1 S0.05
G21
G90
M82
M107
G28
G1 Z0 F500
G92 E0
G1 Z0.2 F400
G1 X60 Y-2 E5 F600
G1 X140 Y-2 E12 F500
G1 Z5 E15 F200
G92 E0
G1 F9000.0
M117 Printing...
;end of Start GCode
M83
;LAYER:0
;Z:0.300
;HEIGHT:0.300
M106 S110
G1 F2400 E-0.1000
G0 F9000 X120.624 Y101.258
G0 F900 Z0.300
;TYPE:SKIRT
;WIDTH:0.540
G1 F2400 E0.1000
G1 F617 X121.157 Y100.710 E0.0515
G1 X121.639 Y100.349 E0.0406
G1 X122.036 Y100.121 E0.0308
G1 X122.746 Y99.837 E0.0515
G1 X123.351 Y99.702 E0.0417
G1 X124.001 Y99.650 E0.0439
G1 X125.551 Y99.652 E0.1044
G1 X126.285 Y99.724 E0.0497
G1 X126.979 Y99.886 E0.0480
G1 X127.857 Y100.269 E0.0645
G1 X128.437 Y100.645 E0.0466
G1 X128.947 Y101.102 E0.0461
G1 X129.579 Y101.885 E0.0678
G1 X129.987 Y102.672 E0.0597
G1 X130.182 Y103.245 E0.0408
G1 X130.296 Y103.824 E0.0397
G1 X130.350 Y104.500 E0.0457
G1 X130.347 Y106.082 E0.1066
G1 X130.294 Y106.680 E0.0404
G1 X130.199 Y107.127 E0.0308
G1 X129.972 Y107.768 E0.0458
G1 X129.726 Y108.240 E0.0358
G1 X129.274 Y108.862 E0.0518
G1 X128.843 Y109.290 E0.0409
G1 X128.419 Y109.613 E0.0359
G1 X127.828 Y109.945 E0.0457
G1 X127.331 Y110.139 E0.0359
G1 X126.732 Y110.285 E0.0415
G1 X126.000 Y110.350 E0.0495
G1 X123.918 Y110.347 E0.1402
G1 X123.320 Y110.294 E0.0404
G1 X122.873 Y110.199 E0.0308
G1 X122.232 Y109.972 E0.0458
G1 X121.760 Y109.726 E0.0358
G1 X121.138 Y109.274 E0.0518
G1 X120.710 Y108.843 E0.0409
G1 X120.387 Y108.419 E0.0359
G1 X120.055 Y107.828 E0.0457
G1 X119.861 Y107.331 E0.0359
G1 X119.715 Y106.732 E0.0415
G1 X119.650 Y106.000 E0.0495
G1 X119.653 Y103.918 E0.1402
G1 X119.706 Y103.320 E0.0404
G1 X119.801 Y102.873 E0.0308
G1 X120.064 Y102.155 E0.0515
G1 X120.355 Y101.628 E0.0405
G1 X120.624 Y101.258 E0.0308
G0 F9000 X121.061 Y101.576
G1 F617 X121.484 Y101.140 E0.0409
G1 X121.908 Y100.817 E0.0359
G1 X122.305 Y100.589 E0.0308
G1 X122.869 Y100.363 E0.0409
G1 X123.396 Y100.240 E0.0364
G1 X124.000 Y100.190 E0.0408
G1 X125.550 Y100.192 E0.1044
G1 X126.230 Y100.261 E0.0460
G1 X126.853 Y100.411 E0.0432
G1 X127.563 Y100.722 E0.0522
G1 X128.143 Y101.098 E0.0466
G1 X128.582 Y101.500 E0.0401
G1 X129.101 Y102.137 E0.0553
G1 X129.477 Y102.851 E0.0543
G1 X129.653 Y103.353 E0.0358
G1 X129.758 Y103.868 E0.0354
G1 X129.810 Y104.500 E0.0427
G1 X129.809 Y106.038 E0.1036
G1 X129.766 Y106.568 E0.0358
G1 X129.671 Y107.015 E0.0308
G1 X129.493 Y107.518 E0.0359
G1 X129.247 Y107.990 E0.0358
G1 X128.890 Y108.482 E0.0409
G1 X128.516 Y108.860 E0.0358
G1 X128.092 Y109.183 E0.0359
G1 X127.627 Y109.444 E0.0359
G1 X127.203 Y109.614 E0.0308
G1 X126.604 Y109.760 E0.0415
G1 X126.000 Y109.810 E0.0408
G1 X123.962 Y109.809 E0.1373
G1 X123.432 Y109.766 E0.0358
G1 X122.985 Y109.671 E0.0308
G1 X122.482 Y109.493 E0.0359
G1 X122.010 Y109.247 E0.0358
G1 X121.518 Y108.890 E0.0409
G1 X121.140 Y108.516 E0.0358
G1 X120.817 Y108.092 E0.0359
G1 X120.556 Y107.627 E0.0359
G1 X120.386 Y107.203 E0.0308
G1 X120.240 Y106.604 E0.0415
G1 X120.190 Y106.000 E0.0408
G1 X120.191 Y103.962 E0.1373
G1 X120.234 Y103.432 E0.0358
G1 X120.329 Y102.985 E0.0308
G1 X120.538 Y102.413 E0.0410
G1 X120.792 Y101.946 E0.0358
G1 X121.061 Y101.576 E0.0308
G0 F9000 X121.498 Y101.894
G1 F617 X121.816 Y101.566 E0.0308
G1 X122.177 Y101.285 E0.0308
G1 X122.574 Y101.057 E0.0308
G1 X122.998 Y100.887 E0.0308
G1 X123.442 Y100.778 E0.0308
G1 X124.000 Y100.730 E0.0377
G1 X125.500 Y100.730 E0.1010
G1 X126.104 Y100.786 E0.0409
G1 X126.727 Y100.936 E0.0432
G1 X127.275 Y101.179 E0.0404
G1 X127.778 Y101.496 E0.0400
G1 X128.217 Y101.898 E0.0401
G1 X128.625 Y102.392 E0.0432
G1 X128.969 Y103.035 E0.0491
G1 X129.125 Y103.465 E0.0308
G1 X129.220 Y103.914 E0.0309
G1 X129.270 Y104.500 E0.0396
G1 X129.270 Y106.000 E0.1010
G1 X129.238 Y106.456 E0.0308
G1 X129.143 Y106.903 E0.0308
G1 X128.986 Y107.333 E0.0308
G1 X128.771 Y107.736 E0.0308
G1 X128.502 Y108.106 E0.0308
G1 X128.184 Y108.434 E0.0308
G1 X127.823 Y108.715 E0.0308
G1 X127.426 Y108.943 E0.0308
G1 X127.002 Y109.113 E0.0308
G1 X126.558 Y109.222 E0.0308
G1 X126.000 Y109.270 E0.0377
G1 X124.000 Y109.270 E0.1347
G1 X123.544 Y109.238 E0.0308
G1 X123.097 Y109.143 E0.0308
G1 X122.667 Y108.986 E0.0308
G1 X122.264 Y108.771 E0.0308
G1 X121.894 Y108.502 E0.0308
G1 X121.566 Y108.184 E0.0308
G1 X121.285 Y107.823 E0.0308
G1 X121.057 Y107.426 E0.0308
G1 X120.887 Y107.002 E0.0308
G1 X120.778 Y106.558 E0.0308
G1 X120.730 Y106.000 E0.0377
G1 X120.730 Y104.000 E0.1347
G1 X120.762 Y103.544 E0.0308
G1 X120.857 Y103.097 E0.0308
G1 X121.014 Y102.667 E0.0308
G1 X121.229 Y102.264 E0.0308
G1 X121.498 Y101.894 E0.0308
G1 F2400 E-0.1000
G0 F9000 X124.270 Y104.270
;TYPE:WALL-OUTER
;WIDTH:0.540
G1 F2400 E0.1000
G1 F617 X125.475 Y104.270 E0.0812
G1 X125.588 Y104.291 E0.0077
G1 X125.696 Y104.387 E0.0097
G1 X125.730 Y104.519 E0.0092
G1 X125.730 Y105.730 E0.0816
G1 X124.270 Y105.730 E0.0983
G1 X124.270 Y104.270 E0.0983
G0 F3600 X124.470 Y104.270
G0 F9000 X124.777 Y104.540
;TYPE:SOLID-FILL
;WIDTH:0.540
G1 F617 X125.196 Y105.341 E0.0649
G1 X124.539 Y105.065 E0.0480
;LAYER:1
;Z:0.500
;HEIGHT:0.200
M106 S128
G1 F2400 E-0.1000
G0 F900 Z0.500
G0 F9000 X124.675 Y104.675
;TYPE:WALL-INNER
;WIDTH:0.450
G1 F2400 E0.1000
G1 F600 X125.325 Y104.675 E0.0243
G1 X125.325 Y105.325 E0.0243
G1 X124.675 Y105.325 E0.0243
G1 X124.675 Y104.675 E0.0243
G1 F2400 E-0.1000
G0 F9000 X124.325 Y104.235
G0 X124.225 Y104.225
;TYPE:WALL-OUTER
;WIDTH:0.450
G1 F2400 E0.1000
G1 F600 X125.479 Y104.225 E0.0469
G1 X125.603 Y104.248 E0.0047
G1 X125.659 Y104.280 E0.0024
G1 X125.734 Y104.362 E0.0042
G1 X125.775 Y104.516 E0.0060
G1 X125.775 Y105.775 E0.0471
G1 X124.225 Y105.775 E0.0580
G1 X124.225 Y104.225 E0.0580
G0 F3600 X124.425 Y104.225
G1 F2400 E-0.1000
G0 F9000 X124.425 Y104.325
G0 X125.125 Y105.125
;LAYER:2
;Z:0.700
;HEIGHT:0.200
G0 F900 Z0.700
G0 F9000 X124.675 Y104.675
;TYPE:WALL-INNER
;WIDTH:0.450
G1 F2400 E0.1000
G1 F600 X125.316 Y104.675 E0.0240
G1 X125.320 Y105.325 E0.0243
G1 X124.675 Y105.325 E0.0241
G1 X124.675 Y104.675 E0.0243
G1 F2400 E-0.1000
G0 F9000 X124.325 Y104.235
G0 X124.225 Y104.225
;TYPE:WALL-OUTER
;WIDTH:0.450
G1 F2400 E0.1000
G1 F600 X125.480 Y104.225 E0.0470
G1 X125.592 Y104.245 E0.0043
G1 X125.678 Y104.296 E0.0037
G1 X125.743 Y104.379 E0.0039
G1 X125.764 Y104.438 E0.0023
G1 X125.773 Y105.775 E0.0500
G1 X124.225 Y105.775 E0.0579
G1 X124.225 Y104.225 E0.0580
G0 F3600 X124.425 Y104.225
G1 F2400 E-0.1000
G0 F9000 X124.425 Y104.325
G0 X125.125 Y105.125
;LAYER:3
;Z:0.900
;HEIGHT:0.200
G0 F900 Z0.900
G0 F9000 X124.675 Y104.675
;TYPE:WALL-INNER
;WIDTH:0.450
G1 F2400 E0.1000
G1 F600 X125.325 Y104.675 E0.0243
G1 X125.325 Y105.325 E0.0243
G1 X124.675 Y105.325 E0.0243
G1 X124.675 Y104.675 E0.0243
G1 F2400 E-0.1000
G0 F9000 X124.325 Y104.235
G0 X124.225 Y104.225
;TYPE:WALL-OUTER
;WIDTH:0.450
G1 F2400 E0.1000
G1 F600 X125.479 Y104.225 E0.0469
G1 X125.603 Y104.248 E0.0047
G1 X125.659 Y104.280 E0.0024
G1 X125.734 Y104.362 E0.0042
G1 X125.775 Y104.516 E0.0060
G1 X125.775 Y105.775 E0.0471
G1 X124.225 Y105.775 E0.0580
G1 X124.225 Y104.225 E0.0580
G0 F3600 X124.425 Y104.225
G1 F2400 E-0.1000
G0 F9000 X124.425 Y104.325
G0 X125.125 Y105.125
;LAYER:4
;Z:1.100
;HEIGHT:0.200
G0 F900 Z1.100
G0 F9000 X124.675 Y104.675
;TYPE:WALL-INNER
;WIDTH:0.450
G1 F2400 E0.1000
G1 F600 X125.325 Y104.675 E0.0243
G1 X125.325 Y105.325 E0.0243
G1 X124.675 Y105.325 E0.0243
G1 X124.675 Y104.675 E0.0243
G1 F2400 E-0.1000
G0 F9000 X124.325 Y104.235
G0 X124.225 Y104.225
;TYPE:WALL-OUTER
;WIDTH:0.450
G1 F2400 E0.1000
G1 F600 X125.479 Y104.225 E0.0469
G1 X125.602 Y104.248 E0.0047
G1 X125.669 Y104.287 E0.0029
G1 X125.733 Y104.360 E0.0036
G1 X125.775 Y104.516 E0.0060
G1 X125.775 Y105.775 E0.0471
G1 X124.225 Y105.775 E0.0580
G1 X124.225 Y104.225 E0.0580
G0 F3600 X124.425 Y104.225
G1 F2400 E-0.1000
G0 F9000 X124.425 Y104.325
G0 X125.125 Y105.125
;LAYER:5
;Z:1.300
;HEIGHT:0.200
G0 F900 Z1.300
G0 F9000 X124.675 Y104.675
;TYPE:WALL-INNER
;WIDTH:0.450
G1 F2400 E0.1000
G1 F600 X125.325 Y104.675 E0.0243
G1 X125.325 Y105.325 E0.0243
G1 X124.675 Y105.325 E0.0243
G1 X124.675 Y104.675 E0.0243
G1 F2400 E-0.1000
G0 F9000 X124.325 Y104.235
G0 X124.225 Y104.225
;TYPE:WALL-OUTER
;WIDTH:0.450
G1 F2400 E0.1000
G1 F600 X125.479 Y104.225 E0.0469
G1 X125.603 Y104.248 E0.0047
G1 X125.659 Y104.280 E0.0024
G1 X125.734 Y104.362 E0.0042
G1 X125.775 Y104.516 E0.0060
G1 X125.775 Y105.775 E0.0471
G1 X124.225 Y105.775 E0.0580
G1 X124.225 Y104.225 E0.0580
G0 F3600 X124.425 Y104.225
G1 F2400 E-0.1000
G0 F9000 X124.425 Y104.325
G0 X125.125 Y105.125
;LAYER:6
;Z:1.500
;HEIGHT:0.200
G0 F900 Z1.500
G0 F9000 X124.675 Y104.675
;TYPE:WALL-INNER
;WIDTH:0.450
G1 F2400 E0.1000
G1 F600 X125.324 Y104.675 E0.0243
G1 X125.325 Y105.325 E0.0243
G1 X124.675 Y105.325 E0.0243
G1 X124.675 Y104.675 E0.0243
G1 F2400 E-0.1000
G0 F9000 X124.325 Y104.235
G0 X124.225 Y104.225
;TYPE:WALL-OUTER
;WIDTH:0.450
G1 F2400 E0.1000
G1 F600 X125.480 Y104.225 E0.0470
G1 X125.594 Y104.246 E0.0043
G1 X125.684 Y104.300 E0.0039
G1 X125.729 Y104.353 E0.0026
G1 X125.761 Y104.422 E0.0028
G1 X125.774 Y104.510 E0.0033
G1 X125.775 Y105.775 E0.0473
G1 X124.225 Y105.775 E0.0580
G1 X124.225 Y104.225 E0.0580
G0 F3600 X124.425 Y104.225
G1 F2400 E-0.1000
G0 F9000 X124.425 Y104.325
G0 X125.125 Y105.125
;LAYER:7
;Z:1.700
;HEIGHT:0.200
G0 F900 Z1.700
G0 F9000 X124.675 Y104.693
;TYPE:WALL-INNER
;WIDTH:0.450
G1 F2400 E0.1000
G1 F600 X125.315 Y104.692 E0.0239
G1 X125.315 Y105.325 E0.0237
G1 X124.675 Y105.325 E0.0239
G1 X124.675 Y104.693 E0.0236
G1 F2400 E-0.1000
G0 F9000 X124.325 Y104.254
G0 X124.225 Y104.244
;TYPE:WALL-OUTER
;WIDTH:0.450
G1 F2400 E0.1000
G1 F600 X125.545 Y104.242 E0.0494
G1 X125.604 Y104.259 E0.0023
G1 X125.676 Y104.306 E0.0032
G1 X125.728 Y104.371 E0.0031
G1 X125.765 Y104.515 E0.0056
G1 X125.765 Y105.775 E0.0471
G1 X124.225 Y105.775 E0.0576
G1 X124.225 Y104.244 E0.0573
G0 F3600 X124.425 Y104.244
G1 F2400 E-0.1000
G0 F9000 X124.459 Y104.287
G0 X125.215 Y105.234
;LAYER:8
;Z:1.900
;HEIGHT:0.200
G0 F900 Z1.900
G0 F9000 X124.675 Y104.775
;TYPE:WALL-INNER
;WIDTH:0.450
G1 F2400 E0.1000
G1 F600 X125.225 Y104.776 E0.0206
G1 X125.225 Y105.325 E0.0205
G1 X124.675 Y105.325 E0.0206
G1 X124.675 Y104.775 E0.0206
G1 F2400 E-0.1000
G0 F9000 X124.235 Y104.425
G0 X124.225 Y104.325
;TYPE:WALL-OUTER
;WIDTH:0.450
G1 F2400 E0.1000
G1 F600 X125.498 Y104.326 E0.0476
G1 X125.611 Y104.361 E0.0044
G1 X125.647 Y104.412 E0.0023
G1 X125.675 Y104.527 E0.0044
G1 X125.675 Y105.775 E0.0467
G1 X124.225 Y105.775 E0.0543
G1 X124.225 Y104.325 E0.0543
G0 F3600 X124.425 Y104.325
G1 F2400 E-0.1000
G0 F9000 X124.425 Y104.425
G0 X125.125 Y105.225
;LAYER:9
;Z:2.100
;HEIGHT:0.200
G0 F900 Z2.100
G0 F9000 X125.125 Y105.225
G0 X124.325 Y104.735
G0 X124.225 Y104.725
;TYPE:WALL-OUTER
;WIDTH:0.450
G1 F2400 E0.1000
G1 F600 X125.275 Y104.725 E0.0393
G1 X125.275 Y105.775 E0.0393
G1 X124.225 Y105.775 E0.0393
G1 X124.225 Y104.725 E0.0393
G0 F3600 X124.425 Y104.725
G1 F2400 E-0.1000
G0 F9000 X124.425 Y104.825
G0 X125.049 Y105.008
;TYPE:SOLID-FILL
;WIDTH:0.450
G1 F2400 E0.1000
G1 F600 X124.507 Y105.549 E0.0287
M106 S0
G1 F2400 E-0.1000
M82
G0 F900 Z7.100
G0 F9000 X124.507 Y105.549
M221 T0 S100
G92 E0
;End GCode
M104 T0 S0
M221 T0 S100
M104 S0
M140 S0
M107
G91
G1 E-1 F300
G1 Z+0.5 E-5 Y-20 F9000.00
G28 X0 U0
M84
G90
;Data start:121204:c4835488687f114bba332406974bbf73
;/p1U1KexTD/i09gQ==
;Data end
;Recover start:29
;G21
;G90
;G28 X0 Y0
;G92 X0 Y0 Z{z}
;M221 T0 S98.00
;M140 S65.00
;M104 T0 S212.00
;M109 T0 S212.00
;T0
;M190 S65.00
;G21
;G90
;M82
;M106 S0
;T0
;G92 E0
;G1 F140 E29
;G1 X20 Y0 F140 E30
;G92 E0
;T{current_extruder}
;M106 S{current_fan_speed}
;G92 E{current_extrusion}
;G0 F6000 X{x} Y{y} Z{z}
;G0 F{current_travel_speed}
;G1 F{current_extrude_speed} E{current_extrusion}
;{current_unit}
;{current_pos_abs}
;{current_extrude_abs}
;M117 Printing...
;Recover end
;Print Time: 21
;Material#1 Used: 9.7
;Material#2 Used: 0.0
;Material#1 Cost: 0.00
;Material#2 Cost: 0.00
