;Sliced by ideaMaker 3.6.1.4415, 2020-10-07 20:20:12 UTC+0200
;Dimension: 250.000 210.000 200.000 0.400
;Plate Shape: 0
;Extruder Offset #1: 25.000 0.000
;Filament Diameter #1: 1.750
;Filament Diameter #2: 1.750
;Filament Compensation #1: 95.00
;Filament Compensation #2: 98.00
;Filament Density #1: 1240.00
;Filament Density #2: 1240.00
;Bounding Box: 102.230 147.770 82.230 127.770 0.000 25.000
;Model Gap: 0.000
M221 T0 S95.00
M140 S85.00
M104 T0 S235.00
M109 T0 S235.00
T0
M190 S85.00
M572 D0 S0.05
M572 D1 S0.05
G21
G90
M82
M107
G28
G1 Z0 F500
G92 E0
G1 Z0.2 F400
G1 X60 Y-2 E5 F600
G1 X140 Y-2 E12 F500
G1 X148 E15 F200
G92 E0
G1 F9000.0
M117 Printing...
;end of Start GCode
M83
;LAYER:0
;Z:0.200
;HEIGHT:0.200
M106 S77
G0 F9000 X104.715 Y85.802
G0 F900 Z0.200
;TYPE:SKIRT
;WIDTH:0.540
G1 X105.268 Y85.209 E0.0364
G1 X105.865 Y84.661 E0.0364
G1 X106.504 Y84.162 E0.0364
G1 X107.180 Y83.715 E0.0364
G1 X107.890 Y83.323 E0.0364
G1 X108.628 Y82.988 E0.0364
G1 X109.390 Y82.712 E0.0364
G1 X110.172 Y82.497 E0.0364
G1 X110.968 Y82.345 E0.0364
G1 X111.773 Y82.256 E0.0364
G1 X112.500 Y82.230 E0.0327
G1 X137.500 Y82.230 E1.1225
G1 X138.310 Y82.262 E0.0364
G1 X139.115 Y82.358 E0.0364
G1 X139.910 Y82.517 E0.0364
G1 X140.689 Y82.738 E0.0364
G1 X141.449 Y83.020 E0.0364
G1 X142.185 Y83.361 E0.0364
G1 X142.891 Y83.759 E0.0364
G1 X143.564 Y84.211 E0.0364
G1 X144.198 Y84.715 E0.0364
G1 X144.791 Y85.268 E0.0364
G1 X145.339 Y85.865 E0.0364
G1 X145.838 Y86.504 E0.0364
G1 X146.285 Y87.180 E0.0364
G1 X146.677 Y87.890 E0.0364
G1 X147.012 Y88.628 E0.0364
G1 X147.288 Y89.390 E0.0364
G1 X147.503 Y90.172 E0.0364
G1 X147.655 Y90.968 E0.0364
G1 X147.744 Y91.773 E0.0364
G1 X147.770 Y92.500 E0.0327
G1 X147.770 Y117.500 E1.1225
G1 X147.738 Y118.310 E0.0364
G1 X147.642 Y119.115 E0.0364
G1 X147.483 Y119.910 E0.0364
G1 X147.262 Y120.689 E0.0364
G1 X146.980 Y121.449 E0.0364
G1 X146.639 Y122.185 E0.0364
G1 X146.241 Y122.891 E0.0364
G1 X145.789 Y123.564 E0.0364
G1 X145.285 Y124.198 E0.0364
G1 X144.732 Y124.791 E0.0364
G1 X144.135 Y125.339 E0.0364
G1 X143.496 Y125.838 E0.0364
G1 X142.820 Y126.285 E0.0364
G1 X142.110 Y126.677 E0.0364
G1 X141.372 Y127.012 E0.0364
G1 X140.610 Y127.288 E0.0364
G1 X139.828 Y127.503 E0.0364
G1 X139.032 Y127.655 E0.0364
G1 X138.227 Y127.744 E0.0364
G1 X137.500 Y127.770 E0.0327
G1 X112.500 Y127.770 E1.1225
G1 X111.690 Y127.738 E0.0364
G1 X110.885 Y127.642 E0.0364
G1 X110.090 Y127.483 E0.0364
G1 X109.311 Y127.262 E0.0364
G1 X108.551 Y126.980 E0.0364
G1 X107.815 Y126.639 E0.0364
G1 X107.109 Y126.241 E0.0364
G1 X106.436 Y125.789 E0.0364
G1 X105.802 Y125.285 E0.0364
G1 X105.209 Y124.732 E0.0364
G1 X104.661 Y124.135 E0.0364
G1 X104.162 Y123.496 E0.0364
G1 X103.715 Y122.820 E0.0364
G1 X103.323 Y122.110 E0.0364
G1 X102.988 Y121.372 E0.0364
G1 X102.712 Y120.610 E0.0364
G1 X102.497 Y119.828 E0.0364
G1 X102.345 Y119.032 E0.0364
G1 X102.256 Y118.227 E0.0364
G1 X102.230 Y117.500 E0.0327
G1 X102.230 Y92.500 E1.1225
G1 X102.262 Y91.690 E0.0364
G1 X102.358 Y90.885 E0.0364
G1 X102.517 Y90.090 E0.0364
G1 X102.738 Y89.311 E0.0364
G1 X103.020 Y88.551 E0.0364
G1 X103.361 Y87.815 E0.0364
G1 X103.759 Y87.109 E0.0364
G1 X104.211 Y86.436 E0.0364
G1 X104.715 Y85.802 E0.0364
G0 F9000 X113.310 Y93.310
;TYPE:WALL-INNER
;WIDTH:0.540
G1 F900 X136.690 Y93.310 E1.0498
G1 X136.690 Y116.690 E1.0498
G1 X113.310 Y116.690 E1.0498
G1 X113.310 Y93.310 E1.0498
G0 F9000 X112.870 Y92.780
G0 X112.770 Y92.770
;TYPE:WALL-OUTER
;WIDTH:0.540
G1 F900 X137.230 Y92.770 E1.0983
G1 X137.230 Y117.230 E1.0983
G1 X112.770 Y117.230 E1.0983
G1 X112.770 Y92.770 E1.0983
G0 F9000 X112.870 Y92.780
G0 X113.687 Y115.978
;TYPE:SOLID-FILL
;WIDTH:0.540
G1 F900 X114.020 Y116.311 E0.0211
G1 X114.783 Y116.311 E0.0343
G1 X113.687 Y115.214 E0.0696
G1 X113.687 Y114.450 E0.0343
G1 X115.547 Y116.311 E0.1181
G1 X116.311 Y116.311 E0.0343
G1 X113.687 Y113.687 E0.1666
G1 X113.687 Y112.923 E0.0343
G1 X117.074 Y116.311 E0.2151
G1 X117.838 Y116.311 E0.0343
G1 X113.687 Y112.159 E0.2636
G1 X113.687 Y111.396 E0.0343
G1 X118.602 Y116.311 E0.3121
G1 X119.365 Y116.311 E0.0343
G1 X113.687 Y110.632 E0.3606
G1 X113.687 Y109.868 E0.0343
G1 X120.129 Y116.311 E0.4091
G1 X120.893 Y116.311 E0.0343
G1 X113.687 Y109.105 E0.4576
G1 X113.687 Y108.341 E0.0343
G1 X121.657 Y116.311 E0.5061
G1 X122.420 Y116.311 E0.0343
G1 X113.687 Y107.577 E0.5546
G1 X113.687 Y106.814 E0.0343
G1 X123.184 Y116.311 E0.6031
G1 X123.948 Y116.311 E0.0343
G1 X113.687 Y106.050 E0.6516
G1 X113.687 Y105.286 E0.0343
G1 X124.711 Y116.311 E0.7001
G1 X125.475 Y116.311 E0.0343
G1 X113.687 Y104.523 E0.7485
G1 X113.687 Y103.759 E0.0343
G1 X126.239 Y116.311 E0.7971
G1 X127.002 Y116.311 E0.0343
G1 X113.687 Y102.995 E0.8455
G1 X113.687 Y102.232 E0.0343
G1 X127.766 Y116.311 E0.8940
G1 X128.530 Y116.311 E0.0343
G1 X113.687 Y101.468 E0.9425
G1 X113.687 Y100.704 E0.0343
G1 X129.293 Y116.311 E0.9910
G1 X130.057 Y116.311 E0.0343
G1 X113.687 Y99.941 E1.0395
G1 X113.687 Y99.177 E0.0343
G1 X130.821 Y116.311 E1.0880
G1 X131.584 Y116.311 E0.0343
G1 X113.687 Y98.413 E1.1365
G1 X113.687 Y97.650 E0.0343
G1 X132.348 Y116.311 E1.1850
G1 X133.112 Y116.311 E0.0343
G1 X113.687 Y96.886 E1.2335
G1 X113.687 Y96.122 E0.0343
G1 X133.875 Y116.311 E1.2820
G1 X134.639 Y116.311 E0.0343
G1 X113.687 Y95.359 E1.3304
G1 X113.687 Y94.595 E0.0343
G1 X135.403 Y116.311 E1.3790
G1 X136.166 Y116.311 E0.0343
G1 X113.687 Y93.831 E1.4274
G1 X113.687 Y93.687 E0.0065
G1 X114.307 Y93.688 E0.0278
G1 X136.311 Y115.692 E1.3973
G1 X136.311 Y114.928 E0.0343
G1 X115.071 Y93.688 E1.3487
G1 X115.834 Y93.688 E0.0343
G1 X136.311 Y114.165 E1.3003
G1 X136.311 Y113.401 E0.0343
G1 X116.598 Y93.688 E1.2518
G1 X117.362 Y93.688 E0.0343
G1 X136.311 Y112.637 E1.2033
G1 X136.311 Y111.874 E0.0343
G1 X118.125 Y93.688 E1.1548
G1 X118.889 Y93.688 E0.0343
G1 X136.311 Y111.110 E1.1063
G1 X136.311 Y110.346 E0.0343
G1 X119.653 Y93.688 E1.0578
G1 X120.416 Y93.688 E0.0343
G1 X136.311 Y109.583 E1.0093
G1 X136.311 Y108.819 E0.0343
G1 X121.180 Y93.688 E0.9608
G1 X121.944 Y93.688 E0.0343
G1 X136.311 Y108.055 E0.9123
G1 X136.311 Y107.292 E0.0343
G1 X122.707 Y93.688 E0.8639
G1 X123.471 Y93.688 E0.0343
G1 X136.311 Y106.528 E0.8153
G1 X136.311 Y105.764 E0.0343
G1 X124.235 Y93.688 E0.7668
G1 X124.998 Y93.688 E0.0343
G1 X136.311 Y105.001 E0.7184
G1 X136.311 Y104.237 E0.0343
G1 X125.762 Y93.688 E0.6699
G1 X126.526 Y93.688 E0.0343
G1 X136.311 Y103.473 E0.6213
G1 X136.311 Y102.710 E0.0343
G1 X127.289 Y93.688 E0.5729
G1 X128.053 Y93.688 E0.0343
G1 X136.311 Y101.946 E0.5244
G1 X136.311 Y101.182 E0.0343
G1 X128.817 Y93.688 E0.4759
G1 X129.580 Y93.688 E0.0343
G1 X136.311 Y100.419 E0.4274
G1 X136.311 Y99.655 E0.0343
G1 X130.344 Y93.688 E0.3789
G1 X131.108 Y93.688 E0.0343
G1 X136.311 Y98.891 E0.3304
G1 X136.311 Y98.128 E0.0343
G1 X131.871 Y93.688 E0.2819
G1 X132.635 Y93.688 E0.0343
G1 X136.311 Y97.364 E0.2334
G1 X136.311 Y96.600 E0.0343
G1 X133.399 Y93.688 E0.1849
G1 X134.162 Y93.688 E0.0343
G1 X136.311 Y95.837 E0.1365
G1 X136.311 Y95.073 E0.0343
G1 X134.926 Y93.688 E0.0879
G1 X135.690 Y93.688 E0.0343
G1 X136.311 Y94.309 E0.0394
;LAYER:1
;Z:0.400
;HEIGHT:0.200
M106 S255
G0 F900 Z0.400
G0 F9000 X113.175 Y93.175
;TYPE:WALL-INNER
;WIDTH:0.450
G1 F1425 X136.825 Y93.175 E0.8849
G1 X136.825 Y116.825 E0.8849
G1 X113.175 Y116.825 E0.8849
G1 X113.175 Y93.175 E0.8849
G0 F9000 X112.825 Y92.735
G0 X112.725 Y92.725
;TYPE:WALL-OUTER
;WIDTH:0.450
G1 F1425 X137.275 Y92.725 E0.9186
G1 X137.275 Y117.275 E0.9186
G1 X112.725 Y117.275 E0.9186
G1 X112.725 Y92.725 E0.9186
G0 F9000 X112.825 Y92.735
G0 X113.535 Y93.929
;TYPE:SOLID-FILL
;WIDTH:0.450
G1 F1575 X113.930 Y93.534 E0.0209
G1 X114.566 Y93.534 E0.0238
G1 X113.535 Y94.566 E0.0546
G1 X113.535 Y95.202 E0.0238
G1 X115.203 Y93.534 E0.0883
G1 X115.839 Y93.534 E0.0238
G1 X113.535 Y95.839 E0.1219
G1 X113.535 Y96.475 E0.0238
G1 X116.476 Y93.534 E0.1556
G1 X117.112 Y93.534 E0.0238
G1 X113.535 Y97.111 E0.1893
G1 X113.535 Y97.748 E0.0238
G1 X117.748 Y93.534 E0.2230
G1 X118.385 Y93.534 E0.0238
G1 X113.535 Y98.384 E0.2566
G1 X113.535 Y99.021 E0.0238
G1 X119.021 Y93.534 E0.2903
G1 X119.658 Y93.534 E0.0238
G1 X113.535 Y99.657 E0.3240
G1 X113.535 Y100.293 E0.0238
G1 X120.294 Y93.534 E0.3577
G1 X120.930 Y93.534 E0.0238
G1 X113.535 Y100.930 E0.3913
G1 X113.535 Y101.566 E0.0238
G1 X121.567 Y93.534 E0.4250
G1 X122.203 Y93.534 E0.0238
G1 X113.535 Y102.203 E0.4587
G1 X113.535 Y102.839 E0.0238
G1 X122.840 Y93.534 E0.4924
G1 X123.476 Y93.534 E0.0238
G1 X113.535 Y103.475 E0.5260
G1 X113.535 Y104.112 E0.0238
G1 X124.112 Y93.534 E0.5597
G1 X124.749 Y93.534 E0.0238
G1 X113.535 Y104.748 E0.5934
G1 X113.535 Y105.385 E0.0238
G1 X125.385 Y93.534 E0.6271
G1 X126.021 Y93.534 E0.0238
G1 X113.535 Y106.021 E0.6607
G1 X113.535 Y106.657 E0.0238
G1 X126.658 Y93.534 E0.6944
G1 X127.294 Y93.534 E0.0238
G1 X113.535 Y107.294 E0.7281
G1 X113.535 Y107.930 E0.0238
G1 X127.931 Y93.534 E0.7618
G1 X128.567 Y93.534 E0.0238
G1 X113.535 Y108.567 E0.7955
G1 X113.535 Y109.203 E0.0238
G1 X129.203 Y93.534 E0.8291
G1 X129.840 Y93.534 E0.0238
G1 X113.535 Y109.839 E0.8628
G1 X113.535 Y110.476 E0.0238
G1 X130.476 Y93.534 E0.8965
G1 X131.113 Y93.534 E0.0238
G1 X113.535 Y111.112 E0.9302
G1 X113.535 Y111.749 E0.0238
G1 X131.749 Y93.534 E0.9638
G1 X132.385 Y93.534 E0.0238
G1 X113.535 Y112.385 E0.9975
G1 X113.535 Y113.021 E0.0238
G1 X133.022 Y93.534 E1.0312
G1 X133.658 Y93.534 E0.0238
G1 X113.535 Y113.658 E1.0649
G1 X113.535 Y114.294 E0.0238
G1 X134.295 Y93.534 E1.0985
G1 X134.931 Y93.534 E0.0238
G1 X113.535 Y114.931 E1.1322
G1 X113.535 Y115.567 E0.0238
G1 X135.567 Y93.534 E1.1659
G1 X136.204 Y93.534 E0.0238
G1 X113.535 Y116.203 E1.1996
G1 X113.535 Y116.464 E0.0098
G1 X113.910 Y116.464 E0.0140
G1 X136.464 Y93.910 E1.1935
G1 X136.464 Y94.547 E0.0238
G1 X114.547 Y116.464 E1.1598
G1 X115.183 Y116.464 E0.0238
G1 X136.464 Y95.183 E1.1261
G1 X136.464 Y95.820 E0.0238
G1 X115.819 Y116.464 E1.0924
G1 X116.456 Y116.464 E0.0238
G1 X136.464 Y96.456 E1.0588
G1 X136.464 Y97.092 E0.0238
G1 X117.092 Y116.464 E1.0251
G1 X117.729 Y116.464 E0.0238
G1 X136.464 Y97.729 E0.9914
G1 X136.464 Y98.365 E0.0238
G1 X118.365 Y116.464 E0.9577
G1 X119.001 Y116.464 E0.0238
G1 X136.464 Y99.002 E0.9241
G1 X136.464 Y99.638 E0.0238
G1 X119.638 Y116.464 E0.8904
G1 X120.274 Y116.464 E0.0238
G1 X136.464 Y100.274 E0.8567
G1 X136.464 Y100.911 E0.0238
G1 X120.911 Y116.464 E0.8230
G1 X121.547 Y116.464 E0.0238
G1 X136.464 Y101.547 E0.7894
G1 X136.464 Y102.184 E0.0238
G1 X122.183 Y116.464 E0.7557
G1 X122.820 Y116.464 E0.0238
G1 X136.464 Y102.820 E0.7220
G1 X136.464 Y103.456 E0.0238
G1 X123.456 Y116.464 E0.6883
G1 X124.092 Y116.464 E0.0238
G1 X136.464 Y104.093 E0.6547
G1 X136.464 Y104.729 E0.0238
G1 X124.729 Y116.464 E0.6210
G1 X125.365 Y116.464 E0.0238
G1 X136.464 Y105.365 E0.5873
G1 X136.464 Y106.002 E0.0238
G1 X126.002 Y116.464 E0.5536
G1 X126.638 Y116.464 E0.0238
G1 X136.464 Y106.638 E0.5200
G1 X136.464 Y107.275 E0.0238
G1 X127.274 Y116.464 E0.4863
G1 X127.911 Y116.464 E0.0238
G1 X136.464 Y107.911 E0.4526
G1 X136.464 Y108.547 E0.0238
G1 X128.547 Y116.464 E0.4189
G1 X129.184 Y116.464 E0.0238
G1 X136.464 Y109.184 E0.3852
G1 X136.464 Y109.820 E0.0238
G1 X129.820 Y116.464 E0.3516
G1 X130.456 Y116.464 E0.0238
G1 X136.464 Y110.457 E0.3179
G1 X136.464 Y111.093 E0.0238
G1 X131.093 Y116.464 E0.2842
G1 X131.729 Y116.464 E0.0238
G1 X136.464 Y111.729 E0.2506
G1 X136.464 Y112.366 E0.0238
G1 X132.366 Y116.464 E0.2169
G1 X133.002 Y116.464 E0.0238
G1 X136.464 Y113.002 E0.1832
G1 X136.464 Y113.639 E0.0238
G1 X133.638 Y116.464 E0.1495
G1 X134.275 Y116.464 E0.0238
G1 X136.464 Y114.275 E0.1158
G1 X136.464 Y114.911 E0.0238
G1 X134.911 Y116.464 E0.0822
G1 X135.548 Y116.464 E0.0238
G1 X136.464 Y115.548 E0.0485
G1 X136.464 Y116.184 E0.0238
G1 X136.184 Y116.464 E0.0148
;LAYER:2
;Z:0.600
;HEIGHT:0.200
G0 F900 Z0.600
G0 F9000 X113.175 Y93.175
;TYPE:WALL-INNER
;WIDTH:0.450
G1 F1950 X136.825 Y93.175 E0.8849
G1 X136.825 Y116.825 E0.8849
G1 X113.175 Y116.825 E0.8849
G1 X113.175 Y93.175 E0.8849
G0 F9000 X112.825 Y92.735
G0 X112.725 Y92.725
;TYPE:WALL-OUTER
;WIDTH:0.450
G1 F1950 X137.275 Y92.725 E0.9186
G1 X137.275 Y117.275 E0.9186
G1 X112.725 Y117.275 E0.9186
G1 X112.725 Y92.725 E0.9186
G0 F9000 X112.825 Y92.735
G0 X136.509 Y93.871
;TYPE:SOLID-FILL
;WIDTH:0.450
G1 F2250 X136.128 Y93.490 E0.0202
G1 X135.492 Y93.490 E0.0238
G1 X136.509 Y94.507 E0.0538
G1 X136.509 Y95.144 E0.0238
G1 X134.855 Y93.490 E0.0875
G1 X134.219 Y93.490 E0.0238
G1 X136.509 Y95.780 E0.1212
G1 X136.509 Y96.416 E0.0238
G1 X133.583 Y93.490 E0.1548
G1 X132.946 Y93.490 E0.0238
G1 X136.509 Y97.053 E0.1885
G1 X136.509 Y97.689 E0.0238
G1 X132.310 Y93.490 E0.2222
G1 X131.673 Y93.490 E0.0238
G1 X136.509 Y98.326 E0.2559
G1 X136.509 Y98.962 E0.0238
G1 X131.037 Y93.490 E0.2896
G1 X130.401 Y93.490 E0.0238
G1 X136.509 Y99.598 E0.3232
G1 X136.509 Y100.235 E0.0238
G1 X129.764 Y93.490 E0.3569
G1 X129.128 Y93.490 E0.0238
G1 X136.509 Y100.871 E0.3906
G1 X136.509 Y101.508 E0.0238
G1 X128.491 Y93.490 E0.4243
G1 X127.855 Y93.490 E0.0238
G1 X136.509 Y102.144 E0.4579
G1 X136.509 Y102.780 E0.0238
G1 X127.219 Y93.490 E0.4916
G1 X126.582 Y93.490 E0.0238
G1 X136.509 Y103.417 E0.5253
G1 X136.509 Y104.053 E0.0238
G1 X125.946 Y93.490 E0.5590
G1 X125.309 Y93.490 E0.0238
G1 X136.509 Y104.689 E0.5926
G1 X136.509 Y105.326 E0.0238
G1 X124.673 Y93.490 E0.6263
G1 X124.037 Y93.490 E0.0238
G1 X136.509 Y105.962 E0.6600
G1 X136.509 Y106.599 E0.0238
G1 X123.400 Y93.490 E0.6937
G1 X122.764 Y93.490 E0.0238
G1 X136.509 Y107.235 E0.7273
G1 X136.509 Y107.871 E0.0238
G1 X122.127 Y93.490 E0.7610
G1 X121.491 Y93.490 E0.0238
G1 X136.509 Y108.508 E0.7947
G1 X136.509 Y109.144 E0.0238
G1 X120.855 Y93.490 E0.8284
G1 X120.218 Y93.490 E0.0238
G1 X136.509 Y109.781 E0.8621
G1 X136.509 Y110.417 E0.0238
G1 X119.582 Y93.490 E0.8957
G1 X118.945 Y93.490 E0.0238
G1 X136.509 Y111.053 E0.9294
G1 X136.509 Y111.690 E0.0238
G1 X118.309 Y93.490 E0.9631
G1 X117.673 Y93.490 E0.0238
G1 X136.509 Y112.326 E0.9967
G1 X136.509 Y112.963 E0.0238
G1 X117.036 Y93.490 E1.0304
G1 X116.400 Y93.490 E0.0238
G1 X136.509 Y113.599 E1.0641
G1 X136.509 Y114.235 E0.0238
G1 X115.763 Y93.490 E1.0978
G1 X115.127 Y93.490 E0.0238
G1 X136.509 Y114.872 E1.1315
G1 X136.509 Y115.508 E0.0238
G1 X114.491 Y93.490 E1.1651
G1 X113.854 Y93.490 E0.0238
G1 X136.509 Y116.145 E1.1988
G1 X136.509 Y116.509 E0.0136
G1 X136.237 Y116.509 E0.0102
G1 X113.489 Y93.760 E1.2038
G1 X113.489 Y94.397 E0.0238
G1 X135.601 Y116.509 E1.1701
G1 X134.964 Y116.509 E0.0238
G1 X113.489 Y95.033 E1.1364
G1 X113.489 Y95.670 E0.0238
G1 X134.328 Y116.509 E1.1027
G1 X133.691 Y116.509 E0.0238
G1 X113.489 Y96.306 E1.0690
G1 X113.489 Y96.942 E0.0238
G1 X133.055 Y116.509 E1.0354
G1 X132.419 Y116.509 E0.0238
G1 X113.489 Y97.579 E1.0017
G1 X113.489 Y98.215 E0.0238
G1 X131.782 Y116.509 E0.9680
G1 X131.146 Y116.509 E0.0238
G1 X113.489 Y98.852 E0.9343
G1 X113.489 Y99.488 E0.0238
G1 X130.509 Y116.509 E0.9007
G1 X129.873 Y116.509 E0.0238
G1 X113.489 Y100.124 E0.8670
G1 X113.489 Y100.761 E0.0238
G1 X129.237 Y116.509 E0.8333
G1 X128.600 Y116.509 E0.0238
G1 X113.489 Y101.397 E0.7996
G1 X113.489 Y102.034 E0.0238
G1 X127.964 Y116.509 E0.7660
G1 X127.328 Y116.509 E0.0238
G1 X113.489 Y102.670 E0.7323
G1 X113.489 Y103.306 E0.0238
G1 X126.691 Y116.509 E0.6986
G1 X126.055 Y116.509 E0.0238
G1 X113.489 Y103.943 E0.6649
G1 X113.489 Y104.579 E0.0238
G1 X125.418 Y116.509 E0.6313
G1 X124.782 Y116.509 E0.0238
G1 X113.489 Y105.216 E0.5976
G1 X113.489 Y105.852 E0.0238
G1 X124.146 Y116.509 E0.5639
G1 X123.509 Y116.509 E0.0238
G1 X113.489 Y106.488 E0.5303
G1 X113.489 Y107.125 E0.0238
G1 X122.873 Y116.509 E0.4966
G1 X122.236 Y116.509 E0.0238
G1 X113.489 Y107.761 E0.4629
G1 X113.489 Y108.398 E0.0238
G1 X121.600 Y116.509 E0.4292
G1 X120.964 Y116.509 E0.0238
G1 X113.489 Y109.034 E0.3956
G1 X113.489 Y109.670 E0.0238
G1 X120.327 Y116.509 E0.3619
G1 X119.691 Y116.509 E0.0238
G1 X113.489 Y110.307 E0.3282
G1 X113.489 Y110.943 E0.0238
G1 X119.054 Y116.509 E0.2945
G1 X118.418 Y116.509 E0.0238
G1 X113.489 Y111.580 E0.2608
G1 X113.489 Y112.216 E0.0238
G1 X117.782 Y116.509 E0.2272
G1 X117.145 Y116.509 E0.0238
G1 X113.489 Y112.852 E0.1935
