;Sliced by ideaMaker 3.5.3.4250, 2020-07-26 20:24:12 UTC+0200
;Dimension: 250.000 210.000 200.000 0.400
;Plate Shape: 0
;Extruder Offset #1: 25.000 0.000
;Filament Diameter #1: 1.750
;Filament Diameter #2: 1.750
;Filament Compensation #1: 95.00
;Filament Compensation #2: 98.00
;Filament Density #1: 1270.00
;Filament Density #2: 1270.00
;Bounding Box: 61.730 188.270 41.730 168.270 0.000 0.700
;Model Gap: 0.000
M221 T0 S95.00
M140 S85.00
M104 T0 S235.00
M109 T0 S235.00
T0
M190 S85.00
M572 D0 S0.05
M572 D1 S0.05
G21
G90
M82
M107
G28
G1 Z0 F500
G92 E0
G1 Z0.2 F400
G1 X60 Y-2 E5 F600
G1 X140 Y-2 E12 F500
G1 X148 E15 F200
G92 E0
G1 F9000.0
M117 Printing...
;end of Start GCode
M83
;LAYER:0
;Z:0.300
;HEIGHT:0.300
M106 S77
G1 F2400 E-0.1000
G0 F9000 X62.229 Y43.264
G0 F900 Z0.300
;TYPE:SKIRT
;WIDTH:0.540
G1 F2400 E0.1000
G1 F900 X62.498 Y42.894 E0.0308
G1 X62.816 Y42.566 E0.0308
G1 X63.177 Y42.285 E0.0308
G1 X63.574 Y42.057 E0.0308
G1 X63.998 Y41.887 E0.0308
G1 X64.442 Y41.778 E0.0308
G1 X65.000 Y41.730 E0.0377
G1 X185.000 Y41.730 E8.0822
G1 X185.456 Y41.762 E0.0308
G1 X185.903 Y41.857 E0.0308
G1 X186.333 Y42.014 E0.0308
G1 X186.736 Y42.229 E0.0308
G1 X187.106 Y42.498 E0.0308
G1 X187.434 Y42.816 E0.0308
G1 X187.715 Y43.177 E0.0308
G1 X187.943 Y43.574 E0.0308
G1 X188.113 Y43.998 E0.0308
G1 X188.222 Y44.442 E0.0308
G1 X188.270 Y45.000 E0.0377
G1 X188.270 Y165.000 E8.0822
G1 X188.238 Y165.456 E0.0308
G1 X188.143 Y165.903 E0.0308
G1 X187.986 Y166.333 E0.0308
G1 X187.771 Y166.736 E0.0308
G1 X187.502 Y167.106 E0.0308
G1 X187.184 Y167.434 E0.0308
G1 X186.823 Y167.715 E0.0308
G1 X186.426 Y167.943 E0.0308
G1 X186.002 Y168.113 E0.0308
G1 X185.558 Y168.222 E0.0308
G1 X185.000 Y168.270 E0.0377
G1 X65.000 Y168.270 E8.0822
G1 X64.544 Y168.238 E0.0308
G1 X64.097 Y168.143 E0.0308
G1 X63.667 Y167.986 E0.0308
G1 X63.264 Y167.771 E0.0308
G1 X62.894 Y167.502 E0.0308
G1 X62.566 Y167.184 E0.0308
G1 X62.285 Y166.823 E0.0308
G1 X62.057 Y166.426 E0.0308
G1 X61.887 Y166.002 E0.0308
G1 X61.778 Y165.558 E0.0308
G1 X61.730 Y165.000 E0.0377
G1 X61.730 Y45.000 E8.0822
G1 X61.762 Y44.544 E0.0308
G1 X61.857 Y44.097 E0.0308
G1 X62.014 Y43.667 E0.0308
G1 X62.229 Y43.264 E0.0308
G1 F2400 E-0.1000
G0 F9000 X65.270 Y45.270
;TYPE:WALL-OUTER
;WIDTH:0.540
G1 F2400 E0.1000
G1 F900 X184.730 Y45.270 E8.0458
G1 X184.730 Y164.730 E8.0458
G1 X65.270 Y164.730 E8.0458
G1 X65.270 Y45.270 E8.0458
G0 F3600 X65.470 Y45.270
G1 F2400 E-0.1000
G0 F9000 X65.630 Y45.630
G1 F2400 E0.1000
G1 F900 X65.630 Y164.370 E7.9973
G1 X184.370 Y164.370 E7.9973
G1 X184.370 Y45.630 E7.9973
G1 X65.630 Y45.630 E7.9973
G0 F3600 X65.630 Y45.830
;LAYER:1
;Z:0.500
;HEIGHT:0.200
M106 S255
G1 F2400 E-0.1000
G0 F900 Z0.500
G0 F9000 X65.630 Y45.830
G0 X65.325 Y45.235
G0 X65.225 Y45.225
;TYPE:WALL-OUTER
;WIDTH:0.450
G1 F2400 E0.1000
G1 F1425 X184.775 Y45.225 E4.4733
G1 X184.775 Y164.775 E4.4733
G1 X65.225 Y164.775 E4.4733
G1 X65.225 Y45.225 E4.4733
G0 F3600 X65.425 Y45.225
G1 F2400 E-0.1000
G0 F9000 X65.675 Y45.675
G1 F2400 E0.1000
G1 F1425 X65.675 Y164.325 E4.4396
G1 X184.325 Y164.325 E4.4396
G1 X184.325 Y45.675 E4.4396
G1 X65.675 Y45.675 E4.4396
G0 F3600 X65.675 Y45.875
;LAYER:2
;Z:0.700
;HEIGHT:0.200
G1 F2400 E-0.1000
G0 F900 Z0.700
G0 F9000 X65.575 Y45.875
G0 X65.325 Y45.235
G0 X65.225 Y45.225
;TYPE:WALL-OUTER
;WIDTH:0.450
G1 F2400 E0.1000
G1 F1950 X184.775 Y45.225 E4.4733
G1 X184.775 Y164.775 E4.4733
G1 X65.225 Y164.775 E4.4733
G1 X65.225 Y45.225 E4.4733
G0 F3600 X65.425 Y45.225
G1 F2400 E-0.1000
G0 F9000 X65.675 Y45.675
G1 F2400 E0.1000
G1 F1950 X65.675 Y164.325 E4.4396
G1 X184.325 Y164.325 E4.4396
G1 X184.325 Y45.675 E4.4396
G1 X65.675 Y45.675 E4.4396
G0 F3600 X65.675 Y45.875
M106 S0
G1 F2400 E-0.1000
M82
G0 F900 Z5.700
G0 F9000 X65.675 Y45.875
M221 T0 S100
G92 E0
;End GCode
M104 T0 S0
M221 T0 S100
M104 S0
M140 S0
M107
G91
G1 E-1 F300
G1 Z+0.5 E-5 Y-20 F9000.00
G28 X0 U0
M84
G90
;Data start:95976:dde7b85dbd75feaef8efc7f734a338fa
;Data end
;Recover start:29
;G21
;G90
;G28 X0 Y0
;G92 X0 Y0 Z{z}
;M221 T0 S95.00
;M140 S85.00
;M104 T0 S235.00
;M109 T0 S235.00
;T0
;M190 S85.00
;G21
;G90
;M82
;M106 S0
;T0
;G92 E0
;G1 F140 E29
;G1 X20 Y0 F140 E30
;G92 E0
;T{current_extruder}
;M106 S{current_fan_speed}
;G92 E{current_extrusion}
;G0 F6000 X{x} Y{y} Z{z}
;G0 F{current_travel_speed}
;G1 F{current_extrude_speed} E{current_extrusion}
;{current_unit}
;{current_pos_abs}
;{current_extrude_abs}
;M117 Printing...
;Recover end
;Print Time: 168
;Material#1 Used: 169.2
;Material#2 Used: 0.0
;Material#1 Cost: 0.05
;Material#2 Cost: 0.00
