;Sliced by ideaMaker 3.5.3.4250, 2020-07-01 13:11:56 UTC+0200
;Dimension: 250.000 210.000 200.000 0.400
;Plate Shape: 0
;Extruder Offset #1: 25.000 0.000
;Filament Diameter #1: 1.750
;Filament Diameter #2: 1.750
;Filament Compensation #1: 95.00
;Filament Compensation #2: 98.00
;Filament Density #1: 1270.00
;Filament Density #2: 1270.00
;Bounding Box: 111.730 138.270 91.730 118.270 0.000 20.100
;Model Gap: 0.000
M221 T0 S95.00
M140 S85.00
M104 T0 S235.00
M109 T0 S235.00
T0
M190 S85.00
M572 D0 S0.05
M572 D1 S0.05
G21
G90
M82
M107
G28
G1 Z0 F500
G92 E0
G1 Z0.2 F400
G1 X60 Y-2 E5 F600
G1 X140 Y-2 E12 F500
G1 X148 E15 F200
G92 E0
G1 F9000.0
M117 Printing...
;end of Start GCode
M83
;LAYER:0
;Z:0.300
;HEIGHT:0.300
M106 S77
G1 F2400 E-0.1000
G0 F9000 X112.498 Y92.894
G0 F900 Z0.300
;TYPE:SKIRT
;WIDTH:0.540
G1 F2400 E0.1000
G1 F900 X112.816 Y92.566 E0.0308
G1 X113.177 Y92.285 E0.0308
G1 X113.574 Y92.057 E0.0308
G1 X113.998 Y91.887 E0.0308
G1 X114.442 Y91.778 E0.0308
G1 X115.000 Y91.730 E0.0377
G1 X135.000 Y91.730 E1.3470
G1 X135.456 Y91.762 E0.0308
G1 X135.903 Y91.857 E0.0308
G1 X136.333 Y92.014 E0.0308
G1 X136.736 Y92.229 E0.0308
G1 X137.106 Y92.498 E0.0308
G1 X137.434 Y92.816 E0.0308
G1 X137.715 Y93.177 E0.0308
G1 X137.943 Y93.574 E0.0308
G1 X138.113 Y93.998 E0.0308
G1 X138.222 Y94.442 E0.0308
G1 X138.270 Y95.000 E0.0377
G1 X138.270 Y115.000 E1.3470
G1 X138.238 Y115.456 E0.0308
G1 X138.143 Y115.903 E0.0308
G1 X137.986 Y116.333 E0.0308
G1 X137.771 Y116.736 E0.0308
G1 X137.502 Y117.106 E0.0308
G1 X137.184 Y117.434 E0.0308
G1 X136.823 Y117.715 E0.0308
G1 X136.426 Y117.943 E0.0308
G1 X136.002 Y118.113 E0.0308
G1 X135.558 Y118.222 E0.0308
G1 X135.000 Y118.270 E0.0377
G1 X115.000 Y118.270 E1.3470
G1 X114.544 Y118.238 E0.0308
G1 X114.097 Y118.143 E0.0308
G1 X113.667 Y117.986 E0.0308
G1 X113.264 Y117.771 E0.0308
G1 X112.894 Y117.502 E0.0308
G1 X112.566 Y117.184 E0.0308
G1 X112.285 Y116.823 E0.0308
G1 X112.057 Y116.426 E0.0308
G1 X111.887 Y116.002 E0.0308
G1 X111.778 Y115.558 E0.0308
G1 X111.730 Y115.000 E0.0377
G1 X111.730 Y95.000 E1.3470
G1 X111.762 Y94.544 E0.0308
G1 X111.857 Y94.097 E0.0308
G1 X112.014 Y93.667 E0.0308
G1 X112.229 Y93.264 E0.0308
G1 X112.498 Y92.894 E0.0308
G1 F2400 E-0.1000
G0 F9000 X115.810 Y95.810
;TYPE:WALL-INNER
;WIDTH:0.540
G1 F2400 E0.1000
G1 F900 X134.190 Y95.810 E1.2379
G1 X134.190 Y114.190 E1.2379
G1 X115.810 Y114.190 E1.2379
G1 X115.810 Y95.810 E1.2379
G1 F2400 E-0.1000
G0 F9000 X115.370 Y95.280
G0 X115.270 Y95.270
;TYPE:WALL-OUTER
;WIDTH:0.540
G1 F2400 E0.1000
G1 F900 X134.730 Y95.270 E1.3107
G1 X134.730 Y114.730 E1.3107
G1 X115.270 Y114.730 E1.3107
G1 X115.270 Y95.270 E1.3107
G0 F3600 X115.470 Y95.270
G1 F2400 E-0.1000
G0 F9000 X115.470 Y95.370
G0 X115.917 Y113.244
;TYPE:SOLID-FILL
;WIDTH:0.540
G1 F2400 E0.1000
G1 F900 X116.754 Y114.081 E0.0797
G1 F2400 E-0.1000
G0 F9000 X117.518 Y114.081
G1 F2400 E0.1000
G1 F900 X115.917 Y112.480 E0.1525
G1 F2400 E-0.1000
G0 F9000 X115.917 Y111.717
G1 F2400 E0.1000
G1 F900 X118.281 Y114.081 E0.2252
G1 F2400 E-0.1000
G0 F9000 X119.045 Y114.081
G1 F2400 E0.1000
G1 F900 X115.917 Y110.953 E0.2979
G1 F2400 E-0.1000
G0 F9000 X115.917 Y110.189
G1 F2400 E0.1000
G1 F900 X119.809 Y114.081 E0.3707
G1 F2400 E-0.1000
G0 F9000 X120.573 Y114.081
G1 F2400 E0.1000
G1 F900 X115.917 Y109.426 E0.4434
G1 F2400 E-0.1000
G0 F9000 X115.917 Y108.662
G1 F2400 E0.1000
G1 F900 X121.336 Y114.081 E0.5162
G1 F2400 E-0.1000
G0 F9000 X122.100 Y114.081
G1 F2400 E0.1000
G1 F900 X115.917 Y107.898 E0.5889
G1 F2400 E-0.1000
G0 F9000 X115.917 Y107.135
G1 F2400 E0.1000
G1 F900 X122.864 Y114.081 E0.6617
G1 F2400 E-0.1000
G0 F9000 X123.627 Y114.081
G1 F2400 E0.1000
G1 F900 X115.917 Y106.371 E0.7344
G1 F2400 E-0.1000
G0 F9000 X115.917 Y105.607
G1 F2400 E0.1000
G1 F900 X124.391 Y114.081 E0.8071
G1 F2400 E-0.1000
G0 F9000 X125.155 Y114.081
G1 F2400 E0.1000
G1 F900 X115.917 Y104.844 E0.8799
G1 F2400 E-0.1000
G0 F9000 X115.917 Y104.080
G1 F2400 E0.1000
G1 F900 X125.918 Y114.081 E0.9526
G1 F2400 E-0.1000
G0 F9000 X126.682 Y114.081
G1 F2400 E0.1000
G1 F900 X115.917 Y103.316 E1.0254
G1 F2400 E-0.1000
G0 F9000 X115.917 Y102.553
G1 F2400 E0.1000
G1 F900 X127.446 Y114.081 E1.0981
G1 F2400 E-0.1000
G0 F9000 X128.209 Y114.081
G1 F2400 E0.1000
G1 F900 X115.917 Y101.789 E1.1708
G1 F2400 E-0.1000
G0 F9000 X115.917 Y101.025
G1 F2400 E0.1000
G1 F900 X128.973 Y114.081 E1.2436
G1 F2400 E-0.1000
G0 F9000 X129.737 Y114.081
G1 F2400 E0.1000
G1 F900 X115.917 Y100.262 E1.3163
G1 F2400 E-0.1000
G0 F9000 X115.917 Y99.498
G1 F2400 E0.1000
G1 F900 X130.500 Y114.081 E1.3890
G1 F2400 E-0.1000
G0 F9000 X131.264 Y114.081
G1 F2400 E0.1000
G1 F900 X115.917 Y98.734 E1.4618
G1 F2400 E-0.1000
G0 F9000 X115.917 Y97.971
G1 F2400 E0.1000
G1 F900 X132.028 Y114.081 E1.5345
G1 F2400 E-0.1000
G0 F9000 X132.791 Y114.081
G1 F2400 E0.1000
G1 F900 X115.917 Y97.207 E1.6072
G1 F2400 E-0.1000
G0 F9000 X115.917 Y96.443
G1 F2400 E0.1000
G1 F900 X133.555 Y114.081 E1.6800
G0 F9000 X134.081 Y113.844
G1 F900 X116.155 Y95.917 E1.7075
G1 F2400 E-0.1000
G0 F9000 X116.918 Y95.917
G1 F2400 E0.1000
G1 F900 X134.081 Y113.080 E1.6348
G1 F2400 E-0.1000
G0 F9000 X134.081 Y112.316
G1 F2400 E0.1000
G1 F900 X117.682 Y95.917 E1.5620
G1 F2400 E-0.1000
G0 F9000 X118.446 Y95.917
G1 F2400 E0.1000
G1 F900 X134.081 Y111.553 E1.4893
G1 F2400 E-0.1000
G0 F9000 X134.081 Y110.789
G1 F2400 E0.1000
G1 F900 X119.209 Y95.917 E1.4166
G1 F2400 E-0.1000
G0 F9000 X119.973 Y95.917
G1 F2400 E0.1000
G1 F900 X134.081 Y110.025 E1.3438
G1 F2400 E-0.1000
G0 F9000 X134.081 Y109.262
G1 F2400 E0.1000
G1 F900 X120.737 Y95.917 E1.2711
G1 F2400 E-0.1000
G0 F9000 X121.500 Y95.917
G1 F2400 E0.1000
G1 F900 X134.081 Y108.498 E1.1983
G1 F2400 E-0.1000
G0 F9000 X134.081 Y107.734
G1 F2400 E0.1000
G1 F900 X122.264 Y95.917 E1.1256
G1 F2400 E-0.1000
G0 F9000 X123.028 Y95.917
G1 F2400 E0.1000
G1 F900 X134.081 Y106.971 E1.0528
G1 F2400 E-0.1000
G0 F9000 X134.081 Y106.207
G1 F2400 E0.1000
G1 F900 X123.791 Y95.917 E0.9801
G1 F2400 E-0.1000
G0 F9000 X124.555 Y95.917
G1 F2400 E0.1000
G1 F900 X134.081 Y105.443 E0.9073
G1 F2400 E-0.1000
G0 F9000 X134.081 Y104.680
G1 F2400 E0.1000
G1 F900 X125.319 Y95.917 E0.8346
G1 F2400 E-0.1000
G0 F9000 X126.082 Y95.917
G1 F2400 E0.1000
G1 F900 X134.081 Y103.916 E0.7619
G1 F2400 E-0.1000
G0 F9000 X134.081 Y103.152
G1 F2400 E0.1000
G1 F900 X126.846 Y95.917 E0.6891
G1 F2400 E-0.1000
G0 F9000 X127.610 Y95.917
G1 F2400 E0.1000
G1 F900 X134.081 Y102.389 E0.6164
G1 F2400 E-0.1000
G0 F9000 X134.081 Y101.625
G1 F2400 E0.1000
G1 F900 X128.373 Y95.917 E0.5437
G1 F2400 E-0.1000
G0 F9000 X129.137 Y95.917
G1 F2400 E0.1000
G1 F900 X134.081 Y100.861 E0.4709
G1 F2400 E-0.1000
G0 F9000 X134.081 Y100.098
G1 F2400 E0.1000
G1 F900 X129.901 Y95.917 E0.3982
G1 F2400 E-0.1000
G0 F9000 X130.664 Y95.917
G1 F2400 E0.1000
G1 F900 X134.081 Y99.334 E0.3255
G1 F2400 E-0.1000
G0 F9000 X134.081 Y98.570
G1 F2400 E0.1000
G1 F900 X131.428 Y95.917 E0.2527
G1 F2400 E-0.1000
G0 F9000 X132.192 Y95.917
G1 F2400 E0.1000
G1 F900 X134.081 Y97.807 E0.1800
G1 F2400 E-0.1000
G0 F9000 X134.081 Y97.043
G1 F2400 E0.1000
G1 F900 X132.955 Y95.917 E0.1073
G1 F2400 E-0.1000
G0 F9000 X133.719 Y95.917
G1 F2400 E0.1000
G1 F900 X134.081 Y96.279 E0.0345
;LAYER:1
;Z:0.500
;HEIGHT:0.200
M106 S255
G1 F2400 E-0.1000
G0 F900 Z0.500
G0 F9000 X115.675 Y95.675
;TYPE:WALL-INNER
;WIDTH:0.450
G1 F2400 E0.1000
G1 F1425 X134.325 Y95.675 E0.6978
G1 X134.325 Y114.325 E0.6978
G1 X115.675 Y114.325 E0.6978
G1 X115.675 Y95.675 E0.6978
G1 F2400 E-0.1000
G0 F9000 X115.325 Y95.235
G0 X115.225 Y95.225
;TYPE:WALL-OUTER
;WIDTH:0.450
G1 F2400 E0.1000
G1 F1425 X134.775 Y95.225 E0.7315
G1 X134.775 Y114.775 E0.7315
G1 X115.225 Y114.775 E0.7315
G1 X115.225 Y95.225 E0.7315
G0 F3600 X115.425 Y95.225
G1 F2400 E-0.1000
G0 F9000 X115.425 Y95.325
G0 X115.836 Y95.764
;TYPE:SOLID-FILL
;WIDTH:0.450
G1 F2400 E0.1000
G1 F1350 X115.764 Y95.837 E0.0038
G0 F9000 X116.034 Y96.521
;TYPE:SOLID-FILL
;WIDTH:0.450
G1 F1575 X116.521 Y96.035 E0.0257
G1 X117.157 Y96.035 E0.0238
G1 X116.034 Y97.157 E0.0594
G1 X116.034 Y97.794 E0.0238
G1 X117.794 Y96.035 E0.0931
G1 X118.430 Y96.035 E0.0238
G1 X116.034 Y98.430 E0.1268
G1 X116.034 Y99.067 E0.0238
G1 X119.066 Y96.035 E0.1604
G1 X119.703 Y96.035 E0.0238
G1 X116.034 Y99.703 E0.1941
G1 X116.034 Y100.339 E0.0238
G1 X120.339 Y96.035 E0.2278
G1 X120.976 Y96.035 E0.0238
G1 X116.034 Y100.976 E0.2615
G1 X116.034 Y101.612 E0.0238
G1 X121.612 Y96.035 E0.2951
G1 X122.248 Y96.035 E0.0238
G1 X116.034 Y102.249 E0.3288
G1 X116.034 Y102.885 E0.0238
G1 X122.885 Y96.035 E0.3625
G1 X123.521 Y96.035 E0.0238
G1 X116.034 Y103.521 E0.3962
G1 X116.034 Y104.158 E0.0238
G1 X124.158 Y96.035 E0.4299
G1 X124.794 Y96.035 E0.0238
G1 X116.034 Y104.794 E0.4635
G1 X116.034 Y105.431 E0.0238
G1 X125.430 Y96.035 E0.4972
G1 X126.067 Y96.035 E0.0238
G1 X116.034 Y106.067 E0.5309
G1 X116.034 Y106.703 E0.0238
G1 X126.703 Y96.035 E0.5645
G1 X127.340 Y96.035 E0.0238
G1 X116.034 Y107.340 E0.5982
G1 X116.034 Y107.976 E0.0238
G1 X127.976 Y96.035 E0.6319
G1 X128.612 Y96.035 E0.0238
G1 X116.034 Y108.613 E0.6656
G1 X116.034 Y109.249 E0.0238
G1 X129.249 Y96.035 E0.6993
G1 X129.885 Y96.035 E0.0238
G1 X116.034 Y109.885 E0.7329
G1 X116.034 Y110.522 E0.0238
G1 X130.522 Y96.035 E0.7666
G1 X131.158 Y96.035 E0.0238
G1 X116.034 Y111.158 E0.8003
G1 X116.034 Y111.794 E0.0238
G1 X131.794 Y96.035 E0.8339
G1 X132.431 Y96.035 E0.0238
G1 X116.034 Y112.431 E0.8676
G1 X116.034 Y113.067 E0.0238
G1 X133.067 Y96.035 E0.9013
G1 X133.703 Y96.035 E0.0238
G1 X116.034 Y113.704 E0.9350
G1 X116.034 Y113.965 E0.0098
G1 X116.410 Y113.965 E0.0141
G1 X133.964 Y96.411 E0.9289
G1 X133.964 Y97.047 E0.0238
G1 X117.046 Y113.965 E0.8952
G1 X117.683 Y113.965 E0.0238
G1 X133.964 Y97.683 E0.8616
G1 X133.964 Y98.320 E0.0238
G1 X118.319 Y113.965 E0.8279
G1 X118.955 Y113.965 E0.0238
G1 X133.964 Y98.956 E0.7942
G1 X133.964 Y99.593 E0.0238
G1 X119.592 Y113.965 E0.7605
G1 X120.228 Y113.965 E0.0238
G1 X133.964 Y100.229 E0.7269
G1 X133.964 Y100.865 E0.0238
G1 X120.865 Y113.965 E0.6932
G1 X121.501 Y113.965 E0.0238
G1 X133.964 Y101.502 E0.6595
G1 X133.964 Y102.138 E0.0238
G1 X122.137 Y113.965 E0.6258
G1 X122.774 Y113.965 E0.0238
G1 X133.964 Y102.775 E0.5921
G1 X133.964 Y103.411 E0.0238
G1 X123.410 Y113.965 E0.5585
G1 X124.047 Y113.965 E0.0238
G1 X133.964 Y104.047 E0.5248
G1 X133.964 Y104.684 E0.0238
G1 X124.683 Y113.965 E0.4911
G1 X125.319 Y113.965 E0.0238
G1 X133.964 Y105.320 E0.4575
G1 X133.964 Y105.957 E0.0238
G1 X125.956 Y113.965 E0.4238
G1 X126.592 Y113.965 E0.0238
G1 X133.964 Y106.593 E0.3901
G1 X133.964 Y107.229 E0.0238
G1 X127.229 Y113.965 E0.3564
G1 X127.865 Y113.965 E0.0238
G1 X133.964 Y107.866 E0.3227
G1 X133.964 Y108.502 E0.0238
G1 X128.501 Y113.965 E0.2891
G1 X129.138 Y113.965 E0.0238
G1 X133.964 Y109.139 E0.2554
G1 X133.964 Y109.775 E0.0238
G1 X129.774 Y113.965 E0.2217
G1 X130.410 Y113.965 E0.0238
G1 X133.964 Y110.411 E0.1881
G1 X133.964 Y111.048 E0.0238
G1 X131.047 Y113.965 E0.1544
G1 X131.683 Y113.965 E0.0238
G1 X133.964 Y111.684 E0.1207
G1 X133.964 Y112.321 E0.0238
G1 X132.320 Y113.965 E0.0870
G1 X132.956 Y113.965 E0.0238
G1 X133.964 Y112.957 E0.0533
G1 X133.964 Y113.593 E0.0238
G1 X133.592 Y113.965 E0.0197
G0 F9000 X133.751 Y114.124
;TYPE:SOLID-FILL
;WIDTH:0.450
G1 F1425 X133.686 Y114.189 E0.0034
G1 F2400 E-0.1000
G0 F9000 X115.875 Y96.363
G1 F2400 E0.1000
G1 F1425 X115.809 Y96.428 E0.0035
;LAYER:2
;Z:0.700
;HEIGHT:0.200
G0 F900 Z0.700
G0 F9000 X115.675 Y95.675
;TYPE:WALL-INNER
;WIDTH:0.450
G1 F1950 X134.325 Y95.675 E0.6978
G1 X134.325 Y114.325 E0.6978
G1 X115.675 Y114.325 E0.6978
G1 X115.675 Y95.675 E0.6978
G1 F2400 E-0.1000
G0 F9000 X115.325 Y95.235
G0 X115.225 Y95.225
;TYPE:WALL-OUTER
;WIDTH:0.450
G1 F2400 E0.1000
G1 F1950 X134.775 Y95.225 E0.7315
G1 X134.775 Y114.775 E0.7315
G1 X115.225 Y114.775 E0.7315
G1 X115.225 Y95.225 E0.7315
G0 F3600 X115.425 Y95.225
G1 F2400 E-0.1000
G0 F9000 X115.425 Y95.325
G0 X134.009 Y96.462
;TYPE:SOLID-FILL
;WIDTH:0.450
G1 F2400 E0.1000
G1 F2250 X133.537 Y95.989 E0.0250
G1 X132.900 Y95.989 E0.0238
G1 X134.009 Y97.098 E0.0587
G1 X134.009 Y97.734 E0.0238
G1 X132.264 Y95.989 E0.0923
G1 X131.627 Y95.989 E0.0238
G1 X134.009 Y98.371 E0.1260
G1 X134.009 Y99.007 E0.0238
G1 X130.991 Y95.989 E0.1597
G1 X130.355 Y95.989 E0.0238
G1 X134.009 Y99.644 E0.1934
G1 X134.009 Y100.280 E0.0238
G1 X129.718 Y95.989 E0.2271
G1 X129.082 Y95.989 E0.0238
G1 X134.009 Y100.916 E0.2607
G1 X134.009 Y101.553 E0.0238
G1 X128.445 Y95.989 E0.2944
G1 X127.809 Y95.989 E0.0238
G1 X134.009 Y102.189 E0.3281
G1 X134.009 Y102.826 E0.0238
G1 X127.173 Y95.989 E0.3618
G1 X126.536 Y95.989 E0.0238
G1 X134.009 Y103.462 E0.3954
G1 X134.009 Y104.098 E0.0238
G1 X125.900 Y95.989 E0.4291
G1 X125.263 Y95.989 E0.0238
G1 X134.009 Y104.735 E0.4628
G1 X134.009 Y105.371 E0.0238
G1 X124.627 Y95.989 E0.4965
G1 X123.991 Y95.989 E0.0238
G1 X134.009 Y106.008 E0.5301
G1 X134.009 Y106.644 E0.0238
G1 X123.354 Y95.989 E0.5638
G1 X122.718 Y95.989 E0.0238
G1 X134.009 Y107.280 E0.5975
G1 X134.009 Y107.917 E0.0238
G1 X122.081 Y95.989 E0.6312
G1 X121.445 Y95.989 E0.0238
G1 X134.009 Y108.553 E0.6648
G1 X134.009 Y109.190 E0.0238
G1 X120.809 Y95.989 E0.6985
G1 X120.172 Y95.989 E0.0238
G1 X134.009 Y109.826 E0.7322
G1 X134.009 Y110.462 E0.0238
G1 X119.536 Y95.989 E0.7659
G1 X118.900 Y95.989 E0.0238
G1 X134.009 Y111.099 E0.7995
G1 X134.009 Y111.735 E0.0238
G1 X118.263 Y95.989 E0.8332
G1 X117.627 Y95.989 E0.0238
G1 X134.009 Y112.371 E0.8669
G1 X134.009 Y113.008 E0.0238
G1 X116.990 Y95.989 E0.9006
G1 X116.354 Y95.989 E0.0238
G1 X134.009 Y113.644 E0.9342
G1 X134.009 Y114.009 E0.0137
G1 X133.737 Y114.009 E0.0102
G1 X115.989 Y96.261 E0.9392
G1 X115.989 Y96.897 E0.0238
G1 X133.101 Y114.009 E0.9055
G1 X132.465 Y114.009 E0.0238
G1 X115.989 Y97.534 E0.8718
G1 X115.989 Y98.170 E0.0238
G1 X131.828 Y114.009 E0.8381
G1 X131.192 Y114.009 E0.0238
G1 X115.989 Y98.806 E0.8045
G1 X115.989 Y99.443 E0.0238
G1 X130.555 Y114.009 E0.7708
G1 X129.919 Y114.009 E0.0238
G1 X115.989 Y100.079 E0.7371
G1 X115.989 Y100.716 E0.0238
G1 X129.283 Y114.009 E0.7034
G1 X128.646 Y114.009 E0.0238
G1 X115.989 Y101.352 E0.6698
G1 X115.989 Y101.988 E0.0238
G1 X128.010 Y114.009 E0.6361
G1 X127.373 Y114.009 E0.0238
G1 X115.989 Y102.625 E0.6024
G1 X115.989 Y103.261 E0.0238
G1 X126.737 Y114.009 E0.5687
G1 X126.101 Y114.009 E0.0238
G1 X115.989 Y103.898 E0.5351
G1 X115.989 Y104.534 E0.0238
G1 X125.464 Y114.009 E0.5014
G1 X124.828 Y114.009 E0.0238
G1 X115.989 Y105.170 E0.4677
G1 X115.989 Y105.807 E0.0238
G1 X124.191 Y114.009 E0.4340
G1 X123.555 Y114.009 E0.0238
G1 X115.989 Y106.443 E0.4004
G1 X115.989 Y107.080 E0.0238
G1 X122.919 Y114.009 E0.3667
G1 X122.282 Y114.009 E0.0238
G1 X115.989 Y107.716 E0.3330
G1 X115.989 Y108.352 E0.0238
G1 X121.646 Y114.009 E0.2993
G1 X121.010 Y114.009 E0.0238
G1 X115.989 Y108.989 E0.2657
G1 X115.989 Y109.625 E0.0238
G1 X120.373 Y114.009 E0.2320
G1 X119.737 Y114.009 E0.0238
G1 X115.989 Y110.261 E0.1983
G1 X115.989 Y110.898 E0.0238
G1 X119.100 Y114.009 E0.1646
G1 X118.464 Y114.009 E0.0238
G1 X115.989 Y111.534 E0.1310
G1 X115.989 Y112.171 E0.0238
G1 X117.828 Y114.009 E0.0973
G1 X117.191 Y114.009 E0.0238
G1 X115.989 Y112.807 E0.0636
G1 X115.989 Y113.443 E0.0238
G1 X116.555 Y114.009 E0.0300
G0 F9000 X116.395 Y114.168
;TYPE:SOLID-FILL
;WIDTH:0.450
G1 F1950 X116.461 Y114.234 E0.0035
G1 F2400 E-0.1000
G0 F9000 X134.167 Y96.302
G1 F2400 E0.1000
G1 F1950 X134.234 Y96.368 E0.0035
;LAYER:3
;Z:0.900
;HEIGHT:0.200
G1 F2400 E-0.1000
G0 F900 Z0.900
G0 F9000 X115.675 Y95.675
;TYPE:WALL-INNER
;WIDTH:0.450
G1 F2400 E0.1000
G1 F2475 X134.325 Y95.675 E0.6978
G1 X134.325 Y114.325 E0.6978
G1 X115.675 Y114.325 E0.6978
G1 X115.675 Y95.675 E0.6978
G1 F2400 E-0.1000
G0 F9000 X115.325 Y95.235
G0 X115.225 Y95.225
;TYPE:WALL-OUTER
;WIDTH:0.450
G1 F2400 E0.1000
G1 F2475 X134.775 Y95.225 E0.7315
G1 X134.775 Y114.775 E0.7315
G1 X115.225 Y114.775 E0.7315
G1 X115.225 Y95.225 E0.7315
G0 F3600 X115.425 Y95.225
G1 F2400 E-0.1000
G0 F9000 X115.425 Y95.325
G0 X115.989 Y96.566
;TYPE:SOLID-FILL
;WIDTH:0.450
G1 F2400 E0.1000
G1 F2925 X116.566 Y95.989 E0.0305
G1 X117.202 Y95.989 E0.0238
G1 X115.989 Y97.203 E0.0642
